; generated by PrusaSlicer 2.7.4 on 2024-05-11 at 14:40:19 UTC

; 

; external perimeters extrusion width = 0.45mm
; perimeters extrusion width = 0.45mm
; infill extrusion width = 0.45mm
; solid infill extrusion width = 0.45mm
; top infill extrusion width = 0.40mm
; first layer extrusion width = 0.42mm

M73 P0 R60
M73 Q0 S60
M201 X1000 Y1000 Z200 E5000 ; sets maximum accelerations, mm/sec^2
M203 X200 Y200 Z12 E120 ; sets maximum feedrates, mm / sec
M204 S1250 T1250 ; sets acceleration (S) and retract acceleration (R), mm/sec^2
M205 X8.00 Y8.00 Z0.40 E4.50 ; sets the jerk limits, mm/sec
M205 S0 T0 ; sets the minimum extruding and travel feed rate, mm/sec

; printing object 3d_benchy_boat.stl id:0 copy 0
; stop printing object 3d_benchy_boat.stl id:0 copy 0

;TYPE:Custom
M862.3 P "MK3S" ; printer model check
M862.1 P0.4 ; nozzle diameter check
G90 ; use absolute coordinates
M83 ; extruder relative mode
M104 S215 ; set extruder temp
M140 S60 ; set bed temp
M190 S60 ; wait for bed temp
M109 S215 ; wait for extruder temp
G28 W ; home all without mesh bed level
G80 X102.258 Y88.5663 W39.1926 H39.1926 ; mesh bed levelling

G1 Z0.2 F720
G1 Y-3 F1000 ; go outside print area
G92 E0
G1 X60 E9 F1000 ; intro line
G1 X100 E12.5 F1000 ; intro line

G92 E0
M221 S95

; Don't change E values below. Excessive value can damage the printer.
M907 E430 ; set extruder motor current
G21 ; set units to millimeters
G90 ; use absolute coordinates
M83 ; use relative distances for extrusion

M900 K0.05 ; Filament gcode LA 1.5
M900 K30 ; Filament gcode LA 1.0




M107
;LAYER_CHANGE
;Z:0.2
;HEIGHT:0.2
G1 E-.8 F2100
G1 Z.6 F720
G1 X114.364 Y100.458 F10800
G1 Z.2 F720
G1 E.8 F2100
M204 S800
;TYPE:Skirt/Brim
;WIDTH:0.42
G1 F1200
G1 X119.204 Y94.948 E.22995
G1 X120.133 Y93.976 E.04216
G1 X121.212 Y93.007 E.04547
G1 X122.564 Y91.989 E.05306
G1 X123.891 Y91.16 E.04906
G1 X125.322 Y90.428 E.0504
G1 X126.834 Y89.814 E.05117
G1 X128.377 Y89.343 E.05058
G1 X130.011 Y88.998 E.05236
G1 X131.554 Y88.811 E.04873
G1 X133.11 Y88.755 E.04882
G1 X135.768 Y88.965 E.0836
G1 X137.316 Y89.27 E.04947
G1 X138.216 Y89.536 E.02943
G1 X138.914 Y89.898 E.02465
G1 X139.608 Y90.462 E.02804
G1 X140.166 Y91.178 E.02846
G1 X140.54 Y91.957 E.02709
G1 X140.935 Y93.571 E.0521
G1 X141.194 Y95.442 E.05922
G1 X141.26 Y97.304 E.05842
G1 X141.152 Y99.037 E.05444
G1 X140.884 Y100.743 E.05415
G1 X140.377 Y102.665 E.06232
G1 X139.798 Y104.226 E.0522
G1 X138.951 Y105.962 E.06056
G1 X138.169 Y107.247 E.04716
G1 X137.357 Y108.373 E.04353
G1 X136.438 Y109.462 E.04468
G1 X135.51 Y110.41 E.04159
G1 X117.104 Y126.585 E.76828
G1 X116.494 Y126.995 E.02304
G1 X115.909 Y127.273 E.02031
G1 X114.673 Y127.556 E.03976
G1 X113.392 Y127.472 E.04025
G1 X112.209 Y127.039 E.0395
G1 X111.081 Y126.2 E.04408
G1 X103.818 Y118.937 E.32205
G1 X103.225 Y118.214 E.02932
G1 X102.71 Y117.205 E.03552
G1 X102.458 Y116.008 E.03835
G1 X102.532 Y114.839 E.03673
G1 X102.98 Y113.602 E.04125
G1 X103.58 Y112.735 E.03306
G1 X114.324 Y100.503 E.51046
M204 S1000
G1 X114.324 Y100.503 F10800
G1 X114.608 Y100.752
M204 S800
G1 F1200
G1 X119.489 Y95.195 E.2319
G1 X120.394 Y94.248 E.04107
G1 X121.433 Y93.314 E.0438
G1 X122.664 Y92.378 E.04849
G1 X123.931 Y91.571 E.0471
G1 X125.23 Y90.887 E.04603
G1 X126.848 Y90.21 E.05499
G1 X128.304 Y89.752 E.04786
G1 X129.813 Y89.414 E.04849
G1 X131.338 Y89.208 E.04825
G1 X133.11 Y89.132 E.05561
G1 X135.713 Y89.338 E.08187
G1 X137.232 Y89.638 E.04855
G1 X138.082 Y89.889 E.02779
G1 X138.711 Y90.216 E.02223
G1 X139.342 Y90.728 E.02548
G1 X139.847 Y91.379 E.02583
G1 X140.187 Y92.089 E.02468
G1 X140.57 Y93.674 E.05113
G1 X140.83 Y95.615 E.0614
G1 X140.883 Y97.32 E.05348
G1 X140.778 Y98.994 E.05259
G1 X140.515 Y100.663 E.05298
G1 X140.017 Y102.552 E.06125
G1 X139.452 Y104.076 E.05096
G1 X138.62 Y105.781 E.05948
G1 X137.853 Y107.041 E.04625
G1 X137.058 Y108.144 E.04263
G1 X135.25 Y110.137 E.08437
G1 X116.866 Y126.292 E.76735
G1 X115.776 Y126.92 E.03944
G1 X114.646 Y127.18 E.03636
G1 X113.475 Y127.105 E.03679
G1 X112.283 Y126.649 E.04002
G1 X111.348 Y125.934 E.03691
G1 X104.084 Y118.67 E.3221
G1 X103.595 Y118.085 E.02391
G1 X103.064 Y117.074 E.03581
G1 X102.833 Y115.977 E.03515
G1 X102.926 Y114.802 E.03696
G1 X103.315 Y113.774 E.03446
G1 X103.863 Y112.983 E.03017
G1 X114.568 Y100.797 E.50857
M204 S1000
;WIPE_START
G1 F8640
G1 X114.608 Y100.752 E-.0139
G1 X116.855 Y98.194 E-.7861
;WIPE_END
G1 Z.6 F720
; printing object 3d_benchy_boat.stl id:0 copy 0
G1 X132.77 Y93.994 F10800
G1 Z.2 F720
G1 E.8 F2100
M204 S800
;TYPE:Perimeter
;WIDTH:0.419999
G1 F1200
G1 X131.895 Y94.87 E.03882
G1 X131.524 Y95.388 E.01998
G1 X131.403 Y95.753 E.01206
G1 X131.424 Y96.13 E.01184
G1 X131.175 Y96.083 E.00795
G1 X130.847 Y96.141 E.01044
G1 X130.631 Y96.221 E.00722
G1 X130.342 Y96.472 E.012
G1 X130.153 Y96.809 E.01211
G1 X130.1 Y97.071 E.00838
G1 X130.157 Y97.654 E.01837
G1 X130.4 Y98.249 E.02015
G1 X129.869 Y97.977 E.01871
G1 X129.364 Y97.895 E.01604
G1 X128.869 Y98.029 E.01608
G1 X128.462 Y98.316 E.01561
G1 X128.227 Y98.635 E.01242
G1 X128.112 Y99.01 E.0123
G1 X128.148 Y99.366 E.01122
G1 X127.602 Y99.383 E.01713
G1 X127.299 Y99.519 E.01041
G1 X127.036 Y99.759 E.01116
G1 X126.866 Y100.116 E.0124
G1 X126.818 Y100.5 E.01213
G1 X126.881 Y100.898 E.01263
G1 X126.664 Y100.845 E.007
G1 X126.164 Y100.848 E.01568
G1 X125.825 Y101 E.01165
G1 X125.625 Y101.146 E.00776
G1 X125.319 Y101.645 E.01835
G1 X125.27 Y102.161 E.01625
G1 X125.309 Y102.392 E.00735
G1 X125.471 Y102.698 E.01086
G1 X125.647 Y102.894 E.00826
G1 X126.123 Y103.187 E.01753
G1 X127.519 Y103.592 E.04558
G1 X127.575 Y103.88 E.0092
G1 X127.763 Y104.447 E.01873
G1 X127.282 Y104.353 E.01537
G1 X126.917 Y104.364 E.01145
G1 X126.356 Y104.575 E.01879
G1 X126.127 Y104.785 E.00974
G1 X125.852 Y105.117 E.01352
G1 X125.779 Y105.315 E.00662
G1 X125.686 Y105.14 E.00621
G1 X125.368 Y104.726 E.01637
G1 X124.981 Y104.371 E.01647
G1 X124.6 Y104.046 E.0157
G1 X124.018 Y103.698 E.02126
G1 X123.282 Y103.434 E.02452
G1 X122.61 Y103.349 E.02124
G1 X122.057 Y103.399 E.01741
G1 X121.537 Y103.563 E.0171
G1 X121.072 Y103.819 E.01664
G1 X120.547 Y104.213 E.02058
G1 X119.458 Y105.254 E.04724
G1 X119.212 Y105.52 E.01136
G1 X118.94 Y106.026 E.01801
G1 X118.885 Y106.44 E.01309
G1 X118.951 Y106.766 E.01043
;WIDTH:0.467068
G1 X119.051 Y106.949 E.00735
;WIDTH:0.514137
G1 X119.151 Y107.132 E.00817
;WIDTH:0.561206
G1 X119.251 Y107.315 E.00899
G1 X119.097 Y107.277 E.00684
;WIDTH:0.514137
G1 X118.943 Y107.239 E.00621
;WIDTH:0.467068
G1 X118.79 Y107.201 E.00556
;WIDTH:0.419999
G1 X118.207 Y107.138 E.01839
G1 X117.689 Y107.228 E.01648
G1 X117.203 Y107.441 E.01664
G1 X116.736 Y107.768 E.01788
G1 X116.267 Y108.227 E.02058
G1 X115.886 Y108.76 E.02054
G1 X115.667 Y109.264 E.01723
G1 X115.588 Y109.767 E.01596
G1 X115.596 Y109.993 E.00709
G1 X115.368 Y109.943 E.00732
G1 X114.817 Y110.042 E.01755
G1 X114.422 Y110.303 E.01484
G1 X112.183 Y112.556 E.09959
G1 X111.635 Y113.051 E.02315
G1 X111.391 Y113.461 E.01496
G1 X111.325 Y113.797 E.01074
G1 X111.424 Y114.334 E.01712
G1 X110.82 Y114.354 E.01895
G1 X110.28 Y114.508 E.01761
G1 X109.758 Y114.8 E.01875
G1 X109.125 Y115.368 E.02667
G1 X108.744 Y115.875 E.01988
G1 X108.604 Y116.16 E.00996
G1 X108.395 Y116.694 E.01798
G1 X108.294 Y117.571 E.02768
G1 X108.37 Y118.118 E.01732
G1 X106.691 Y116.413 E.07503
G1 X106.461 Y116.082 E.01264
G1 X106.384 Y115.748 E.01075
G1 X106.449 Y115.413 E.0107
G1 X106.654 Y115.065 E.01266
G1 X122.159 Y97.553 E.73336
G1 X122.907 Y96.773 E.03388
M73 P0 R59
G1 X123.602 Y96.142 E.02943
G1 X124.534 Y95.418 E.037
G1 X125.015 Y95.092 E.01822
G1 X125.57 Y94.747 E.02049
G1 X126.611 Y94.192 E.03699
G1 X127.34 Y93.867 E.02503
G1 X128.041 Y93.599 E.02353
G1 X129.126 Y93.267 E.03558
G1 X129.764 Y93.115 E.02056
G1 X130.482 Y92.98 E.02291
G1 X131.162 Y92.889 E.02151
G1 X131.788 Y92.834 E.0197
G1 X132.584 Y92.804 E.02498
G1 X133.67 Y92.836 E.03407
;WIDTH:0.468908
G1 X133.779 Y92.87 E.00404
;WIDTH:0.517816
G1 X133.889 Y92.904 E.00455
;WIDTH:0.566724
G1 X133.999 Y92.938 E.00501
;WIDTH:0.615632
G1 X134.108 Y92.972 E.00544
G1 X134.032 Y93.01 E.00405
;WIDTH:0.574212
G1 X133.955 Y93.048 E.00379
;WIDTH:0.532791
G1 X133.878 Y93.086 E.0035
;WIDTH:0.491371
G1 X133.802 Y93.124 E.00317
;WIDTH:0.44995
G1 X133.353 Y93.41 E.01802
;WIDTH:0.419999
G1 X132.813 Y93.951 E.02397
M204 S1000
;WIPE_START
G1 F8640
G1 X132.77 Y93.994 E-.01404
G1 X131.895 Y94.87 E-.28589
G1 X131.524 Y95.388 E-.14712
G1 X131.403 Y95.753 E-.08879
G1 X131.424 Y96.13 E-.08719
G1 X131.175 Y96.083 E-.05851
G1 X130.847 Y96.141 E-.07691
G1 X130.678 Y96.204 E-.04155
;WIPE_END
G1 Z.6 F720
G1 X135.877 Y96.067 F10800
G1 Z.2 F720
G1 E.8 F2100
M204 S800
G1 F1200
G1 X135.666 Y94.694 E.04355
G1 X135.553 Y94.191 E.01616
G1 X135.305 Y93.701 E.01722
G1 X134.944 Y93.336 E.0161
;WIDTH:0.466694
G1 X134.835 Y93.258 E.00472
;WIDTH:0.513388
G1 X134.725 Y93.179 E.0053
;WIDTH:0.560082
G1 X134.616 Y93.101 E.00576
;WIDTH:0.606776
G1 X134.507 Y93.022 E.00631
G1 X134.59 Y93.015 E.00391
;WIDTH:0.56881
G1 X134.673 Y93.008 E.00364
;WIDTH:0.530844
G1 X134.756 Y93.001 E.00338
;WIDTH:0.492877
G1 X135.02 Y93.021 E.00991
;WIDTH:0.456438
G1 X135.284 Y93.041 E.0091
;WIDTH:0.419999
G1 X136.263 Y93.266 E.0315
G1 X136.562 Y93.4 E.01027
G1 X136.73 Y93.658 E.00965
G1 X136.923 Y94.452 E.02562
G1 X137.189 Y95.762 E.04191
G1 X137.055 Y95.709 E.00452
G1 X136.627 Y95.679 E.01345
G1 X136.239 Y95.805 E.01279
G1 X135.926 Y96.032 E.01212
M204 S1000
;WIPE_START
G1 F8640
G1 X135.877 Y96.067 E-.0139
G1 X135.666 Y94.694 E-.32075
G1 X135.553 Y94.191 E-.11904
G1 X135.305 Y93.701 E-.12681
G1 X134.944 Y93.336 E-.11854
G1 X134.835 Y93.258 E-.03095
G1 X134.725 Y93.179 E-.03127
G1 X134.616 Y93.101 E-.03095
G1 X134.589 Y93.081 E-.00779
;WIPE_END
G1 Z.6 F720
G1 X121.151 Y109.127 F10800
G1 Z.2 F720
G1 E.8 F2100
M204 S800
;WIDTH:0.503061
G1 F1200
G1 X120.864 Y109.025 E.01165
G1 X120.607 Y108.992 E.00991
G1 X120.251 Y109.022 E.01367
G1 X120.235 Y108.622 E.01532
G1 X120.144 Y108.325 E.01188
;WIDTH:0.533884
G1 X119.884 Y107.879 E.02108
G1 X120.259 Y108.234 E.02108
;WIDTH:0.503061
G1 X121.108 Y109.085 E.04599
M204 S1000
;WIPE_START
G1 F8640
G1 X121.151 Y109.127 E-.01388
G1 X120.864 Y109.025 E-.07033
G1 X120.607 Y108.992 E-.05983
G1 X120.251 Y109.022 E-.08249
G1 X120.235 Y108.622 E-.09243
G1 X120.144 Y108.325 E-.07172
G1 X119.884 Y107.879 E-.1192
G1 X120.259 Y108.234 E-.11923
G1 X120.782 Y108.758 E-.17089
;WIPE_END
G1 Z.6 F720
G1 X113.696 Y117.462 F10800
G1 Z.2 F720
G1 E.8 F2100
M204 S800
;WIDTH:0.419999
G1 F1200
G1 X113.364 Y117.72 E.01318
G1 X113.103 Y118.164 E.01615
G1 X113.026 Y118.741 E.01825
G1 X112.959 Y118.835 E.00362
G1 X112.785 Y118.986 E.00722
G1 X112.507 Y119.093 E.00934
G1 X112.203 Y119.023 E.00978
G1 X111.764 Y118.744 E.01631
G1 X111.361 Y118.358 E.0175
G1 X111.045 Y117.959 E.01596
G1 X110.875 Y117.565 E.01345
G1 X110.901 Y117.299 E.00838
G1 X111.083 Y117.061 E.00939
G1 X111.921 Y116.796 E.02756
G1 X112.29 Y116.561 E.01372
G1 X112.44 Y116.405 E.00679
G1 X112.661 Y115.993 E.01466
G1 X112.684 Y115.481 E.01607
G1 X112.618 Y115.193 E.00926
G1 X112.922 Y115.171 E.00956
G1 X113.226 Y115.053 E.01022
G1 X113.58 Y114.775 E.01411
G1 X113.933 Y114.334 E.01771
G1 X114.192 Y114.625 E.01221
G1 X116.173 Y116.584 E.08735
G1 X116.569 Y117.035 E.01882
G1 X117.009 Y117.307 E.01622
G1 X117.362 Y117.374 E.01127
G1 X117.906 Y117.228 E.01766
G1 X118.101 Y117.115 E.00707
G1 X118.401 Y116.831 E.01295
G1 X118.618 Y116.363 E.01617
G1 X118.661 Y116.15 E.00681
G1 X118.623 Y115.786 E.01147
G1 X118.468 Y115.397 E.01313
G1 X118.105 Y114.946 E.01815
G1 X117.645 Y114.517 E.01972
G1 X115.72 Y112.594 E.08531
G1 X116.163 Y112.127 E.02018
G1 X116.399 Y111.754 E.01384
G1 X116.535 Y111.312 E.0145
G1 X116.511 Y111.092 E.00694
G1 X116.759 Y111.143 E.00794
G1 X116.996 Y111.142 E.00743
G1 X117.47 Y111.036 E.01523
G1 X117.634 Y111.458 E.0142
G1 X117.894 Y111.817 E.0139
G1 X118.15 Y111.987 E.00964
G1 X118.492 Y112.123 E.01154
G1 X118.825 Y112.121 E.01044
;WIDTH:0.464124
G1 X119.24 Y112.013 E.01502
G1 X119.208 Y112.072 E.00235
;WIDTH:0.456258
G1 X118.847 Y112.548 E.02053
;WIDTH:0.419999
G1 X118.73 Y112.953 E.01322
G1 X118.718 Y113.199 E.00772
G1 X118.821 Y113.596 E.01286
G1 X119.084 Y113.963 E.01416
G1 X119.35 Y114.179 E.01074
G1 X119.781 Y114.372 E.01481
G1 X120.13 Y114.402 E.01098
G1 X120.603 Y114.356 E.0149
G1 X121.263 Y114.063 E.02264
G1 X121.945 Y113.507 E.02759
G1 X122.291 Y113.102 E.0167
G1 X122.556 Y112.653 E.01635
G1 X122.745 Y112.067 E.01931
G1 X122.792 Y111.54 E.01659
G1 X122.719 Y110.993 E.0173
G1 X122.539 Y110.479 E.01708
G1 X122.86 Y110.773 E.01365
G1 X123.286 Y111.012 E.01532
G1 X123.847 Y111.08 E.01772
G1 X124.273 Y110.923 E.01424
G1 X124.465 Y110.782 E.00747
G1 X124.884 Y110.313 E.01972
G1 X125.589 Y109.608 E.03126
G1 X126.11 Y108.947 E.02639
G1 X126.345 Y108.497 E.01592
G1 X126.487 Y107.951 E.01769
G1 X126.492 Y107.589 E.01135
G1 X126.79 Y107.755 E.0107
G1 X127.028 Y107.826 E.00779
G1 X127.559 Y107.851 E.01667
G1 X128.083 Y107.677 E.01731
G1 X128.264 Y107.57 E.00659
G1 X128.59 Y107.283 E.01362
G1 X128.866 Y106.862 E.01578
G1 X128.937 Y106.656 E.00683
G1 X128.999 Y106.058 E.01885
G1 X128.923 Y105.802 E.00837
G1 X128.998 Y105.822 E.00243
G1 X129.353 Y105.815 E.01113
G1 X129.776 Y105.621 E.01459
G1 X129.959 Y105.475 E.00734
G1 X130.145 Y105.19 E.01067
G1 X130.234 Y104.814 E.01211
G1 X130.135 Y104.24 E.01826
G1 X130.491 Y104.342 E.01161
G1 X130.853 Y104.341 E.01135
G1 X131.25 Y104.199 E.01322
G1 X131.438 Y104.058 E.00737
;WIDTH:0.445216
G1 X131.758 Y103.656 E.01719
G1 X131.85 Y103.368 E.01011
;WIDTH:0.469224
G1 X131.873 Y103.221 E.00527
;WIDTH:0.506412
G1 X131.895 Y103.073 E.00577
;WIDTH:0.5436
G1 X131.918 Y102.926 E.00619
;WIDTH:0.544265
G1 X131.863 Y102.712 E.00921
;WIDTH:0.572742
G1 X131.736 Y102.476 E.01181
;WIDTH:0.601219
G1 X131.609 Y102.239 E.01248
G1 X131.399 Y102.101 E.01167
;WIDTH:0.563163
G1 X131.189 Y101.964 E.01085
;WIDTH:0.532391
G1 X130.713 Y101.767 E.02097
G1 X130.382 Y101.704 E.01371
;WIDTH:0.494927
G1 X130.052 Y101.641 E.01263
;WIDTH:0.457463
G1 X129.721 Y101.578 E.01161
;WIDTH:0.419999
G1 X129.52 Y101.528 E.00649
G1 X129.434 Y101.289 E.00796
G1 X129.21 Y100.471 E.02659
G1 X129.425 Y100.589 E.00769
G1 X129.977 Y100.838 E.01899
;WIDTH:0.457463
G1 X130.276 Y100.993 E.01161
;WIDTH:0.494927
G1 X130.575 Y101.148 E.01266
;WIDTH:0.532391
G1 X130.944 Y101.333 E.0168
;WIDTH:0.54142
G1 X131.565 Y101.619 E.02834
;WIDTH:0.57132
G1 X131.799 Y101.732 E.01142
;WIDTH:0.601219
G1 X132.033 Y101.846 E.01208
G1 X132.137 Y102.092 E.0124
;WIDTH:0.575399
G1 X132.241 Y102.339 E.01187
;WIDTH:0.561178
G1 X132.441 Y102.822 E.02253
G1 X132.392 Y103.019 E.00875
;WIDTH:0.5436
G1 X132.32 Y103.223 E.00901
;WIDTH:0.508124
G1 X132.248 Y103.427 E.00837
;WIDTH:0.472648
G1 X132.176 Y103.631 E.00773
;WIDTH:0.437171
G1 X132.164 Y103.957 E.01069
;WIDTH:0.42562
G1 X132.263 Y104.317 E.01188
;WIDTH:0.419999
G1 X132.52 Y104.664 E.01354
G1 X132.957 Y104.946 E.01631
G1 X133.498 Y105.061 E.01734
G1 X133.969 Y104.964 E.01508
;WIDTH:0.465335
G1 X134.234 Y104.803 E.01089
;WIDTH:0.510671
G1 X134.499 Y104.641 E.01208
;WIDTH:0.513223
G1 X134.805 Y104.213 E.02058
;WIDTH:0.536919
G1 X135.039 Y103.73 E.02205
G1 X135.058 Y103.506 E.00923
;WIDTH:0.497946
G1 X135.077 Y103.282 E.00851
;WIDTH:0.458973
G1 X135.097 Y103.058 E.00778
;WIDTH:0.419999
G1 X135.062 Y102.778 E.00885
G1 X134.931 Y102.184 E.01907
G1 X134.726 Y101.662 E.01758
G1 X133.912 Y99.868 E.06177
;WIDTH:0.425908
G1 X133.444 Y98.879 E.03484
;WIDTH:0.422945
G1 X133.081 Y98.116 E.0267
;WIDTH:0.419999
G1 X132.568 Y97.139 E.0346
G1 X132.775 Y97.133 E.00649
G1 X133.062 Y97.047 E.00939
G1 X133.498 Y96.747 E.01659
G1 X133.528 Y97.263 E.01621
G1 X133.633 Y97.972 E.02247
;WIDTH:0.422945
G1 X133.8 Y98.748 E.02508
;WIDTH:0.425908
G1 X134.005 Y99.165 E.0148
G1 X134.365 Y99.535 E.01644
;WIDTH:0.419999
G1 X134.727 Y99.735 E.01297
G1 X135.028 Y99.817 E.00978
G1 X135.334 Y99.819 E.00959
G1 X135.627 Y99.751 E.00943
G1 X136.04 Y99.473 E.01561
G1 X137.206 Y98.24 E.05321
G1 X136.998 Y99.77 E.04841
G1 X136.771 Y100.806 E.03325
G1 X136.454 Y101.872 E.03487
G1 X136.066 Y102.878 E.03381
