; generated by PrusaSlicer 2.7.1 on 2024-02-26 at 10:50:14 UTC

; external perimeters extrusion width = 0.45mm
; perimeters extrusion width = 0.45mm
; infill extrusion width = 0.45mm
; solid infill extrusion width = 0.45mm
; top infill extrusion width = 0.40mm
; first layer extrusion width = 0.42mm

M73 P0 R29
M73 Q0 S29
M201 X1000 Y1000 Z200 E5000 ; sets maximum accelerations, mm/sec^2
M203 X200 Y200 Z12 E120 ; sets maximum feedrates, mm / sec
M204 S1250 T1250 ; sets acceleration (S) and retract acceleration (R), mm/sec^2
M205 X8.00 Y8.00 Z0.40 E4.50 ; sets the jerk limits, mm/sec
M205 S0 T0 ; sets the minimum extruding and travel feed rate, mm/sec

;TYPE:Custom
M862.3 P "MK3S" ; printer model check
M862.1 P0.4 ; nozzle diameter check
G90 ; use absolute coordinates
M83 ; extruder relative mode
M104 S215 ; set extruder temp
M140 S60 ; set bed temp
M190 S60 ; wait for bed temp
M109 S215 ; wait for extruder temp
G28 W ; home all without mesh bed level
G80 X7.60326 Y7.76848 W234.794 H194.463 ; mesh bed levelling

G1 Z0.2 F720
G1 Y-3 F1000 ; go outside print area
G92 E0
G1 X60 E9 F1000 ; intro line
G1 X100 E12.5 F1000 ; intro line

G92 E0
M221 S95

; Don't change E values below. Excessive value can damage the printer.
M907 E430 ; set extruder motor current
G21 ; set units to millimeters
G90 ; use absolute coordinates
M83 ; use relative distances for extrusion

M900 K0.05 ; Filament gcode LA 1.5
M900 K30 ; Filament gcode LA 1.0




M107
;LAYER_CHANGE
;Z:0.2
;HEIGHT:0.2
;BEFORE_LAYER_CHANGE
G92 E0.0
;0.2


G1 E-.8 F2100
G1 Z.2 F720
;AFTER_LAYER_CHANGE
;0.2
; printing object prusa_mk3_bed_level.stl id:0 copy 0
G1 X8.39 Y8.556 F10800
G1 Z.2 F720
G1 E.8 F2100
M204 S800
;TYPE:Perimeter
;WIDTH:0.419999
G1 F1200
G1 X36.816 Y8.556 E.89128
G1 X36.818 Y19.023 E.32818
G1 X36.901 Y19.279 E.00844
G1 X37.113 Y19.48 E.00916
G1 X37.382 Y19.548 E.0087
G1 X112.118 Y19.548 E2.34329
G1 X112.265 Y19.528 E.00465
G1 X112.474 Y19.422 E.00735
G1 X112.618 Y19.247 E.00711
G1 X112.684 Y18.982 E.00856
G1 X112.684 Y8.556 E.3269
G1 X141.11 Y8.556 E.89128
G1 X141.111 Y18.87 E.32339
G1 X141.196 Y19.128 E.00852
G1 X141.409 Y19.328 E.00916
G1 X141.675 Y19.394 E.00859
G1 X212.618 Y19.394 E2.22436
G1 X212.764 Y19.375 E.00462
M73 P1 R29
M73 Q1 S29
G1 X212.971 Y19.27 E.00728
G1 X213.117 Y19.096 E.00712
G1 X213.184 Y18.828 E.00866
G1 X213.184 Y8.556 E.32207
G1 X241.61 Y8.556 E.89128
G1 X241.61 Y36.981 E.89124
G1 X229.424 Y36.981 E.38208
G1 X229.282 Y36.999 E.00449
G1 X229.035 Y37.137 E.00887
G1 X228.891 Y37.36 E.00832
G1 X228.859 Y37.547 E.00595
G1 X228.861 Y90.453 E1.65883
G1 X228.963 Y90.731 E.00928
G1 X229.146 Y90.896 E.00773
G1 X229.424 Y90.969 E.00901
G1 X241.61 Y90.969 E.38208
G1 X241.61 Y119.395 E.89128
G1 X229.176 Y119.395 E.38986
G1 X229.034 Y119.413 E.00449
G1 X228.786 Y119.552 E.00891
G1 X228.642 Y119.774 E.0083
G1 X228.611 Y119.961 E.00594
G1 X228.613 Y172.502 E1.64738
G1 X228.712 Y172.776 E.00913
G1 X228.932 Y172.963 E.00905
G1 X229.176 Y173.018 E.00784
G1 X241.61 Y173.018 E.38986
G1 X241.61 Y185.452 E.38986
G1 X241.61 Y201.444 E.50142
G1 X213.184 Y201.444 E.89128
G1 X213.183 Y189.987 E.35923
G1 X213.109 Y189.743 E.00799
G1 X212.902 Y189.536 E.00918
G1 X212.618 Y189.46 E.00922
G1 X141.675 Y189.46 E2.22436
G1 X141.518 Y189.482 E.00497
M73 P2 R28
M73 Q2 S29
G1 X141.304 Y189.599 E.00765
G1 X141.168 Y189.775 E.00697
G1 X141.11 Y190.025 E.00805
G1 X141.11 Y201.444 E.35803
G1 X112.684 Y201.444 E.89128
G1 X112.683 Y190.006 E.35863
M73 Q2 S28
G1 X112.608 Y189.762 E.008
G1 X112.402 Y189.554 E.00918
G1 X112.118 Y189.478 E.00922
G1 X37.382 Y189.478 E2.34329
G1 X37.224 Y189.5 E.005
G1 X37.011 Y189.617 E.00762
G1 X36.875 Y189.794 E.007
G1 X36.816 Y190.044 E.00805
G1 X36.816 Y201.444 E.35744
G1 X8.39 Y201.444 E.89128
G1 X8.39 Y173.018 E.89128
G1 X20.098 Y173.018 E.3671
G1 X20.24 Y173 E.00449
G1 X20.488 Y172.863 E.00888
G1 X20.632 Y172.64 E.00832
G1 X20.663 Y172.453 E.00594
G1 X20.663 Y119.961 E1.64585
G1 X20.632 Y119.774 E.00594
G1 X20.561 Y119.636 E.00487
G1 X20.341 Y119.45 E.00903
G1 X20.098 Y119.395 E.00781
G1 X8.39 Y119.395 E.3671
G1 X8.39 Y90.969 E.89128
G1 X20.346 Y90.969 E.37487
M73 P3 R28
M73 Q3 S28
G1 X20.475 Y90.954 E.00407
G1 X20.732 Y90.817 E.00913
G1 X20.879 Y90.594 E.00837
G1 X20.911 Y90.404 E.00604
G1 X20.911 Y37.547 E1.65729
G1 X20.879 Y37.357 E.00604
G1 X20.806 Y37.219 E.00489
G1 X20.622 Y37.054 E.00775
G1 X20.346 Y36.981 E.00895
G1 X8.39 Y36.981 E.37487
G1 X8.39 Y8.616 E.88936
M204 S1000
G1 X8.013 Y8.178 F10800
M204 S800
;TYPE:External perimeter
G1 F1200
G1 X37.193 Y8.178 E.91492
G1 X37.193 Y18.982 E.33875
G1 X37.244 Y19.11 E.00432
G1 X37.382 Y19.171 E.00473
G1 X112.118 Y19.171 E2.34329
G1 X112.237 Y19.129 E.00396
G1 X112.307 Y18.982 E.0051
G1 X112.307 Y8.178 E.33875
G1 X141.487 Y8.178 E.91492
G1 X141.487 Y18.828 E.33392
G1 X141.538 Y18.957 E.00435
G1 X141.675 Y19.017 E.00469
G1 X212.618 Y19.017 E2.22436
G1 X212.736 Y18.976 E.00392
M73 P4 R28
M73 Q4 S28
G1 X212.807 Y18.828 E.00515
G1 X212.807 Y8.178 E.33392
G1 X241.987 Y8.178 E.91492
G1 X241.987 Y37.358 E.91492
G1 X229.424 Y37.358 E.3939
G1 X229.294 Y37.41 E.00439
G1 X229.236 Y37.547 E.00466
G1 X229.236 Y90.404 E1.65729
G1 X229.295 Y90.541 E.00468
G1 X229.424 Y90.592 E.00435
G1 X241.987 Y90.592 E.3939
G1 X241.987 Y119.772 E.91492
G1 X229.176 Y119.772 E.40168
G1 X229.046 Y119.824 E.00439
G1 X228.988 Y119.961 E.00466
G1 X228.988 Y172.453 E1.64585
G1 X229.046 Y172.589 E.00464
G1 X229.176 Y172.641 E.00439
G1 X241.987 Y172.641 E.40168
G1 X241.987 Y185.452 E.40168
G1 X241.987 Y201.821 E.51324
G1 X212.807 Y201.821 E.91492
G1 X212.807 Y190.025 E.36985
G1 X212.761 Y189.902 E.00412
G1 X212.618 Y189.837 E.00493
G1 X141.675 Y189.837 E2.22436
G1 X141.552 Y189.883 E.00412
M73 P5 R28
M73 Q5 S28
G1 X141.487 Y190.025 E.0049
G1 X141.487 Y201.821 E.36985
G1 X112.307 Y201.821 E.91492
G1 X112.307 Y190.044 E.36926
G1 X112.261 Y189.921 E.00412
G1 X112.118 Y189.855 E.00494
G1 X37.382 Y189.855 E2.34329
G1 X37.258 Y189.901 E.00415
M73 P5 R27
G1 X37.193 Y190.044 E.00493
G1 X37.193 Y201.821 E.36926
G1 X8.013 Y201.821 E.91492
G1 X8.013 Y172.641 E.91492
G1 X20.098 Y172.641 E.37892
M73 Q5 S27
G1 X20.228 Y172.589 E.00439
G1 X20.286 Y172.453 E.00464
G1 X20.286 Y119.961 E1.64585
G1 X20.228 Y119.824 E.00466
G1 X20.098 Y119.772 E.00439
G1 X8.013 Y119.772 E.37892
G1 X8.013 Y90.592 E.91492
G1 X20.346 Y90.592 E.38669
G1 X20.475 Y90.541 E.00435
M73 P6 R27
M73 Q6 S27
G1 X20.534 Y90.404 E.00468
G1 X20.534 Y37.547 E1.65729
G1 X20.475 Y37.409 E.00471
G1 X20.346 Y37.358 E.00435
G1 X8.013 Y37.358 E.38669
G1 X8.013 Y8.238 E.91304
M204 S1000
;WIPE_START
G1 F8640
G1 X8.013 Y8.178 E-.01385
G1 X11.418 Y8.178 E-.78615
;WIPE_END
G1 Z.6 F720
G1 X164.8 Y108.042 F10800
G1 Z.2 F720
G1 E.8 F2100
M204 S800
;TYPE:Perimeter
G1 F1200
G1 X164.819 Y108.1 E.00191
G1 X164.82 Y117.359 E.29031
G1 X188.246 Y117.359 E.7345
G1 X188.246 Y108.142 E.28899
G1 X188.315 Y107.871 E.00877
G1 X188.462 Y107.697 E.00714
G1 X188.668 Y107.594 E.00722
G1 X188.812 Y107.576 E.00455
G1 X212.618 Y107.576 E.74642
G1 X212.902 Y107.652 E.00922
G1 X213.108 Y107.859 E.00916
G1 X213.184 Y108.133 E.00892
G1 X213.184 Y119.395 E.35311
G1 X224.619 Y119.395 E.35854
G1 X224.863 Y119.45 E.00784
G1 X225.083 Y119.637 E.00905
G1 X225.153 Y119.774 E.00482
G1 X225.185 Y119.961 E.00595
G1 X225.185 Y172.453 E1.64585
G1 X225.153 Y172.639 E.00592
G1 X225.01 Y172.861 E.00828
G1 X224.762 Y173 E.00891
G1 X224.619 Y173.018 E.00452
G1 X213.184 Y173.018 E.35854
G1 X213.184 Y184.468 E.35901
G1 X213.126 Y184.718 E.00805
G1 X212.989 Y184.895 E.00702
G1 X212.776 Y185.012 E.00762
G1 X212.618 Y185.034 E.005
G1 X141.675 Y185.034 E2.22436
G1 X141.392 Y184.958 E.00919
M73 P7 R27
M73 Q7 S27
G1 X141.247 Y184.838 E.0059
G1 X141.121 Y184.581 E.00897
G1 X141.11 Y184.468 E.00356
G1 X141.11 Y173.018 E.35901
G1 X128.725 Y173.018 E.38832
G1 X128.482 Y172.963 E.00781
G1 X128.262 Y172.777 E.00903
G1 X128.162 Y172.502 E.00917
G1 X128.16 Y119.961 E1.64738
G1 X128.191 Y119.774 E.00594
G1 X128.335 Y119.551 E.00832
G1 X128.583 Y119.413 E.0089
G1 X128.725 Y119.395 E.00449
G1 X141.11 Y119.395 E.38832
G1 X141.11 Y108.142 E.35283
G1 X141.169 Y107.89 E.00811
G1 X141.305 Y107.714 E.00697
G1 X141.519 Y107.598 E.00763
G1 X141.675 Y107.576 E.00494
G1 X164.255 Y107.576 E.70798
G1 X164.517 Y107.641 E.00846
G1 X164.732 Y107.838 E.00914
G1 X164.781 Y107.986 E.00489
M204 S1000
G1 X164.443 Y108.142 F10800
M204 S800
;TYPE:External perimeter
G1 F1200
G1 X164.443 Y117.736 E.30081
G1 X188.623 Y117.736 E.75815
G1 X188.623 Y108.142 E.30081
G1 X188.675 Y108.012 E.00439
G1 X188.812 Y107.953 E.00468
G1 X212.618 Y107.953 E.74642
G1 X212.761 Y108.018 E.00493
G1 X212.807 Y108.142 E.00415
G1 X212.807 Y119.772 E.36465
G1 X224.619 Y119.772 E.37036
G1 X224.749 Y119.824 E.00439
G1 X224.808 Y119.961 E.00468
G1 X224.808 Y172.453 E1.64585
G1 X224.75 Y172.589 E.00464
G1 X224.619 Y172.641 E.00442
G1 X212.807 Y172.641 E.37036
G1 X212.807 Y184.468 E.37083
G1 X212.742 Y184.611 E.00493
G1 X212.618 Y184.657 E.00415
G1 X141.675 Y184.657 E2.22436
G1 X141.533 Y184.591 E.00491
M73 P8 R27
M73 Q8 S27
G1 X141.487 Y184.468 E.00412
G1 X141.487 Y172.641 E.37083
G1 X128.725 Y172.641 E.40014
G1 X128.595 Y172.589 E.00439
G1 X128.537 Y172.453 E.00464
G1 X128.537 Y119.961 E1.64585
G1 X128.595 Y119.824 E.00466
G1 X128.725 Y119.772 E.00439
G1 X141.487 Y119.772 E.40014
G1 X141.487 Y108.142 E.36465
G1 X141.552 Y107.999 E.00493
G1 X141.675 Y107.953 E.00412
G1 X164.255 Y107.953 E.70798
G1 X164.391 Y108.012 E.00465
G1 X164.421 Y108.086 E.0025
M204 S1000
;WIPE_START
G1 F8640
G1 X164.443 Y108.142 E-.01389
G1 X164.443 Y111.546 E-.78611
;WIPE_END
G1 Z.6 F720
G1 X164.313 Y103.143 F10800
G1 Z.2 F720
G1 E.8 F2100
M204 S800
;TYPE:Perimeter
G1 F1200
G1 X164.255 Y103.15 E.00183
G1 X141.675 Y103.15 E.70798
G1 X141.393 Y103.075 E.00915
G1 X141.186 Y102.868 E.00918
G1 X141.116 Y102.666 E.0067
G1 X141.11 Y90.969 E.36675
G1 X128.973 Y90.969 E.38055
G1 X128.696 Y90.897 E.00897
G1 X128.512 Y90.732 E.00775
G1 X128.41 Y90.453 E.00931
G1 X128.408 Y37.547 E1.65883
G1 X128.44 Y37.359 E.00598
G1 X128.585 Y37.136 E.00834
G1 X128.832 Y36.999 E.00886
G1 X128.973 Y36.981 E.00446
G1 X141.11 Y36.981 E.38055
G1 X141.11 Y24.385 E.39494
G1 X141.177 Y24.118 E.00863
M73 P8 R26
G1 X141.322 Y23.944 E.0071
G1 X141.53 Y23.839 E.00731
G1 X141.675 Y23.82 E.00459
G1 X212.618 Y23.82 E2.22436
G1 X212.884 Y23.886 E.00859
M73 P9 R26
M73 Q9 S26
G1 X213.098 Y24.086 E.00918
G1 X213.183 Y24.36 E.00899
G1 X213.184 Y36.981 E.39572
G1 X224.867 Y36.981 E.36631
G1 X225.147 Y37.056 E.00909
G1 X225.33 Y37.222 E.00775
G1 X225.401 Y37.36 E.00487
G1 X225.433 Y37.547 E.00595
G1 X225.433 Y90.404 E1.65729
G1 X225.4 Y90.593 E.00602
G1 X225.255 Y90.816 E.00834
G1 X224.997 Y90.954 E.00917
G1 X224.799 Y90.969 E.00623
G1 X213.184 Y90.969 E.36418
G1 X213.184 Y102.588 E.3643
G1 X213.108 Y102.867 E.00907
G1 X212.902 Y103.074 E.00916
G1 X212.618 Y103.15 E.00922
G1 X188.812 Y103.15 E.74642
G1 X188.549 Y103.085 E.00849
G1 X188.334 Y102.888 E.00914
G1 X188.246 Y102.584 E.00992
G1 X188.246 Y93.933 E.27125
G1 X164.82 Y93.933 E.7345
G1 X164.82 Y102.584 E.27125
G1 X164.751 Y102.855 E.00877
G1 X164.604 Y103.029 E.00714
G1 X164.398 Y103.132 E.00722
G1 X164.373 Y103.135 E.00079
M204 S1000
G1 X164.391 Y102.715 F10800
M204 S800
;TYPE:External perimeter
G1 F1200
G1 X164.255 Y102.773 E.00464
G1 X141.675 Y102.773 E.70798
G1 X141.533 Y102.708 E.0049
G1 X141.489 Y102.612 E.00331
G1 X141.487 Y90.592 E.37688
G1 X128.973 Y90.592 E.39237
G1 X128.844 Y90.541 E.00435
G1 X128.785 Y90.404 E.00468
G1 X128.785 Y37.547 E1.65729
G1 X128.844 Y37.41 E.00468
G1 X128.973 Y37.358 E.00436
G1 X141.487 Y37.358 E.39237
G1 X141.487 Y24.385 E.40676
G1 X141.558 Y24.238 E.00512
G1 X141.675 Y24.197 E.00389
G1 X212.618 Y24.197 E2.22436
G1 X212.756 Y24.256 E.00471
M73 P10 R26
M73 Q10 S26
G1 X212.807 Y24.385 E.00435
G1 X212.807 Y37.358 E.40676
G1 X224.867 Y37.358 E.37813
G1 X224.997 Y37.41 E.00439
G1 X225.056 Y37.547 E.00468
G1 X225.056 Y90.404 E1.65729
G1 X224.996 Y90.541 E.00469
G1 X224.867 Y90.592 E.00435
G1 X212.807 Y90.592 E.37813
G1 X212.807 Y102.586 E.37606
G1 X212.742 Y102.727 E.00487
G1 X212.618 Y102.773 E.00415
G1 X188.812 Y102.773 E.74642
G1 X188.675 Y102.715 E.00466
G1 X188.623 Y102.584 E.00442
G1 X188.623 Y93.556 E.28307
G1 X164.443 Y93.556 E.75815
G1 X164.443 Y102.584 E.28307
G1 X164.413 Y102.659 E.00253
M204 S1000
;WIPE_START
G1 F8640
G1 X164.391 Y102.715 E-.01389
G1 X164.255 Y102.773 E-.03414
G1 X160.998 Y102.773 E-.75197
;WIPE_END
G1 Z.6 F720
G1 X112.488 Y102.987 F10800
G1 Z.2 F720
G1 E.8 F2100
M204 S800
;TYPE:Perimeter
G1 F1200
G1 X112.402 Y103.074 E.00384
G1 X112.118 Y103.15 E.00922
G1 X86.694 Y103.15 E.79715
G1 X86.431 Y103.085 E.00849
G1 X86.217 Y102.888 E.00912
G1 X86.131 Y102.632 E.00847
G1 X86.129 Y93.933 E.27275
G1 X62.703 Y93.933 E.7345
G1 X62.703 Y102.584 E.27125
G1 X62.634 Y102.855 E.00877
G1 X62.487 Y103.029 E.00714
G1 X62.281 Y103.132 E.00722
G1 X62.137 Y103.15 E.00455
G1 X37.382 Y103.15 E.77617
G1 X37.099 Y103.074 E.00919
G1 X36.892 Y102.867 E.00918
G1 X36.816 Y102.598 E.00876
G1 X36.816 Y90.969 E.36462
G1 X24.903 Y90.969 E.37352
G1 X24.626 Y90.897 E.00897
G1 X24.442 Y90.732 E.00775
G1 X24.339 Y90.453 E.00932
G1 X24.337 Y90.404 E.00154
G1 X24.337 Y37.547 E1.65729
G1 X24.37 Y37.357 E.00605
M73 P11 R26
M73 Q11 S26
G1 X24.517 Y37.134 E.00837
G1 X24.774 Y36.996 E.00915
G1 X24.903 Y36.981 E.00407
G1 X36.816 Y36.981 E.37352
G1 X36.816 Y24.539 E.39011
G1 X36.882 Y24.274 E.00856
G1 X37.026 Y24.099 E.00711
G1 X37.235 Y23.993 E.00735
G1 X37.382 Y23.974 E.00465
G1 X112.118 Y23.974 E2.34329
G1 X112.387 Y24.041 E.00869
G1 X112.599 Y24.242 E.00916
G1 X112.683 Y24.509 E.00878
G1 X112.684 Y36.981 E.39105
G1 X124.416 Y36.981 E.36785
G1 X124.695 Y37.055 E.00905
G1 X124.878 Y37.221 E.00775
G1 X124.949 Y37.359 E.00487
G1 X124.982 Y37.547 E.00598
G1 X124.982 Y90.404 E1.65729
G1 X124.949 Y90.593 E.00602
G1 X124.803 Y90.817 E.00838
G1 X124.545 Y90.954 E.00916
G1 X124.299 Y90.969 E.00773
G1 X112.684 Y90.969 E.36418
G1 X112.684 Y102.59 E.36437
G1 X112.608 Y102.867 E.00901
G1 X112.531 Y102.945 E.00344
M204 S1000
G1 X112.242 Y102.727 F10800
M204 S800
;TYPE:External perimeter
G1 F1200
G1 X112.118 Y102.773 E.00415
G1 X86.694 Y102.773 E.79715
G1 X86.558 Y102.715 E.00464
G1 X86.506 Y102.584 E.00442
G1 X86.506 Y93.556 E.28307
G1 X62.326 Y93.556 E.75815
G1 X62.326 Y102.584 E.28307
G1 X62.274 Y102.715 E.00442
G1 X62.137 Y102.773 E.00466
G1 X37.382 Y102.773 E.77617
G1 X37.239 Y102.708 E.00493
G1 X37.193 Y102.584 E.00415
G1 X37.193 Y90.592 E.376
G1 X24.903 Y90.592 E.38534
G1 X24.811 Y90.568 E.00298
M73 Q12 S26
G1 X24.725 Y90.467 E.00416
G1 X24.714 Y90.404 E.00201
G1 X24.714 Y37.547 E1.65729
G1 X24.774 Y37.409 E.00472
M73 P12 R26
G1 X24.903 Y37.358 E.00435
G1 X37.193 Y37.358 E.38534
G1 X37.193 Y24.539 E.40193
G1 X37.263 Y24.393 E.00508
M73 P12 R25
G1 X37.382 Y24.351 E.00396
G1 X112.118 Y24.351 E2.34329
G1 X112.256 Y24.411 E.00472
M73 Q12 S25
G1 X112.307 Y24.539 E.00432
G1 X112.307 Y37.358 E.40193
G1 X124.416 Y37.358 E.37967
G1 X124.546 Y37.41 E.00439
G1 X124.605 Y37.547 E.00468
G1 X124.605 Y90.404 E1.65729
G1 X124.545 Y90.541 E.00469
G1 X124.416 Y90.592 E.00435
G1 X112.307 Y90.592 E.37967
G1 X112.307 Y102.586 E.37606
G1 X112.267 Y102.672 E.00297
M204 S1000
;WIPE_START
G1 F8640
G1 X112.242 Y102.727 E-.01395
G1 X112.118 Y102.773 E-.03054
G1 X108.846 Y102.773 E-.75551
;WIPE_END
G1 Z.6 F720
G1 X112.206 Y107.599 F10800
G1 Z.2 F720
G1 E.8 F2100
M204 S800
;TYPE:Perimeter
G1 F1200
G1 X112.402 Y107.652 E.00637
G1 X112.608 Y107.859 E.00916
G1 X112.684 Y108.131 E.00886
G1 X112.684 Y119.395 E.35317
G1 X124.168 Y119.395 E.36007
G1 X124.411 Y119.45 E.00781
G1 X124.631 Y119.636 E.00903
G1 X124.702 Y119.774 E.00487
G1 X124.734 Y119.961 E.00595
G1 X124.734 Y172.453 E1.64585
G1 X124.702 Y172.639 E.00592
G1 X124.558 Y172.862 E.00832
G1 X124.31 Y173 E.0089
G1 X124.152 Y173.018 E.00499
G1 X112.684 Y173.018 E.35957
G1 X112.684 Y184.487 E.3596
M73 Q13 S25
G1 X112.625 Y184.737 E.00805
M73 P13 R25
G1 X112.489 Y184.914 E.007
G1 X112.276 Y185.03 E.0076
G1 X112.118 Y185.052 E.005
G1 X37.382 Y185.052 E2.34329
