; generated by PrusaSlicer 2.7.4 on 2024-05-14 at 16:50:02 UTC

; 

; external perimeters extrusion width = 0.45mm
; perimeters extrusion width = 0.45mm
; infill extrusion width = 0.45mm
; solid infill extrusion width = 0.45mm
; top infill extrusion width = 0.40mm
; first layer extrusion width = 0.42mm

M73 P0 R27
M73 Q0 S27
M201 X1000 Y1000 Z200 E5000 ; sets maximum accelerations, mm/sec^2
M203 X200 Y200 Z12 E120 ; sets maximum feedrates, mm / sec
M204 S1250 T1250 ; sets acceleration (S) and retract acceleration (R), mm/sec^2
M205 X8.00 Y8.00 Z0.40 E4.50 ; sets the jerk limits, mm/sec
M205 S0 T0 ; sets the minimum extruding and travel feed rate, mm/sec

; printing object calbration_cube.stl id:0 copy 0
; stop printing object calbration_cube.stl id:0 copy 0

;TYPE:Custom
M862.3 P "MK3S" ; printer model check
M862.1 P0.4 ; nozzle diameter check
G90 ; use absolute coordinates
M83 ; extruder relative mode
M104 S215 ; set extruder temp
M140 S60 ; set bed temp
M190 S60 ; wait for bed temp
M109 S215 ; wait for extruder temp
G28 W ; home all without mesh bed level
G80 X112.057 Y92.0573 W25.8854 H25.8854 ; mesh bed levelling

G1 Z0.2 F720
G1 Y-3 F1000 ; go outside print area
G92 E0
G1 X60 E9 F1000 ; intro line
G1 X100 E12.5 F1000 ; intro line

G92 E0
M221 S95

; Don't change E values below. Excessive value can damage the printer.
M907 E430 ; set extruder motor current
G21 ; set units to millimeters
G90 ; use absolute coordinates
M83 ; use relative distances for extrusion

M900 K0.05 ; Filament gcode LA 1.5
M900 K30 ; Filament gcode LA 1.0




M107
;LAYER_CHANGE
;Z:0.2
;HEIGHT:0.2
G1 E-.8 F2100
M73 P0 R26
G1 Z.6 F720
G1 X112.639 Y93.583 F10800
G1 Z.2 F720
G1 E.8 F2100
M204 S800
;TYPE:Skirt/Brim
;WIDTH:0.42
G1 F1200
G1 X113.705 Y92.569 E.04613
G1 X115 Y92.246 E.04185
G1 X135 Y92.246 E.62709
G1 X136.417 Y92.639 E.04611
G1 X137.431 Y93.705 E.04613
G1 X137.754 Y95 E.04185
G1 X137.754 Y115 E.62709
G1 X137.361 Y116.417 E.04611
G1 X136.295 Y117.431 E.04613
G1 X135 Y117.754 E.04185
G1 X115 Y117.754 E.62709
M73 Q0 S26
G1 X113.583 Y117.361 E.04611
G1 X112.569 Y116.295 E.04613
G1 X112.246 Y115 E.04185
G1 X112.246 Y95 E.62709
G1 X112.623 Y93.64 E.04425
M204 S1000
G1 X112.623 Y93.64 F10800
G1 X112.997 Y93.752
M204 S800
G1 F1200
G1 X113.015 Y93.693 E.00193
G1 X114.06 Y92.817 E.04275
G1 X115 Y92.623 E.03009
G1 X135 Y92.623 E.62709
G1 X136.307 Y93.015 E.04278
G1 X137.183 Y94.06 E.04275
G1 X137.377 Y95 E.03009
G1 X137.377 Y115 E.62709
G1 X136.985 Y116.307 E.04278
G1 X135.94 Y117.183 E.04275
G1 X135 Y117.377 E.03009
G1 X115 Y117.377 E.62709
G1 X113.693 Y116.985 E.04278
G1 X112.817 Y115.94 E.04275
G1 X112.623 Y115 E.03009
G1 X112.623 Y95 E.62709
G1 X112.979 Y93.81 E.03895
M73 P1 R26
M73 Q1 S26
M204 S1000
;WIPE_START
G1 F8640
G1 X112.997 Y93.752 E-.01402
G1 X113.015 Y93.693 E-.01424
G1 X114.06 Y92.817 E-.31486
G1 X115 Y92.623 E-.22162
G1 X116.019 Y92.623 E-.23526
;WIPE_END
G1 Z.6 F720
; printing object calbration_cube.stl id:0 copy 0
G1 X134.213 Y114.213 F10800
G1 Z.2 F720
G1 E.8 F2100
M204 S800
;TYPE:Perimeter
;WIDTH:0.419999
G1 F1200
G1 X115.787 Y114.213 E.57773
G1 X115.787 Y95.787 E.57773
G1 X134.213 Y95.787 E.57773
G1 X134.213 Y105 E.28887
G1 X134.213 Y114.153 E.28699
M204 S1000
G1 X134.59 Y114.59 F10800
M204 S800
;TYPE:External perimeter
G1 F1200
G1 X115.41 Y114.59 E.60137
G1 X115.41 Y95.41 E.60137
G1 X134.59 Y95.41 E.60137
G1 X134.59 Y105 E.30069
G1 X134.59 Y114.53 E.29881
M204 S1000
;WIPE_START
G1 F8640
G1 X134.59 Y114.59 E-.01385
G1 X131.185 Y114.59 E-.78615
;WIPE_END
G1 Z.6 F720
G1 X134.043 Y96.731 F10800
G1 Z.2 F720
G1 E.8 F2100
M204 S800
;TYPE:Solid infill
;WIDTH:0.425479
G1 F1200
G1 X133.439 Y96.126 E.02719
G1 X132.898 Y96.126 E.01721
G1 X133.874 Y97.102 E.04391
G1 X133.874 Y97.643 E.01721
G1 X132.357 Y96.126 E.06824
G1 X131.816 Y96.126 E.01721
G1 X133.874 Y98.184 E.09258
G1 X133.874 Y98.725 E.01721
G1 X131.275 Y96.126 E.11692
G1 X130.734 Y96.126 E.01721
G1 X133.874 Y99.266 E.14126
G1 X133.874 Y99.807 E.01721
G1 X130.193 Y96.126 E.16559
G1 X129.652 Y96.126 E.01721
G1 X133.874 Y100.348 E.18993
G1 X133.874 Y100.889 E.01721
G1 X129.111 Y96.126 E.21427
G1 X128.57 Y96.126 E.01721
G1 X133.874 Y101.43 E.23861
G1 X133.874 Y101.971 E.01721
G1 X128.029 Y96.126 E.26294
G1 X127.488 Y96.126 E.01721
G1 X133.874 Y102.512 E.28728
G1 X133.874 Y103.053 E.01721
G1 X126.947 Y96.126 E.31162
G1 X126.406 Y96.126 E.01721
G1 X133.874 Y103.594 E.33596
G1 X133.874 Y104.135 E.01721
G1 X125.865 Y96.126 E.36029
G1 X125.324 Y96.126 E.01721
G1 X133.874 Y104.676 E.38463
G1 X133.874 Y105.217 E.01721
G1 X124.783 Y96.126 E.40897
G1 X124.242 Y96.126 E.01721
G1 X133.874 Y105.758 E.43331
G1 X133.874 Y106.299 E.01721
M73 P2 R26
M73 Q2 S26
G1 X123.701 Y96.126 E.45764
G1 X123.16 Y96.126 E.01721
G1 X133.874 Y106.84 E.48198
G1 X133.874 Y107.381 E.01721
G1 X122.619 Y96.126 E.50632
G1 X122.078 Y96.126 E.01721
G1 X133.874 Y107.922 E.53065
G1 X133.874 Y108.463 E.01721
G1 X121.537 Y96.126 E.55499
G1 X120.996 Y96.126 E.01721
G1 X133.874 Y109.004 E.57933
G1 X133.874 Y109.545 E.01721
G1 X120.455 Y96.126 E.60367
G1 X119.914 Y96.126 E.01721
G1 X133.874 Y110.086 E.628
G1 X133.874 Y110.627 E.01721
G1 X119.373 Y96.126 E.65234
G1 X118.831 Y96.126 E.01724
G1 X133.874 Y111.169 E.67672
G1 X133.874 Y111.71 E.01721
G1 X118.29 Y96.126 E.70106
G1 X117.749 Y96.126 E.01721
G1 X133.874 Y112.251 E.7254
G1 X133.874 Y112.792 E.01721
G1 X117.208 Y96.126 E.74974
G1 X116.667 Y96.126 E.01721
G1 X133.874 Y113.333 E.77407
G1 X133.873 Y113.874 E.01721
G1 X116.126 Y96.127 E.79837
G1 X116.126 Y96.668 E.01721
G1 X133.332 Y113.874 E.77403
G1 X132.791 Y113.874 E.01721
M73 P3 R26
M73 Q3 S26
G1 X116.126 Y97.209 E.74969
G1 X116.126 Y97.75 E.01721
G1 X132.25 Y113.874 E.72535
G1 X131.709 Y113.874 E.01721
G1 X116.126 Y98.291 E.70102
G1 X116.126 Y98.832 E.01721
G1 X131.168 Y113.874 E.67668
G1 X130.627 Y113.874 E.01721
G1 X116.126 Y99.373 E.65234
G1 X116.126 Y99.914 E.01721
G1 X130.086 Y113.874 E.628
G1 X129.545 Y113.874 E.01721
G1 X116.126 Y100.455 E.60367
G1 X116.126 Y100.996 E.01721
G1 X129.004 Y113.874 E.57933
G1 X128.463 Y113.874 E.01721
G1 X116.126 Y101.537 E.55499
G1 X116.126 Y102.078 E.01721
G1 X127.922 Y113.874 E.53065
G1 X127.381 Y113.874 E.01721
G1 X116.126 Y102.619 E.50632
G1 X116.126 Y103.16 E.01721
G1 X126.84 Y113.874 E.48198
G1 X126.299 Y113.874 E.01721
G1 X116.126 Y103.701 E.45764
G1 X116.126 Y104.242 E.01721
G1 X125.758 Y113.874 E.43331
G1 X125.217 Y113.874 E.01721
G1 X116.126 Y104.783 E.40897
G1 X116.126 Y105.324 E.01721
G1 X124.676 Y113.874 E.38463
G1 X124.135 Y113.874 E.01721
G1 X116.126 Y105.865 E.36029
G1 X116.126 Y106.406 E.01721
M73 Q4 S26
G1 X123.594 Y113.874 E.33596
G1 X123.053 Y113.874 E.01721
M73 P4 R25
G1 X116.126 Y106.947 E.31162
G1 X116.126 Y107.488 E.01721
G1 X122.512 Y113.874 E.28728
G1 X121.971 Y113.874 E.01721
G1 X116.126 Y108.029 E.26294
G1 X116.126 Y108.57 E.01721
G1 X121.43 Y113.874 E.23861
G1 X120.889 Y113.874 E.01721
G1 X116.126 Y109.111 E.21427
G1 X116.126 Y109.652 E.01721
G1 X120.348 Y113.874 E.18993
G1 X119.807 Y113.874 E.01721
G1 X116.126 Y110.193 E.16559
G1 X116.126 Y110.734 E.01721
G1 X119.266 Y113.874 E.14126
G1 X118.725 Y113.874 E.01721
G1 X116.126 Y111.275 E.11692
G1 X116.126 Y111.816 E.01721
G1 X118.184 Y113.874 E.09258
G1 X117.643 Y113.874 E.01721
G1 X116.126 Y112.357 E.06824
G1 X116.126 Y112.898 E.01721
G1 X117.102 Y113.874 E.04391
G1 X116.561 Y113.874 E.01721
G1 X115.957 Y113.269 E.02719
M204 S1000
M106 S84.15
;LAYER_CHANGE
;Z:0.4
;HEIGHT:0.2
;BEFORE_LAYER_CHANGE
G92 E0.0
;0.4


;WIPE_START
G1 F8640
G1 X116.561 Y113.874 E-.1974
G1 X117.102 Y113.874 E-.12492
G1 X116.126 Y112.898 E-.31871
G1 X116.126 Y112.357 E-.12492
G1 X116.23 Y112.461 E-.03405
;WIPE_END
G1 Z.4 F720
;AFTER_LAYER_CHANGE
;0.4
; stop printing object calbration_cube.stl id:0 copy 0
G1 Z.8
M73 Q4 S25
G1 X112.246 Y112.461 F10800
G1 Z.4 F720
G1 E.8 F2100
;TYPE:Skirt/Brim
;WIDTH:0.42
G1 F3000
G1 X112.246 Y95 E.54748
G1 X112.639 Y93.583 E.04611
G1 X113.705 Y92.569 E.04613
G1 X115 Y92.246 E.04185
G1 X135 Y92.246 E.62709
G1 X136.417 Y92.639 E.04611
G1 X137.431 Y93.705 E.04613
G1 X137.754 Y95 E.04185
G1 X137.754 Y115 E.62709
G1 X137.361 Y116.417 E.04611
G1 X136.295 Y117.431 E.04613
G1 X135 Y117.754 E.04185
G1 X115 Y117.754 E.62709
G1 X113.583 Y117.361 E.04611
G1 X112.569 Y116.295 E.04613
G1 X112.246 Y115 E.04185
G1 X112.246 Y112.521 E.07773
G1 X112.246 Y112.521 F10800
G1 X112.623 Y112.521
G1 F3000
G1 X112.623 Y95 E.54936
G1 X113.015 Y93.693 E.04278
G1 X114.06 Y92.817 E.04275
G1 X115 Y92.623 E.03009
G1 X135 Y92.623 E.62709
G1 X136.307 Y93.015 E.04278
G1 X137.183 Y94.06 E.04275
G1 X137.377 Y95 E.03009
G1 X137.377 Y115 E.62709
G1 X136.985 Y116.307 E.04278
G1 X135.94 Y117.183 E.04275
G1 X135 Y117.377 E.03009
G1 X115 Y117.377 E.62709
G1 X113.693 Y116.985 E.04278
G1 X112.817 Y115.94 E.04275
G1 X112.623 Y115 E.03009
G1 X112.623 Y112.581 E.07585
;WIPE_START
G1 F8640
G1 X112.623 Y112.521 E-.01385
G1 X112.623 Y109.116 E-.78615
;WIPE_END
G1 Z.8 F720
; printing object calbration_cube.stl id:0 copy 0
G1 X134.368 Y114.368 F10800
G1 Z.4 F720
G1 E.8 F2100
M204 S800
;TYPE:Perimeter
;WIDTH:0.449999
G1 F2376.858
G1 X115.632 Y114.368 E.63419
G1 X115.632 Y95.632 E.63419
G1 X134.368 Y95.632 E.63419
G1 X134.368 Y105 E.3171
G1 X134.368 Y114.308 E.31506
M204 S1000
G1 X134.775 Y114.775 F10800
M204 S800
;TYPE:External perimeter
G1 F1500
G1 X115.225 Y114.775 E.66174
G1 X115.225 Y95.225 E.66174
G1 X134.775 Y95.225 E.66174
G1 X134.775 Y105 E.33087
G1 X134.775 Y114.715 E.32884
M204 S1000
;WIPE_START
G1 F8640
G1 X134.775 Y114.775 E-.01385
G1 X131.37 Y114.775 E-.78615
;WIPE_END
G1 Z.8 F720
G1 X116.109 Y96.031 F10800
G1 Z.4 F720
G1 E.8 F2100
;TYPE:Solid infill
;WIDTH:0.548766
G1 F4800
G1 X116.064 Y95.987 E.00265
G1 X116.003 Y96.003 E.00265
G1 X115.987 Y96.064 E.00265
G1 X116.031 Y96.109 E.00265
G1 X116.093 Y96.093 E.00269
;WIDTH:0.449999
G1 X115.998 Y96.743 E.02224
G1 X116.743 Y95.998 E.03566
G1 X117.318 Y95.998 E.01946
G1 X115.998 Y97.318 E.06319
G1 X115.998 Y97.894 E.0195
G1 X117.894 Y95.998 E.09076
G1 X118.47 Y95.998 E.0195
G1 X115.998 Y98.47 E.11833
M73 Q5 S25
G1 X115.998 Y99.046 E.0195
G1 X119.046 Y95.998 E.14591
G1 X119.621 Y95.998 E.01946
M73 P5 R25
G1 X115.998 Y99.621 E.17343
G1 X115.998 Y100.197 E.0195
G1 X120.197 Y95.998 E.201
G1 X120.773 Y95.998 E.0195
G1 X115.998 Y100.773 E.22858
G1 X115.998 Y101.348 E.01946
G1 X121.348 Y95.998 E.2561
G1 X121.924 Y95.998 E.0195
G1 X115.998 Y101.924 E.28367
G1 X115.998 Y102.5 E.0195
G1 X122.5 Y95.998 E.31125
G1 X123.075 Y95.998 E.01946
G1 X115.998 Y103.075 E.33877
G1 X115.998 Y103.651 E.0195
G1 X123.651 Y95.998 E.36634
G1 X124.227 Y95.998 E.0195
G1 X115.998 Y104.227 E.39392
G1 X115.998 Y104.803 E.0195
G1 X124.803 Y95.998 E.42149
G1 X125.378 Y95.998 E.01946
G1 X115.998 Y105.378 E.44901
G1 X115.998 Y105.954 E.0195
G1 X125.954 Y95.998 E.47659
G1 X126.53 Y95.998 E.0195
G1 X115.998 Y106.53 E.50416
G1 X115.998 Y107.105 E.01946
G1 X127.105 Y95.998 E.53169
G1 X127.681 Y95.998 E.0195
G1 X115.998 Y107.681 E.55926
G1 X115.998 Y108.257 E.0195
G1 X128.257 Y95.998 E.58683
G1 X128.832 Y95.998 E.01946
G1 X115.998 Y108.832 E.61436
G1 X115.998 Y109.408 E.0195
G1 X129.408 Y95.998 E.64193
G1 X129.984 Y95.998 E.0195
G1 X115.998 Y109.984 E.6695
G1 X115.998 Y110.559 E.01946
G1 X130.559 Y95.998 E.69703
G1 X131.135 Y95.998 E.0195
G1 X115.998 Y111.135 E.7246
G1 X115.998 Y111.711 E.0195
G1 X131.711 Y95.998 E.75217
G1 X132.287 Y95.998 E.0195
G1 X115.998 Y112.287 E.77974
G1 X115.998 Y112.862 E.01946
G1 X132.862 Y95.998 E.80727
G1 X133.438 Y95.998 E.0195
G1 X115.998 Y113.438 E.83484
G1 X116.011 Y114.002 E.0191
G1 X134.002 Y96.011 E.86122
G1 X134.002 Y96.586 E.01946
G1 X116.586 Y114.002 E.83369
G1 X117.162 Y114.002 E.0195
G1 X134.002 Y97.162 E.80612
G1 X134.002 Y97.738 E.0195
G1 X117.738 Y114.002 E.77855
G1 X118.313 Y114.002 E.01946
G1 X134.002 Y98.313 E.75102
G1 X134.002 Y98.889 E.0195
G1 X118.889 Y114.002 E.72345
G1 X119.465 Y114.002 E.0195
G1 X134.002 Y99.465 E.69588
G1 X134.002 Y100.04 E.01946
G1 X120.04 Y114.002 E.66835
G1 X120.616 Y114.002 E.0195
G1 X134.002 Y100.616 E.64078
G1 X134.002 Y101.192 E.0195
G1 X121.192 Y114.002 E.61321
G1 X121.768 Y114.002 E.0195
G1 X134.002 Y101.768 E.58563
G1 X134.002 Y102.343 E.01946
G1 X122.343 Y114.002 E.55811
G1 X122.919 Y114.002 E.0195
G1 X134.002 Y102.919 E.53054
G1 X134.002 Y103.495 E.0195
G1 X123.495 Y114.002 E.50296
G1 X124.07 Y114.002 E.01946
G1 X134.002 Y104.07 E.47544
G1 X134.002 Y104.646 E.0195
G1 X124.646 Y114.002 E.44787
G1 X125.222 Y114.002 E.0195
G1 X134.002 Y105.222 E.42029
G1 X134.002 Y105.797 E.01946
G1 X125.797 Y114.002 E.39277
G1 X126.373 Y114.002 E.0195
G1 X134.002 Y106.373 E.3652
G1 X134.002 Y106.949 E.0195
G1 X126.949 Y114.002 E.33762
G1 X127.524 Y114.002 E.01946
G1 X134.002 Y107.524 E.3101
G1 X134.002 Y108.1 E.0195
G1 X128.1 Y114.002 E.28253
G1 X128.676 Y114.002 E.0195
G1 X134.002 Y108.676 E.25495
G1 X134.002 Y109.252 E.0195
G1 X129.252 Y114.002 E.22738
G1 X129.827 Y114.002 E.01946
G1 X134.002 Y109.827 E.19985
G1 X134.002 Y110.403 E.0195
G1 X130.403 Y114.002 E.17228
G1 X130.979 Y114.002 E.0195
G1 X134.002 Y110.979 E.14471
G1 X134.002 Y111.554 E.01946
G1 X131.554 Y114.002 E.11718
G1 X132.13 Y114.002 E.0195
G1 X134.002 Y112.13 E.08961
G1 X134.002 Y112.706 E.0195
G1 X132.706 Y114.002 E.06204
G1 X133.281 Y114.002 E.01946
G1 X134.002 Y113.281 E.03451
G1 X134.019 Y113.943 E.02242
;WIDTH:0.534574
G1 X133.975 Y113.9 E.00252
G1 X133.916 Y113.916 E.0025
G1 X133.9 Y113.975 E.0025
G1 X133.943 Y114.019 E.00252
G1 X134.003 Y114.003 E.00254
M106 S170.85
;LAYER_CHANGE
;Z:0.6
;HEIGHT:0.2
;BEFORE_LAYER_CHANGE
G92 E0.0
;0.6


;WIPE_START
G1 F8640
G1 X133.943 Y114.019 E-.01434
G1 X133.9 Y113.975 E-.01421
G1 X133.916 Y113.916 E-.01412
G1 X133.975 Y113.9 E-.01412
G1 X134.019 Y113.943 E-.01421
G1 X134.002 Y113.281 E-.15291
G1 X133.281 Y114.002 E-.23544
G1 X132.706 Y114.002 E-.13277
G1 X133.342 Y113.365 E-.20788
;WIPE_END
G1 Z.6 F720
;AFTER_LAYER_CHANGE
;0.6
; stop printing object calbration_cube.stl id:0 copy 0
G1 Z1
G1 X133.342 Y117.754 F10800
G1 Z.6 F720
G1 E.8 F2100
;TYPE:Skirt/Brim
;WIDTH:0.42
G1 F3000
G1 X115 Y117.754 E.5751
G1 X113.583 Y117.361 E.04611
G1 X112.569 Y116.295 E.04613
M73 Q6 S25
G1 X112.246 Y115 E.04185
G1 X112.246 Y95 E.62709
G1 X112.639 Y93.583 E.04611
M73 P6 R25
G1 X113.705 Y92.569 E.04613
G1 X115 Y92.246 E.04185
G1 X135 Y92.246 E.62709
G1 X136.417 Y92.639 E.04611
G1 X137.431 Y93.705 E.04613
G1 X137.754 Y95 E.04185
G1 X137.754 Y115 E.62709
G1 X137.361 Y116.417 E.04611
G1 X136.295 Y117.431 E.04613
G1 X135 Y117.754 E.04185
G1 X133.402 Y117.754 E.0501
G1 X133.402 Y117.754 F10800
G1 X133.402 Y117.377
G1 F3000
G1 X115 Y117.377 E.57698
G1 X113.693 Y116.985 E.04278
G1 X112.817 Y115.94 E.04275
G1 X112.623 Y115 E.03009
G1 X112.623 Y95 E.62709
G1 X113.015 Y93.693 E.04278
G1 X114.06 Y92.817 E.04275
G1 X115 Y92.623 E.03009
G1 X135 Y92.623 E.62709
G1 X136.307 Y93.015 E.04278
G1 X137.183 Y94.06 E.04275
G1 X137.377 Y95 E.03009
G1 X137.377 Y115 E.62709
G1 X136.985 Y116.307 E.04278
G1 X135.94 Y117.183 E.04275
G1 X135 Y117.377 E.03009
G1 X133.462 Y117.377 E.04822
;WIPE_START
G1 F8640
G1 X133.402 Y117.377 E-.01385
G1 X129.997 Y117.377 E-.78615
;WIPE_END
G1 Z1 F720
; printing object calbration_cube.stl id:0 copy 0
G1 X134.368 Y114.368 F10800
G1 Z.6 F720
G1 E.8 F2100
M204 S800
;TYPE:Perimeter
;WIDTH:0.449999
G1 F2700
G1 X115.632 Y114.368 E.63419
G1 X115.632 Y95.632 E.63419
G1 X134.368 Y95.632 E.63419
G1 X134.368 Y105 E.3171
G1 X134.368 Y114.308 E.31506
M204 S1000
G1 X134.775 Y114.775 F10800
M204 S800
;TYPE:External perimeter
G1 F1500
G1 X115.225 Y114.775 E.66174
G1 X115.225 Y95.225 E.66174
G1 X134.775 Y95.225 E.66174
G1 X134.775 Y105 E.33087
G1 X134.775 Y114.715 E.32884
M204 S1000
;WIPE_START
G1 F8640
G1 X134.775 Y114.775 E-.01385
G1 X131.37 Y114.775 E-.78615
;WIPE_END
G1 Z1 F720
G1 X116.031 Y113.891 F10800
G1 Z.6 F720
G1 E.8 F2100
;TYPE:Solid infill
;WIDTH:0.548766
G1 F4800
G1 X115.987 Y113.936 E.00265
G1 X116.003 Y113.997 E.00265
G1 X116.064 Y114.013 E.00265
G1 X116.109 Y113.969 E.00265
G1 X116.093 Y113.907 E.00269
;WIDTH:0.449999
G1 X115.998 Y113.257 E.02224
