; generated by PrusaSlicer 2.7.4+win64 on 2024-06-06 at 17:49:59 UTC

; 

; external perimeters extrusion width = 0.45mm
; perimeters extrusion width = 0.45mm
; infill extrusion width = 0.45mm
; solid infill extrusion width = 0.45mm
; top infill extrusion width = 0.40mm
; first layer extrusion width = 0.42mm

; external perimeters extrusion width = 0.45mm
; perimeters extrusion width = 0.45mm
; infill extrusion width = 0.45mm
; solid infill extrusion width = 0.45mm
; top infill extrusion width = 0.40mm
; first layer extrusion width = 0.42mm

M73 P0 R43
M73 Q0 S43
M201 X1000 Y1000 Z200 E5000 ; sets maximum accelerations, mm/sec^2
M203 X200 Y200 Z12 E120 ; sets maximum feedrates, mm / sec
M204 S1250 T1250 ; sets acceleration (S) and retract acceleration (R), mm/sec^2
M205 X8.00 Y8.00 Z0.40 E4.50 ; sets the jerk limits, mm/sec
M205 S0 T0 ; sets the minimum extruding and travel feed rate, mm/sec

; printing object fidget_switch.stl id:1 copy 0
; stop printing object fidget_switch.stl id:1 copy 0
; printing object PIP-Fidget-Switch_1 id:0 copy 0
; stop printing object PIP-Fidget-Switch_1 id:0 copy 0

;TYPE:Custom
M862.3 P "MK3S" ; printer model check
M862.1 P0.4 ; nozzle diameter check
G90 ; use absolute coordinates
M83 ; extruder relative mode
M104 S215 ; set extruder temp
M140 S60 ; set bed temp
M190 S60 ; wait for bed temp
M109 S215 ; wait for extruder temp
G28 W ; home all without mesh bed level
G80 X106.734 Y80.074 W36.6286 H50.0936 ; mesh bed levelling

G1 Z0.2 F720
G1 Y-3 F1000 ; go outside print area
G92 E0
G1 X60 E9 F1000 ; intro line
G1 X100 E12.5 F1000 ; intro line

G92 E0
M221 S95

; Don't change E values below. Excessive value can damage the printer.
M907 E430 ; set extruder motor current
G21 ; set units to millimeters
G90 ; use absolute coordinates
M83 ; use relative distances for extrusion

M900 K0.05 ; Filament gcode LA 1.5
M900 K30 ; Filament gcode LA 1.0




M107
;LAYER_CHANGE
;Z:0.2
;HEIGHT:0.2
G1 E-.8 F2100
G1 Z.6 F720
G1 X108.165 Y83.336 F10800
G1 Z.2 F720
G1 E.8 F2100
M204 S800
;TYPE:Skirt/Brim
;WIDTH:0.42
G1 F1200
G1 X108.926 Y82.407 E.0369
G1 X109.833 Y81.62 E.0369
G1 X111.039 Y80.912 E.04297
G1 X112.168 Y80.504 E.03689
G1 X113.449 Y80.284 E.03994
G1 X136.05 Y80.263 E.69447
G1 X137.441 Y80.411 E.04298
G1 X138.686 Y80.792 E.04001
G1 X139.921 Y81.449 E.04298
G1 X140.933 Y82.266 E.03996
G1 X141.835 Y83.336 E.043
G1 X142.469 Y84.47 E.03992
G1 X142.907 Y85.799 E.043
G1 X143.072 Y87.09 E.03999
G1 X143.136 Y125.3 E1.17409
G1 X142.946 Y126.201 E.02829
G1 X142.582 Y127.1 E.0298
G1 X142.088 Y127.882 E.02842
G1 X141.47 Y128.562 E.02823
G1 X140.698 Y129.156 E.02993
G1 X139.872 Y129.582 E.02856
G1 X138.993 Y129.856 E.02829
G1 X138.081 Y129.974 E.02826
G1 X136.657 Y129.842 E.04394
G1 X135.364 Y129.359 E.04241
G1 X110.079 Y115.231 E.88999
G1 X108.856 Y114.2 E.04915
G1 X108.341 Y113.588 E.02458
G1 X107.847 Y112.835 E.02767
G1 X107.219 Y111.363 E.04917
G1 X107.017 Y110.486 E.02765
G1 X106.928 Y109.589 E.0277
G1 X106.945 Y86.789 E.70058
G1 X107.164 Y85.508 E.03993
G1 X107.572 Y84.379 E.03689
G1 X108.135 Y83.388 E.03502
M204 S1000
;WIPE_START
G1 F8640
G1 X108.165 Y83.336 E-.01386
G1 X108.926 Y82.407 E-.27729
G1 X109.833 Y81.62 E-.27728
G1 X110.698 Y81.112 E-.23157
;WIPE_END
G1 Z.6 F720
; printing object PIP-Fidget-Switch_1 id:0 copy 0
G1 X130.061 Y113.157 F10800
G1 Z.2 F720
G1 E.8 F2100
M204 S800
;TYPE:Perimeter
;WIDTH:0.419999
G1 F1200
G1 X138.846 Y123.627 E.41996
G1 X139.013 Y123.851 E.00859
G1 X139.207 Y124.23 E.01308
G1 X139.267 Y124.635 E.01258
G1 X139.269 Y124.776 E.00433
G1 X139.174 Y125.166 E.01233
G1 X138.984 Y125.516 E.01224
G1 X138.646 Y125.833 E.01424
G1 X138.31 Y126.003 E.01157
G1 X137.989 Y126.07 E.01008
G1 X137.564 Y126.046 E.01308
G1 X137.171 Y125.898 E.0129
G1 X136.725 Y125.527 E.01783
G1 X127.879 Y114.984 E.42288
G1 X128.564 Y114.603 E.02408
G1 X129.105 Y114.192 E.02088
G1 X129.588 Y113.736 E.02041
G1 X130.023 Y113.203 E.02114
M204 S1000
G1 X130.023 Y113.203 F10800
G1 X130.113 Y112.426
M204 S800
G1 F1200
G1 X130.136 Y112.653 E.00701
G1 X130.18 Y112.712 E.00226
G1 X139.135 Y123.384 E.42807
G1 X139.333 Y123.651 E.01021
G1 X139.568 Y124.115 E.01598
G1 X139.644 Y124.629 E.01597
G1 X139.647 Y124.807 E.00547
G1 X139.525 Y125.304 E.01572
G1 X139.276 Y125.759 E.01594
G1 X138.865 Y126.144 E.0173
G1 X138.445 Y126.358 E.01448
G1 X137.884 Y126.459 E.01752
G1 X137.345 Y126.385 E.01672
G1 X136.832 Y126.138 E.0175
G1 X136.452 Y125.788 E.01587
G1 X127.37 Y114.972 E.43397
G1 X127.183 Y114.902 E.00614
G1 X127.469 Y114.776 E.0096
G1 X128.338 Y114.3 E.03045
G1 X128.85 Y113.914 E.0197
G1 X129.296 Y113.497 E.01876
G1 X129.928 Y112.723 E.0307
G1 X130.081 Y112.477 E.0089
M204 S1000
;WIPE_START
G1 F8640
M73 P0 R42
G1 X130.113 Y112.426 E-.0139
G1 X130.136 Y112.653 E-.05268
G1 X130.18 Y112.712 E-.01699
G1 X132.174 Y115.089 E-.71643
;WIPE_END
G1 Z.6 F720
G1 X120.418 Y104.888 F10800
G1 Z.2 F720
G1 E.8 F2100
M204 S800
;WIDTH:0.484945
G1 F1200
G1 X120.565 Y104.055 E.03047
G1 X121.448 Y104.055 E.03181
G1 X120.839 Y104.492 E.027
G1 X120.462 Y104.846 E.01863
M204 S1000
;WIPE_START
G1 F8640
G1 X120.418 Y104.888 E-.01405
G1 X120.565 Y104.055 E-.19531
G1 X121.448 Y104.055 E-.20389
G1 X120.839 Y104.492 E-.17308
G1 X120.462 Y104.846 E-.11941
;WIPE_END
G1 E-.09426 F2100
G1 Z.6 F720
G1 X119.716 Y106.537 F10800
G1 Z.2 F720
G1 E.8 F2100
M204 S800
;WIDTH:0.419999
G1 F1200
G1 X120.222 Y103.645 E.09021
G1 X123.176 Y103.645 E.09077
G1 X122.545 Y103.887 E.02077
G1 X122.002 Y104.167 E.01877
G1 X121.12 Y104.79 E.03318
G1 X120.654 Y105.233 E.01976
G1 X120.258 Y105.699 E.01879
G1 X119.748 Y106.486 E.02882
M204 S1000
;WIPE_START
G1 F8640
G1 X119.716 Y106.537 E-.0139
G1 X120.222 Y103.645 E-.67791
G1 X120.691 Y103.645 E-.10819
;WIPE_END
G1 Z.6 F720
G1 X122.247 Y114.267 F10800
G1 Z.2 F720
G1 E.8 F2100
M204 S800
;TYPE:External perimeter
;WIDTH:0.518975
G1 F1200
G1 X121.891 Y114.059 E.01599
;WIDTH:0.525289
G1 X121.218 Y113.526 E.03374
G1 X120.622 Y112.913 E.03361
;WIDTH:0.52786
G1 X120.272 Y112.411 E.02418
G1 X120.02 Y112.007 E.01882
;WIDTH:0.521759
G1 X119.735 Y111.379 E.02691
;WIDTH:0.527336
G1 X119.539 Y110.744 E.02623
G1 X119.395 Y110.052 E.0279
;WIDTH:0.520004
G1 X119.35 Y109.462 E.023
;WIDTH:0.51571
G1 X119.389 Y108.855 E.02343
;WIDTH:0.478705
G1 X119.571 Y107.841 E.03658
;WIDTH:0.520362
G1 X119.727 Y107.301 E.02187
G1 X119.826 Y107.123 E.00792
;WIDTH:0.486908
G1 X119.925 Y106.945 E.00737
;WIDTH:0.453454
G1 X120.023 Y106.767 E.0068
;WIDTH:0.419999
G1 X120.576 Y105.902 E.03155
G1 X120.939 Y105.479 E.01713
G1 X121.378 Y105.065 E.01854
G1 X122.218 Y104.476 E.03152
G1 X122.715 Y104.224 E.01712
G1 X123.279 Y104.008 E.01856
;WIDTH:0.46907
G1 X123.537 Y103.913 E.00955
;WIDTH:0.518141
G1 X123.796 Y103.817 E.0107
G1 X124.345 Y103.742 E.02146
;WIDTH:0.486356
G1 X124.951 Y103.714 E.02192
;WIDTH:0.477042
G1 X125.503 Y103.73 E.01954
;WIDTH:0.516433
G1 X126.052 Y103.787 E.0213
;WIDTH:0.518317
G1 X126.643 Y103.932 E.02357
;WIDTH:0.52969
G1 X127.611 Y104.327 E.04147
;WIDTH:0.517066
G1 X128.087 Y104.606 E.02132
;WIDTH:0.518177
G1 X128.578 Y104.965 E.02356
G1 X128.99 Y105.336 E.02147
G1 X129.363 Y105.746 E.02147
;WIDTH:0.519699
G1 X129.69 Y106.189 E.02139
;WIDTH:0.527254
G1 X130.084 Y106.902 E.03215
G1 X130.367 Y107.579 E.02896
;WIDTH:0.520144
G1 X130.549 Y108.268 E.02771
;WIDTH:0.526147
G1 X130.635 Y109.084 E.03231
G1 X130.625 Y109.861 E.0306
;WIDTH:0.513204
G1 X130.537 Y110.462 E.02328
;WIDTH:0.529444
G1 X130.239 Y111.452 E.04099
;WIDTH:0.518846
G1 X130.005 Y111.965 E.02187
G1 X129.829 Y112.213 E.01179
;WIDTH:0.469423
G1 X129.652 Y112.462 E.01062
;WIDTH:0.419999
G1 X129.004 Y113.259 E.03156
G1 X128.595 Y113.637 E.01711
G1 X128.113 Y113.998 E.0185
G1 X127.29 Y114.445 E.02878
;WIDTH:0.453944
G1 X127.119 Y114.531 E.00641
;WIDTH:0.487889
G1 X126.948 Y114.617 E.00694
;WIDTH:0.521834
G1 X126.705 Y114.728 E.01043
;WIDTH:0.518712
G1 X126.116 Y114.879 E.02357
;WIDTH:0.525762
G1 X125.282 Y114.974 E.03303
G1 X124.524 Y114.97 E.02982
;WIDTH:0.516552
G1 X123.923 Y114.887 E.02342
;WIDTH:0.529592
G1 X122.894 Y114.585 E.04253
;WIDTH:0.518975
G1 X122.427 Y114.371 E.01993
G1 X122.299 Y114.297 E.00574
M204 S1000
;WIPE_START
G1 F8640
G1 X122.247 Y114.267 E-.01386
G1 X121.891 Y114.059 E-.0952
G1 X121.218 Y113.526 E-.19823
G1 X120.622 Y112.913 E-.19742
G1 X120.272 Y112.411 E-.1413
G1 X120.02 Y112.007 E-.10994
G1 X119.941 Y111.833 E-.04405
;WIPE_END
G1 Z.6 F720
G1 X130.445 Y112.394 F10800
G1 Z.2 F720
G1 E.8 F2100
M204 S800
;WIDTH:0.453751
G1 F1200
G1 X130.468 Y112.469 E.00263
;WIDTH:0.419999
G1 X139.424 Y123.142 E.42812
G1 X139.576 Y123.34 E.00767
G1 X139.845 Y123.804 E.01648
G1 X139.973 Y124.205 E.01293
G1 X140.021 Y124.623 E.01293
G1 X139.988 Y125.041 E.01288
G1 X139.861 Y125.479 E.01401
G1 X139.569 Y126.002 E.01841
G1 X139.083 Y126.456 E.02044
G1 X138.579 Y126.713 E.01738
G1 X138.217 Y126.807 E.01149
G1 X137.561 Y126.817 E.02016
G1 X137.081 Y126.688 E.01527
G1 X136.608 Y126.443 E.01637
G1 X136.179 Y126.049 E.0179
G1 X127.133 Y115.268 E.43244
;WIDTH:0.453944
G1 X127.063 Y115.232 E.00264
;WIDTH:0.487889
G1 X126.994 Y115.195 E.00284
;WIDTH:0.521834
G1 X126.924 Y115.159 E.00307
G1 X126.409 Y115.301 E.02085
;WIDTH:0.527912
G1 X125.839 Y115.404 E.02289
G1 X125.309 Y115.455 E.02104
;WIDTH:0.525762
G1 X124.775 Y115.461 E.02101
;WIDTH:0.5218
G1 X124.243 Y115.418 E.02083
G1 X123.717 Y115.33 E.02081
;WIDTH:0.529592
G1 X123.201 Y115.191 E.02119
G1 X122.697 Y115.017 E.02115
;WIDTH:0.518494
G1 X122.2 Y114.789 E.02119
;WIDTH:0.521082
G1 X121.747 Y114.531 E.02031
;WIDTH:0.528228
G1 X121.31 Y114.225 E.0211
G1 X120.898 Y113.886 E.0211
;WIDTH:0.525289
G1 X120.516 Y113.513 E.02099
;WIDTH:0.522795
G1 X120.17 Y113.107 E.02086
;WIDTH:0.52786
G1 X119.863 Y112.67 E.0211
G1 X119.589 Y112.212 E.02109
;WIDTH:0.521759
G1 X119.282 Y111.536 E.02897
;WIDTH:0.527336
G1 X119.065 Y110.84 E.02878
M73 Q1 S43
G1 X118.915 Y110.025 E.03271
;WIDTH:0.517765
G1 X118.878 Y109.373 E.02527
G1 X118.968 Y108.747 E.02447
;WIDTH:0.481085
G1 X119.154 Y107.703 E.03786
;WIDTH:0.507841
G1 X119.268 Y107.134 E.02199
G1 X119.297 Y106.842 E.01112
;WIDTH:0.46392
G1 X119.326 Y106.551 E.01003
;WIDTH:0.419999
G1 X119.758 Y104.101 E.07644
G1 X119.915 Y103.344 E.02376
M73 P1 R42
G1 X120.07 Y103.268 E.0053
G1 X123.2 Y103.268 E.09618
;WIDTH:0.456578
G1 X123.393 Y103.286 E.00653
;WIDTH:0.493156
G1 X123.586 Y103.305 E.00712
;WIDTH:0.529734
G1 X123.778 Y103.323 E.00765
G1 X124.355 Y103.3 E.02291
;WIDTH:0.483815
G1 X124.982 Y103.291 E.02253
;WIDTH:0.479012
G1 X125.555 Y103.297 E.02036
;WIDTH:0.516719
G1 X126.189 Y103.332 E.02452
;WIDTH:0.517794
G1 X126.845 Y103.499 E.02619
;WIDTH:0.52969
G1 X127.346 Y103.686 E.02121
G1 X127.893 Y103.939 E.02391
;WIDTH:0.5189
G1 X128.403 Y104.245 E.02307
G1 X128.915 Y104.628 E.0248
;WIDTH:0.517747
G1 X129.358 Y105.034 E.02325
G1 X129.76 Y105.483 E.02332
G1 X130.154 Y106.038 E.02634
;WIDTH:0.527254
G1 X130.508 Y106.669 E.02856
G1 X130.658 Y107.014 E.01485
;WIDTH:0.514306
G1 X130.864 Y107.587 E.02339
;WIDTH:0.517593
G1 X131.027 Y108.252 E.02648
G1 X131.124 Y109.34 E.04225
;WIDTH:0.516256
G1 X131.088 Y109.941 E.02322
;WIDTH:0.513017
G1 X130.983 Y110.617 E.02621
;WIDTH:0.529444
G1 X130.857 Y111.117 E.02044
G1 X130.661 Y111.665 E.02307
;WIDTH:0.521254
G1 X130.398 Y112.244 E.02479
G1 X130.421 Y112.319 E.00306
;WIDTH:0.487503
G1 X130.427 Y112.337 E.00069
M204 S1000
;WIPE_START
G1 F8640
G1 X130.445 Y112.394 E-.0138
G1 X130.468 Y112.469 E-.01811
G1 X132.606 Y115.017 E-.76809
;WIPE_END
G1 Z.6 F720
G1 X129.675 Y113.882 F10800
G1 Z.2 F720
G1 E.8 F2100
M204 S800
;TYPE:Solid infill
;WIDTH:0.455945
G1 F1200
G1 X133.103 Y117.31 E.16316
G1 X136.149 Y120.94 E.15949
G1 X129.499 Y114.291 E.3165
G1 X129.185 Y114.56 E.01392
G1 X138.825 Y124.201 E.45886
G1 X138.882 Y124.334 E.00487
G1 X138.926 Y124.539 E.00706
G1 X138.93 Y124.749 E.00707
G1 X138.908 Y124.868 E.00407
M73 Q1 S42
G1 X128.851 Y114.811 E.47869
G1 X128.489 Y115.033 E.01429
G1 X138.734 Y125.278 E.48763
G1 X138.433 Y125.56 E.01388
G1 X130.749 Y117.877 E.36571
G1 X133.795 Y121.507 E.15949
G1 X138.015 Y125.727 E.20086
G1 X137.709 Y125.73 E.0103
G1 X137.549 Y125.696 E.00551
G1 X137.403 Y125.64 E.00526
G1 X137.263 Y125.559 E.00544
G1 X135.465 Y123.761 E.08558
M204 S1000
;WIPE_START
G1 F8640
G1 X137.263 Y125.559 E-.58713
G1 X137.403 Y125.64 E-.03735
G1 X137.549 Y125.696 E-.03611
G1 X137.709 Y125.73 E-.03777
G1 X138.015 Y125.727 E-.07066
G1 X137.92 Y125.632 E-.03098
;WIPE_END
G1 Z.6 F720
; stop printing object PIP-Fidget-Switch_1 id:0 copy 0
; printing object fidget_switch.stl id:1 copy 0
G1 X125.229 Y105.577 F10800
G1 Z.2 F720
G1 E.8 F2100
M204 S800
;TYPE:Perimeter
;WIDTH:0.419999
G1 F1200
G1 X125.467 Y105.582 E.00731
G1 X126.183 Y105.742 E.02254
G1 X126.662 Y105.943 E.01596
G1 X127.163 Y106.253 E.0181
G1 X127.608 Y106.599 E.01732
G1 X127.978 Y107.001 E.01679
G1 X128.373 Y107.618 E.02251
G1 X128.57 Y108.091 E.01574
G1 X128.71 Y108.69 E.0189
G1 X128.781 Y109.258 E.01759
G1 X128.785 Y109.446 E.00578
G1 X128.71 Y110.021 E.01782
G1 X128.579 Y110.576 E.01752
G1 X128.283 Y111.223 E.02186
G1 X127.983 Y111.65 E.01604
G1 X127.611 Y112.082 E.01752
G1 X127.055 Y112.518 E.02171
G1 X126.348 Y112.876 E.02435
G1 X125.69 Y113.061 E.021
G1 X124.9 Y113.123 E.02435
G1 X124.222 Y113.043 E.02098
G1 X123.467 Y112.8 E.02437
G1 X122.87 Y112.468 E.02099
G1 X122.265 Y111.955 E.02437
G1 X121.839 Y111.421 E.02099
G1 X121.475 Y110.717 E.02435
G1 X121.285 Y110.061 E.02099
G1 X121.216 Y109.271 E.02437
G1 X121.272 Y108.761 E.01577
G1 X121.389 Y108.201 E.01758
G1 X121.676 Y107.525 E.02257
G1 X121.96 Y107.089 E.01599
G1 X122.352 Y106.658 E.0179
G1 X122.775 Y106.279 E.01745
G1 X123.236 Y105.989 E.01673
G1 X123.777 Y105.771 E.01792
G1 X124.319 Y105.615 E.01733
G1 X124.896 Y105.569 E.01779
G1 X125.169 Y105.575 E.00839
M204 S1000
G1 X125.169 Y105.575 F10800
G1 X125.237 Y105.202
M204 S800
G1 F1200
G1 X125.522 Y105.208 E.00876
G1 X126.291 Y105.38 E.02421
G1 X126.831 Y105.605 E.01798
G1 X127.379 Y105.944 E.0198
G1 X127.866 Y106.323 E.01896
G1 X128.28 Y106.774 E.01881
G1 X128.705 Y107.437 E.0242
G1 X128.927 Y107.971 E.01777
G1 X129.082 Y108.624 E.02062
G1 X129.158 Y109.249 E.01935
G1 X129.163 Y109.466 E.00667
G1 X129.083 Y110.07 E.01872
G1 X128.934 Y110.707 E.0201
G1 X128.612 Y111.411 E.02379
G1 X128.291 Y111.867 E.01714
G1 X127.865 Y112.362 E.02007
G1 X127.259 Y112.837 E.02366
G1 X126.485 Y113.229 E.02666
G1 X125.757 Y113.434 E.02324
G1 X124.893 Y113.502 E.02663
G1 X124.141 Y113.414 E.02326
G1 X123.316 Y113.147 E.02664
G1 X122.654 Y112.78 E.02326
G1 X121.993 Y112.219 E.02664
G1 X121.521 Y111.628 E.02324
G1 X121.123 Y110.857 E.02666
G1 X120.912 Y110.131 E.02323
G1 X120.837 Y109.266 E.02668
G1 X120.897 Y108.72 E.01688
G1 X121.031 Y108.079 E.02012
G1 X121.339 Y107.353 E.02423
G1 X121.659 Y106.862 E.01801
G1 X122.087 Y106.39 E.01958
G1 X122.551 Y105.976 E.01911
G1 X123.069 Y105.65 E.01881
G1 X123.636 Y105.422 E.01878
G1 X124.261 Y105.241 E.01999
G1 X124.867 Y105.193 E.01868
G1 X125.177 Y105.2 E.00953
M204 S1000
G1 X125.177 Y105.2 F10800
G1 X125.284 Y104.812
M204 S800
;TYPE:External perimeter
G1 F1200
G1 X125.578 Y104.834 E.00906
G1 X126.154 Y104.963 E.01814
G1 X126.634 Y105.106 E.01539
G1 X127.25 Y105.393 E.02088
G1 X127.733 Y105.731 E.01811
G1 X128.123 Y106.048 E.01544
G1 X128.583 Y106.547 E.02085
G1 X128.901 Y107.044 E.01813
G1 X129.141 Y107.485 E.01543
G1 X129.376 Y108.122 E.02086
G1 X129.453 Y108.559 E.01363
G1 X129.535 Y109.241 E.02111
G1 X129.54 Y109.487 E.00756
G1 X129.425 Y110.367 E.02727
G1 X129.288 Y110.839 E.0151
G1 X128.94 Y111.6 E.02571
G1 X128.6 Y112.084 E.01817
G1 X128.12 Y112.641 E.02259
G1 X127.462 Y113.157 E.02569
G1 X126.623 Y113.582 E.0289
G1 X125.823 Y113.807 E.02554
G1 X124.885 Y113.88 E.02891
G1 X124.06 Y113.784 E.02552
G1 X123.165 Y113.495 E.0289
G1 X122.439 Y113.091 E.02553
G1 X121.721 Y112.483 E.02891
G1 X121.204 Y111.834 E.0255
G1 X120.771 Y110.998 E.02893
G1 X120.54 Y110.2 E.02553
G1 X120.458 Y109.262 E.02893
G1 X120.522 Y108.679 E.01802
G1 X120.673 Y107.957 E.02267
G1 X120.892 Y107.443 E.01717
G1 X121.132 Y106.967 E.01638
G1 X121.526 Y106.413 E.02089
G1 X121.928 Y106.017 E.01734
