; generated by PrusaSlicer 2.7.1 on 2024-02-26 at 13:22:42 UTC

; external perimeters extrusion width = 0.45mm
; perimeters extrusion width = 0.45mm
; infill extrusion width = 0.45mm
; solid infill extrusion width = 0.45mm
; top infill extrusion width = 0.40mm
; first layer extrusion width = 0.42mm

M73 P0 R20
M73 Q0 S20
M201 X1000 Y1000 Z200 E5000 ; sets maximum accelerations, mm/sec^2
M203 X200 Y200 Z12 E120 ; sets maximum feedrates, mm / sec
M204 S1250 T1250 ; sets acceleration (S) and retract acceleration (R), mm/sec^2
M205 X8.00 Y8.00 Z0.40 E4.50 ; sets the jerk limits, mm/sec
M205 S0 T0 ; sets the minimum extruding and travel feed rate, mm/sec

;TYPE:Custom
M862.3 P "MK3S" ; printer model check
M862.1 P0.4 ; nozzle diameter check
G90 ; use absolute coordinates
M83 ; extruder relative mode
M104 S215 ; set extruder temp
M140 S60 ; set bed temp
M190 S60 ; wait for bed temp
M109 S215 ; wait for extruder temp
G28 W ; home all without mesh bed level
G80 X82.9344 Y85.4344 W84.1312 H39.1312 ; mesh bed levelling

G1 Z0.2 F720
G1 Y-3 F1000 ; go outside print area
G92 E0
G1 X60 E9 F1000 ; intro line
G1 X100 E12.5 F1000 ; intro line

G92 E0
M221 S95

; Don't change E values below. Excessive value can damage the printer.
M907 E430 ; set extruder motor current
G21 ; set units to millimeters
G90 ; use absolute coordinates
M83 ; use relative distances for extrusion

M900 K0.05 ; Filament gcode LA 1.5
M900 K30 ; Filament gcode LA 1.0




M107
;LAYER_CHANGE
;Z:0.2
;HEIGHT:0.2
;BEFORE_LAYER_CHANGE
G92 E0.0
;0.2


G1 E-.8 F2100
G1 Z.2 F720
;AFTER_LAYER_CHANGE
;0.2
G1 X85.002 Y87.779 F10800
G1 Z.2 F720
G1 E.8 F2100
M204 S800
;TYPE:Skirt/Brim
;WIDTH:0.42
G1 F1200
G1 X85.741 Y87.102 E.03142
G1 X87.144 Y86.246 E.05153
G1 X88.531 Y85.784 E.04584
G1 X90 Y85.623 E.04634
G1 X160.098 Y85.625 E2.19787
G1 X161.267 Y85.742 E.03684
G1 X162.591 Y86.131 E.04327
G1 X163.764 Y86.746 E.04153
G1 X164.721 Y87.502 E.03824
G1 X165.503 Y88.378 E.03682
G1 X166.215 Y89.56 E.04327
G1 X166.661 Y90.795 E.04117
G1 X166.857 Y91.999 E.03825
G1 X166.877 Y117.5 E.79957
G1 X166.816 Y118.39 E.02797
M73 P1 R20
M73 Q1 S20
G1 X166.661 Y119.205 E.02601
G1 X166.369 Y120.091 E.02925
G1 X165.976 Y120.899 E.02817
G1 X165.503 Y121.622 E.02709
G1 X164.998 Y122.221 E.02457
G1 X164.259 Y122.898 E.03142
G1 X162.856 Y123.754 E.05153
G1 X161.469 Y124.216 E.04584
G1 X160 Y124.377 E.04634
G1 X89.695 Y124.367 E2.20436
G1 X88.733 Y124.258 E.03036
G1 X87.886 Y124.042 E.02741
G1 X87.06 Y123.715 E.02785
G1 X86.236 Y123.254 E.0296
G1 X85.423 Y122.631 E.03211
G1 X84.869 Y122.077 E.02457
G1 X84.246 Y121.264 E.03211
G1 X83.746 Y120.356 E.0325
G1 X83.284 Y118.969 E.04584
G1 X83.123 Y117.5 E.04634
G1 X83.158 Y91.815 E.80534
G1 X83.297 Y90.975 E.0267
G1 X83.556 Y90.102 E.02855
G1 X83.934 Y89.262 E.02888
G1 X84.497 Y88.378 E.03286
G1 X84.963 Y87.824 E.0227
M204 S1000
; printing object filament_sample.stl id:0 copy 0
;WIPE_START
G1 F8640
G1 X85.002 Y87.779 E-.01375
G1 X85.741 Y87.102 E-.23142
G1 X87.144 Y86.246 E-.37949
G1 X87.864 Y86.006 E-.17534
;WIPE_END
G1 Z.6 F720
G1 X87.554 Y90.269 F10800
G1 Z.2 F720
G1 E.8 F2100
M204 S800
;TYPE:Perimeter
;WIDTH:0.419999
G1 F1200
G1 X88.001 Y89.861 E.01898
G1 X88.513 Y89.542 E.01891
G1 X89.104 Y89.313 E.01987
G1 X89.483 Y89.243 E.01208
G1 X90.018 Y89.187 E.01687
G1 X160.005 Y89.189 E2.19439
G1 X160.6 Y89.245 E.01874
G1 X161.21 Y89.419 E.01989
G1 X161.749 Y89.69 E.01892
G1 X162.231 Y90.054 E.01894
G1 X162.638 Y90.501 E.01895
G1 X162.971 Y91.04 E.01987
G1 X163.187 Y91.603 E.01891
G1 X163.262 Y92.011 E.01301
G1 X163.311 Y92.55 E.01697
G1 X163.313 Y117.468 E.78129
G1 X163.249 Y118.131 E.02088
M73 P1 R19
M73 Q2 S20
G1 X163.092 Y118.682 E.01796
G1 X162.81 Y119.25 E.01988
G1 X162.446 Y119.731 E.01891
G1 X161.999 Y120.139 E.01898
G1 X161.487 Y120.458 E.01891
G1 X160.896 Y120.687 E.01987
G1 X160.517 Y120.757 E.01208
G1 X159.982 Y120.813 E.01687
G1 X90.03 Y120.813 E2.19329
M73 P2 R19
G1 X89.399 Y120.755 E.01987
M73 Q2 S19
G1 X88.79 Y120.581 E.01986
G1 X88.25 Y120.31 E.01894
G1 X87.792 Y119.965 E.01798
G1 X87.36 Y119.497 E.01997
G1 X87.042 Y118.986 E.01887
G1 X86.813 Y118.396 E.01984
G1 X86.743 Y118.017 E.01208
G1 X86.687 Y117.482 E.01687
G1 X86.687 Y92.532 E.78229
G1 X86.751 Y91.869 E.02088
G1 X86.908 Y91.318 E.01796
G1 X87.19 Y90.75 E.01988
G1 X87.518 Y90.317 E.01703
M204 S1000
G1 X86.868 Y90.55 F10800
M204 S800
;TYPE:External perimeter
G1 F1200
G1 X87.275 Y90.014 E.0211
G1 X87.773 Y89.559 E.02115
G1 X88.344 Y89.204 E.02108
G1 X89.001 Y88.949 E.0221
G1 X89.415 Y88.872 E.0132
G1 X90.009 Y88.81 E.01873
G1 X160.023 Y88.812 E2.19524
G1 X160.67 Y88.872 E.02037
G1 X161.348 Y89.066 E.02211
G1 X161.949 Y89.368 E.02109
G1 X162.486 Y89.775 E.02113
G1 X162.941 Y90.273 E.02115
G1 X163.31 Y90.872 E.02206
G1 X163.551 Y91.501 E.02112
G1 X163.633 Y91.942 E.01406
G1 X163.688 Y92.55 E.01914
G1 X163.69 Y117.486 E.78185
G1 X163.621 Y118.202 E.02255
G1 X163.445 Y118.819 E.02012
G1 X163.132 Y119.45 E.02208
G1 X162.725 Y119.986 E.0211
G1 X162.227 Y120.441 E.02115
G1 X161.656 Y120.796 E.02108
G1 X160.999 Y121.051 E.0221
G1 X160.585 Y121.128 E.0132
G1 X159.991 Y121.19 E.01873
G1 X90.013 Y121.19 E2.19411
G1 X89.329 Y121.127 E.02154
M73 P3 R19
M73 Q3 S19
G1 X88.652 Y120.934 E.02207
G1 X88.05 Y120.632 E.02112
G1 X87.538 Y120.246 E.0201
G1 X87.059 Y119.727 E.02214
G1 X86.704 Y119.156 E.02108
G1 X86.449 Y118.499 E.0221
G1 X86.372 Y118.085 E.0132
G1 X86.31 Y117.491 E.01873
G1 X86.31 Y92.514 E.78313
G1 X86.379 Y91.798 E.02255
G1 X86.555 Y91.181 E.02012
G1 X86.842 Y90.604 E.02021
M204 S1000
;WIPE_START
G1 F8640
G1 X86.868 Y90.55 E-.01384
G1 X87.275 Y90.014 E-.1554
G1 X87.773 Y89.559 E-.15576
G1 X88.344 Y89.204 E-.15525
G1 X89.001 Y88.949 E-.16273
G1 X89.415 Y88.872 E-.09723
G1 X89.673 Y88.845 E-.05979
;WIPE_END
G1 Z.6 F720
G1 X161.398 Y89.703 F10800
G1 Z.2 F720
G1 E.8 F2100
M204 S800
;TYPE:Solid infill
;WIDTH:0.421702
G1 F1200
G1 X162.006 Y90.311 E.02708
G1 X162.366 Y90.706 E.01683
G1 X162.665 Y91.191 E.01795
G1 X162.859 Y91.7 E.01716
G1 X160.819 Y89.66 E.09087
G1 X160.537 Y89.58 E.00923
G1 X160.168 Y89.545 E.01167
G1 X162.96 Y92.337 E.12436
G1 X162.961 Y92.873 E.01688
G1 X159.616 Y89.528 E.14899
G1 X159.08 Y89.528 E.01688
G1 X162.961 Y93.409 E.17287
G1 X162.961 Y93.945 E.01688
G1 X158.544 Y89.528 E.19674
G1 X158.009 Y89.528 E.01685
G1 X162.961 Y94.481 E.22059
G1 X162.962 Y95.017 E.01688
G1 X157.473 Y89.528 E.24449
G1 X156.937 Y89.528 E.01688
G1 X162.962 Y95.553 E.26836
G1 X162.962 Y96.089 E.01688
G1 X156.402 Y89.528 E.29222
G1 X155.866 Y89.528 E.01688
G1 X162.963 Y96.625 E.31611
G1 X162.963 Y97.161 E.01688
G1 X155.33 Y89.528 E.33999
G1 X154.794 Y89.528 E.01688
G1 X162.963 Y97.697 E.36386
G1 X162.963 Y98.233 E.01688
G1 X154.259 Y89.528 E.38771
G1 X153.723 Y89.528 E.01688
G1 X162.964 Y98.769 E.41161
G1 X162.964 Y99.304 E.01685
G1 X153.187 Y89.528 E.43546
G1 X152.652 Y89.528 E.01685
G1 X162.964 Y99.84 E.45932
G1 X162.965 Y100.376 E.01688
M73 P4 R19
M73 Q4 S19
G1 X152.116 Y89.528 E.48321
G1 X151.58 Y89.528 E.01688
G1 X162.965 Y100.912 E.50709
G1 X162.965 Y101.448 E.01688
G1 X151.045 Y89.528 E.53094
G1 X150.509 Y89.528 E.01688
G1 X162.965 Y101.984 E.55481
G1 X162.966 Y102.52 E.01688
G1 X149.973 Y89.528 E.57871
G1 X149.438 Y89.528 E.01685
G1 X162.966 Y103.056 E.60256
G1 X162.966 Y103.592 E.01688
G1 X148.902 Y89.528 E.62644
G1 X148.366 Y89.528 E.01688
G1 X162.967 Y104.128 E.65033
G1 X162.967 Y104.664 E.01688
G1 X147.83 Y89.528 E.67421
G1 X147.295 Y89.528 E.01685
G1 X162.967 Y105.2 E.69806
G1 X162.967 Y105.736 E.01688
G1 X146.759 Y89.528 E.72193
G1 X146.223 Y89.528 E.01688
G1 X162.968 Y106.272 E.74583
G1 X162.968 Y106.808 E.01688
M73 P5 R19
M73 Q5 S19
G1 X145.688 Y89.528 E.76968
G1 X145.152 Y89.528 E.01688
G1 X162.968 Y107.344 E.79356
G1 X162.969 Y107.88 E.01688
G1 X144.616 Y89.528 E.81745
G1 X144.081 Y89.528 E.01685
G1 X162.969 Y108.416 E.84131
G1 X162.969 Y108.952 E.01688
G1 X143.545 Y89.528 E.86518
G1 X143.009 Y89.528 E.01688
G1 X162.969 Y109.488 E.88906
G1 X162.97 Y110.024 E.01688
G1 X142.474 Y89.528 E.91293
G1 X141.938 Y89.528 E.01688
G1 X162.97 Y110.56 E.9368
G1 X162.97 Y111.096 E.01688
G1 X141.402 Y89.528 E.96068
G1 X140.866 Y89.528 E.01688
M73 P6 R19
M73 Q6 S19
G1 X162.97 Y111.632 E.98455
G1 X162.971 Y112.168 E.01688
G1 X140.331 Y89.528 E1.00843
G1 X139.795 Y89.528 E.01688
G1 X162.971 Y112.703 E1.03228
G1 X162.971 Y113.239 E.01688
G1 X139.259 Y89.528 E1.05615
G1 X138.724 Y89.527 E.01685
G1 X162.972 Y113.775 E1.08005
G1 X162.972 Y114.311 E.01688
G1 X138.188 Y89.527 E1.10393
G1 X137.652 Y89.527 E.01688
M73 P6 R18
G1 X162.972 Y114.847 E1.1278
G1 X162.972 Y115.383 E.01688
M73 P7 R18
M73 Q7 S18
G1 X137.117 Y89.527 E1.15165
G1 X136.581 Y89.527 E.01688
G1 X162.973 Y115.919 E1.17555
G1 X162.973 Y116.455 E.01688
G1 X136.045 Y89.527 E1.19942
G1 X135.51 Y89.527 E.01685
G1 X162.973 Y116.991 E1.22328
G1 X162.967 Y117.52 E.01666
G1 X134.974 Y89.527 E1.24686
G1 X134.438 Y89.527 E.01688
G1 X162.92 Y118.009 E1.26864
G1 X162.81 Y118.434 E.01383
M73 Q8 S18
G1 X133.903 Y89.527 E1.28757
G1 X133.367 Y89.527 E.01688
M73 P8 R18
G1 X162.649 Y118.81 E1.3043
G1 X162.52 Y119.071 E.00917
G1 X162.457 Y119.153 E.00326
G1 X132.831 Y89.527 E1.3196
G1 X132.295 Y89.527 E.01688
G1 X162.226 Y119.458 E1.33318
G1 X161.953 Y119.721 E.01194
G1 X131.76 Y89.527 E1.34487
G1 X131.224 Y89.527 E.01688
G1 X161.652 Y119.955 E1.35532
G1 X161.334 Y120.153 E.0118
M73 P9 R18
M73 Q9 S18
G1 X161.319 Y120.158 E.0005
G1 X130.688 Y89.527 E1.36436
G1 X130.153 Y89.527 E.01685
G1 X160.933 Y120.308 E1.37102
G1 X160.802 Y120.359 E.00443
G1 X160.504 Y120.414 E.00954
G1 X129.617 Y89.527 E1.37576
G1 X129.081 Y89.527 E.01688
G1 X160.025 Y120.471 E1.3783
G1 X159.492 Y120.474 E.01679
G1 X128.546 Y89.527 E1.37841
G1 X128.01 Y89.527 E.01688
G1 X158.956 Y120.474 E1.37841
G1 X158.421 Y120.474 E.01685
M73 P10 R18
M73 Q10 S18
G1 X127.474 Y89.527 E1.37844
G1 X126.939 Y89.527 E.01685
G1 X157.885 Y120.474 E1.37841
G1 X157.349 Y120.474 E.01688
G1 X126.403 Y89.527 E1.37841
G1 X125.867 Y89.527 E.01688
G1 X156.813 Y120.474 E1.37841
G1 X156.278 Y120.474 E.01685
G1 X125.331 Y89.527 E1.37844
G1 X124.796 Y89.527 E.01685
M73 P11 R18
M73 Q11 S18
G1 X155.742 Y120.474 E1.37841
G1 X155.206 Y120.474 E.01688
G1 X124.26 Y89.527 E1.37841
G1 X123.724 Y89.527 E.01688
G1 X154.671 Y120.474 E1.37844
G1 X154.135 Y120.474 E.01688
G1 X123.189 Y89.527 E1.37841
G1 X122.653 Y89.527 E.01688
M73 P11 R17
G1 X153.599 Y120.474 E1.37841
G1 X153.064 Y120.474 E.01685
M73 Q11 S17
G1 X122.117 Y89.527 E1.37844
G1 X121.582 Y89.527 E.01685
M73 P12 R17
M73 Q12 S17
G1 X152.528 Y120.474 E1.37841
G1 X151.992 Y120.474 E.01688
G1 X121.046 Y89.527 E1.37841
G1 X120.51 Y89.527 E.01688
G1 X151.457 Y120.474 E1.37844
G1 X150.921 Y120.474 E.01688
G1 X119.975 Y89.527 E1.37841
G1 X119.439 Y89.527 E.01688
G1 X150.385 Y120.474 E1.37841
G1 X149.85 Y120.474 E.01685
M73 P13 R17
M73 Q13 S17
G1 X118.903 Y89.527 E1.37844
G1 X118.368 Y89.527 E.01685
G1 X149.314 Y120.474 E1.37841
G1 X148.778 Y120.474 E.01688
G1 X117.832 Y89.527 E1.37841
G1 X117.296 Y89.527 E.01688
G1 X148.243 Y120.474 E1.37844
G1 X147.707 Y120.474 E.01688
G1 X116.76 Y89.527 E1.37844
G1 X116.225 Y89.527 E.01685
G1 X147.171 Y120.474 E1.37841
G1 X146.636 Y120.474 E.01685
M73 P14 R17
M73 Q14 S17
G1 X115.689 Y89.527 E1.37844
G1 X115.153 Y89.527 E.01688
G1 X146.1 Y120.474 E1.37844
G1 X145.564 Y120.474 E.01688
G1 X114.618 Y89.527 E1.37841
G1 X114.082 Y89.527 E.01688
G1 X145.029 Y120.474 E1.37844
G1 X144.493 Y120.474 E.01688
G1 X113.546 Y89.527 E1.37844
G1 X113.011 Y89.527 E.01685
M73 P15 R17
M73 Q15 S17
G1 X143.957 Y120.474 E1.37841
G1 X143.422 Y120.474 E.01685
G1 X112.475 Y89.527 E1.37844
G1 X111.939 Y89.527 E.01688
G1 X142.886 Y120.474 E1.37844
G1 X142.35 Y120.474 E.01688
G1 X111.404 Y89.527 E1.37841
G1 X110.868 Y89.527 E.01688
G1 X141.814 Y120.474 E1.37841
G1 X141.279 Y120.474 E.01685
G1 X110.332 Y89.527 E1.37844
G1 X109.796 Y89.527 E.01688
M73 P16 R17
M73 Q16 S17
G1 X140.743 Y120.474 E1.37844
G1 X140.207 Y120.474 E.01688
G1 X109.261 Y89.527 E1.37841
G1 X108.725 Y89.527 E.01688
G1 X139.672 Y120.474 E1.37844
G1 X139.136 Y120.474 E.01688
M73 P16 R16
G1 X108.189 Y89.527 E1.37844
G1 X107.654 Y89.527 E.01685
M73 Q16 S16
G1 X138.6 Y120.474 E1.37841
G1 X138.065 Y120.474 E.01685
M73 P17 R16
M73 Q17 S16
G1 X107.118 Y89.527 E1.37844
G1 X106.582 Y89.527 E.01688
G1 X137.529 Y120.474 E1.37844
G1 X136.993 Y120.474 E.01688
G1 X106.047 Y89.527 E1.37841
G1 X105.511 Y89.527 E.01688
G1 X136.458 Y120.474 E1.37844
G1 X135.922 Y120.474 E.01688
G1 X104.975 Y89.527 E1.37844
G1 X104.44 Y89.527 E.01685
G1 X135.386 Y120.474 E1.37841
G1 X134.851 Y120.474 E.01685
M73 P18 R16
M73 Q18 S16
G1 X103.904 Y89.527 E1.37844
G1 X103.368 Y89.527 E.01688
G1 X134.315 Y120.474 E1.37844
G1 X133.779 Y120.474 E.01688
G1 X102.832 Y89.527 E1.37844
G1 X102.297 Y89.527 E.01685
G1 X133.244 Y120.474 E1.37844
G1 X132.708 Y120.474 E.01688
G1 X101.761 Y89.527 E1.37844
G1 X101.225 Y89.527 E.01688
M73 P19 R16
M73 Q19 S16
G1 X132.172 Y120.474 E1.37844
G1 X131.637 Y120.474 E.01685
G1 X100.69 Y89.527 E1.37844
G1 X100.154 Y89.527 E.01688
G1 X131.101 Y120.474 E1.37844
G1 X130.565 Y120.474 E.01688
G1 X99.618 Y89.527 E1.37844
G1 X99.083 Y89.527 E.01685
G1 X130.03 Y120.474 E1.37844
G1 X129.494 Y120.474 E.01688
G1 X98.547 Y89.527 E1.37844
G1 X98.011 Y89.527 E.01688
M73 P20 R16
M73 Q20 S16
G1 X128.958 Y120.474 E1.37844
G1 X128.423 Y120.474 E.01685
G1 X97.476 Y89.527 E1.37844
G1 X96.94 Y89.527 E.01688
G1 X127.887 Y120.474 E1.37844
G1 X127.351 Y120.474 E.01688
G1 X96.404 Y89.527 E1.37844
G1 X95.869 Y89.527 E.01685
G1 X126.815 Y120.474 E1.37841
G1 X126.28 Y120.474 E.01685
M73 P21 R16
M73 Q21 S16
G1 X95.333 Y89.527 E1.37844
G1 X94.797 Y89.527 E.01688
G1 X125.744 Y120.474 E1.37844
G1 X125.208 Y120.474 E.01688
G1 X94.261 Y89.527 E1.37844
G1 X93.726 Y89.527 E.01685
M73 P21 R15
G1 X124.673 Y120.474 E1.37844
G1 X124.137 Y120.474 E.01688
M73 Q21 S15
G1 X93.19 Y89.527 E1.37844
G1 X92.654 Y89.527 E.01688
G1 X123.601 Y120.474 E1.37844
G1 X123.066 Y120.474 E.01685
M73 P22 R15
M73 Q22 S15
G1 X92.119 Y89.526 E1.37846
G1 X91.583 Y89.526 E.01688
G1 X122.53 Y120.474 E1.37846
G1 X121.994 Y120.474 E.01688
G1 X91.047 Y89.526 E1.37846
G1 X90.512 Y89.526 E.01685
G1 X121.459 Y120.474 E1.37846
G1 X120.923 Y120.474 E.01688
G1 X89.98 Y89.531 E1.37826
G1 X89.748 Y89.539 E.00731
M73 P23 R15
M73 Q23 S15
G1 X89.499 Y89.585 E.00798
G1 X120.387 Y120.474 E1.37583
G1 X119.852 Y120.474 E.01685
G1 X89.069 Y89.691 E1.37113
G1 X88.683 Y89.841 E.01304
G1 X119.316 Y120.474 E1.36445
G1 X118.78 Y120.474 E.01688
G1 X88.35 Y90.044 E1.35541
G1 X88.207 Y90.133 E.0053
G1 X88.049 Y90.277 E.00673
G1 X118.245 Y120.474 E1.34501
G1 X117.709 Y120.474 E.01688
G1 X87.775 Y90.54 E1.33332
G1 X87.544 Y90.845 E.01205
M73 P24 R15
M73 Q24 S15
G1 X117.173 Y120.474 E1.31973
G1 X116.638 Y120.474 E.01685
G1 X87.352 Y91.188 E1.30445
G1 X87.226 Y91.441 E.0089
G1 X87.191 Y91.563 E.004
G1 X116.102 Y120.474 E1.28775
G1 X115.566 Y120.474 E.01688
G1 X87.08 Y91.988 E1.26882
G1 X87.033 Y92.476 E.01544
G1 X115.031 Y120.474 E1.24708
G1 X114.495 Y120.474 E.01688
M73 Q25 S15
G1 X87.026 Y93.005 E1.22352
G1 X87.026 Y93.541 E.01688
M73 P25 R15
G1 X113.959 Y120.474 E1.19965
G1 X113.424 Y120.474 E.01685
G1 X87.026 Y94.076 E1.17582
G1 X87.026 Y94.612 E.01688
G1 X112.888 Y120.474 E1.15194
G1 X112.352 Y120.474 E.01688
G1 X87.026 Y95.148 E1.12807
G1 X87.026 Y95.684 E.01688
G1 X111.816 Y120.474 E1.10419
G1 X111.281 Y120.474 E.01685
G1 X87.026 Y96.219 E1.08036
G1 X87.026 Y96.755 E.01688
M73 P26 R15
M73 Q26 S15
G1 X110.745 Y120.474 E1.05649
G1 X110.209 Y120.474 E.01688
G1 X87.026 Y97.291 E1.03261
G1 X87.026 Y97.826 E.01685
G1 X109.674 Y120.474 E1.00878
G1 X109.138 Y120.474 E.01688
M73 P26 R14
G1 X87.026 Y98.362 E.98491
G1 X87.026 Y98.898 E.01688
M73 Q26 S14
G1 X108.602 Y120.474 E.96104
G1 X108.067 Y120.474 E.01685
G1 X87.026 Y99.433 E.93721
G1 X87.026 Y99.969 E.01688
G1 X107.531 Y120.474 E.91333
G1 X106.995 Y120.474 E.01688
G1 X87.026 Y100.505 E.88946
G1 X87.026 Y101.04 E.01685
M73 P27 R14
M73 Q27 S14
G1 X106.46 Y120.474 E.86563
G1 X105.924 Y120.474 E.01688
G1 X87.026 Y101.576 E.84175
