; generated by PrusaSlicer 2.7.4 on 2024-05-15 at 18:23:34 UTC

; 

; external perimeters extrusion width = 0.45mm
; perimeters extrusion width = 0.45mm
; infill extrusion width = 0.45mm
; solid infill extrusion width = 0.45mm
; top infill extrusion width = 0.40mm
; first layer extrusion width = 0.42mm

M73 P0 R31
M73 Q0 S31
M201 X1000 Y1000 Z200 E5000 ; sets maximum accelerations, mm/sec^2
M203 X200 Y200 Z12 E120 ; sets maximum feedrates, mm / sec
M204 S1250 T1250 ; sets acceleration (S) and retract acceleration (R), mm/sec^2
M205 X8.00 Y8.00 Z0.40 E4.50 ; sets the jerk limits, mm/sec
M205 S0 T0 ; sets the minimum extruding and travel feed rate, mm/sec

; printing object overhang_test.stl id:0 copy 0
; stop printing object overhang_test.stl id:0 copy 0

;TYPE:Custom
M862.3 P "MK3S" ; printer model check
M862.1 P0.4 ; nozzle diameter check
G90 ; use absolute coordinates
M83 ; extruder relative mode
M104 S215 ; set extruder temp
M140 S60 ; set bed temp
M190 S60 ; wait for bed temp
M109 S215 ; wait for extruder temp
G28 W ; home all without mesh bed level
G80 X103.486 Y92.8573 W43.0283 H33.7854 ; mesh bed levelling

G1 Z0.2 F720
G1 Y-3 F1000 ; go outside print area
G92 E0
G1 X60 E9 F1000 ; intro line
G1 X100 E12.5 F1000 ; intro line

G92 E0
M221 S95

; Don't change E values below. Excessive value can damage the printer.
M907 E430 ; set extruder motor current
G21 ; set units to millimeters
G90 ; use absolute coordinates
M83 ; use relative distances for extrusion

M900 K0.05 ; Filament gcode LA 1.5
M900 K30 ; Filament gcode LA 1.0




M107
;LAYER_CHANGE
;Z:0.2
;HEIGHT:0.2
G1 E-.8 F2100
M73 P0 R30
G1 Z.6 F720
G1 X104.596 Y110.345 F10800
G1 Z.2 F720
G1 E.8 F2100
M204 S800
;TYPE:Skirt/Brim
;WIDTH:0.42
G1 F1200
G1 X111.025 Y104.617 E.26998
G1 X118.157 Y100.242 E.26234
G1 X124.586 Y97.355 E.22097
G1 X131.235 Y95.022 E.22094
G1 X137.821 Y93.15 E.21468
M73 Q0 S30
G1 X138.571 Y93.046 E.02374
G1 X143.571 Y93.046 E.15677
G1 X144.989 Y93.439 E.04614
G1 X146.002 Y94.505 E.04611
G1 X146.326 Y95.8 E.04186
G1 X146.326 Y105.191 E.29445
G1 X145.933 Y106.608 E.04611
G1 X145.146 Y107.45 E.03614
G1 X118.586 Y125.96 E1.01505
G1 X117.011 Y126.454 E.05176
G1 X106.429 Y126.454 E.33179
G1 X105.011 Y126.061 E.04614
G1 X103.998 Y124.995 E.04611
G1 X103.674 Y123.7 E.04186
G1 X103.674 Y112.401 E.35427
G1 X104.067 Y110.984 E.04611
G1 X104.558 Y110.391 E.02414
M204 S1000
G1 X104.847 Y110.626 F10800
M204 S800
G1 F1200
G1 X111.276 Y104.898 E.26998
G1 X118.312 Y100.586 E.25874
G1 X124.74 Y97.699 E.22094
G1 X131.359 Y95.378 E.21992
G1 X137.923 Y93.513 E.21396
G1 X138.571 Y93.423 E.02051
G1 X143.571 Y93.423 E.15677
G1 X144.878 Y93.815 E.04278
G1 X145.755 Y94.86 E.04277
G1 X145.949 Y95.8 E.03009
G1 X145.949 Y105.191 E.29445
G1 X145.557 Y106.498 E.04278
G1 X144.931 Y107.141 E.02814
G1 X118.37 Y125.65 E1.01506
G1 X117.011 Y126.077 E.04466
G1 X106.429 Y126.077 E.33179
G1 X105.122 Y125.685 E.04278
M73 Q1 S30
G1 X104.245 Y124.64 E.04277
M73 P1 R30
G1 X104.051 Y123.7 E.03009
G1 X104.051 Y112.401 E.35427
G1 X104.823 Y110.681 E.05911
M204 S1000
;WIPE_START
G1 F8640
G1 X104.847 Y110.626 E-.01386
G1 X107.389 Y108.361 E-.78614
;WIPE_END
G1 Z.6 F720
; printing object overhang_test.stl id:0 copy 0
G1 X113.121 Y114.583 F10800
G1 Z.2 F720
G1 E.8 F2100
M204 S800
;TYPE:Perimeter
;WIDTH:0.419999
G1 F1200
G1 X113.174 Y114.579 E.00167
G1 X113.419 Y114.473 E.00837
G1 X113.579 Y114.285 E.00774
G1 X113.644 Y114.021 E.00852
G1 X113.644 Y108.318 E.17881
G1 X117.066 Y108.321 E.10729
G1 X117.296 Y108.774 E.01593
G1 X117.418 Y108.844 E.00441
G1 X117.636 Y108.887 E.00697
G1 X118.688 Y108.887 E.03298
G1 X119.673 Y108.862 E.03089
G1 X119.869 Y108.757 E.00697
G1 X120.012 Y108.577 E.00721
G1 X120.073 Y108.321 E.00825
G1 X120.073 Y104.234 E.12814
G1 X123.805 Y104.234 E.11701
G1 X123.9 Y104.363 E.00502
G1 X124.064 Y104.387 E.0052
G1 X126.015 Y104.381 E.06117
G1 X126.273 Y104.275 E.00875
G1 X126.457 Y104.04 E.00936
G1 X126.501 Y103.821 E.007
G1 X126.501 Y101.226 E.08136
G1 X130.224 Y101.226 E.11673
G1 X130.324 Y101.361 E.00527
G1 X130.487 Y101.387 E.00518
G1 X132.471 Y101.377 E.06221
G1 X132.68 Y101.291 E.00709
G1 X132.859 Y101.096 E.0083
G1 X132.93 Y100.821 E.00891
G1 X132.93 Y98.885 E.0607
G1 X136.613 Y98.885 E.11548
G1 X136.733 Y99.055 E.00652
G1 X136.921 Y99.087 E.00598
G1 X138.889 Y99.079 E.06171
G1 X139.117 Y98.985 E.00773
G1 X139.315 Y98.74 E.00988
G1 X139.359 Y98.521 E.007
G1 X139.359 Y96.987 E.0481
G1 X142.784 Y96.987 E.10739
G1 X142.784 Y98.704 E.05384
G1 X142.784 Y104.645 E.18628
G1 X141.157 Y105.26 E.05454
G1 X139.047 Y106.145 E.07174
G1 X136.971 Y107.107 E.07174
G1 X134.931 Y108.145 E.07177
G1 X132.95 Y109.247 E.07108
G1 X131.303 Y110.239 E.06028
G1 X130.012 Y111.062 E.048
G1 X128.123 Y112.353 E.07174
G1 X126.285 Y113.711 E.07165
G1 X125.087 Y114.657 E.04786
G1 X123.62 Y115.877 E.05982
G1 X121.917 Y117.395 E.07153
G1 X120.808 Y118.451 E.04801
G1 X119.458 Y119.8 E.05984
G1 X117.898 Y121.474 E.07174
G1 X116.651 Y122.913 E.0597
G1 X107.216 Y122.913 E.29583
G1 X107.216 Y114.287 E.27046
G1 X110.811 Y114.287 E.11272
G1 X110.968 Y114.534 E.00918
G1 X111.207 Y114.587 E.00768
G1 X113.061 Y114.587 E.05813
M204 S1000
G1 X113.061 Y114.587 F10800
G1 X113.079 Y114.21
M204 S800
;TYPE:External perimeter
G1 F1200
G1 X113.198 Y114.168 E.00396
G1 X113.267 Y114.021 E.00509
G1 X113.267 Y107.941 E.19063
G1 X117.447 Y107.941 E.13106
G1 X117.447 Y108.321 E.01191
G1 X117.523 Y108.472 E.0053
G1 X117.636 Y108.51 E.00374
G1 X119.507 Y108.51 E.05866
G1 X119.628 Y108.466 E.00404
G1 X119.696 Y108.324 E.00494
G1 X119.696 Y103.857 E.14006
G1 X123.902 Y103.857 E.13188
G1 X124.009 Y104.002 E.00565
G1 X124.062 Y104.01 E.00168
G1 X125.936 Y104.01 E.05876
G1 X126.063 Y103.961 E.00427
G1 X126.124 Y103.821 E.00479
G1 X126.124 Y100.849 E.09318
G1 X130.324 Y100.849 E.13169
G1 X130.436 Y101.001 E.00592
G1 X130.491 Y101.01 E.00175
G1 X132.364 Y101.01 E.05873
G1 X132.496 Y100.957 E.00446
G1 X132.553 Y100.821 E.00462
G1 X132.553 Y98.508 E.07252
G1 X136.72 Y98.508 E.13065
G1 X136.859 Y98.699 E.00741
G1 X136.921 Y98.71 E.00197
G1 X138.793 Y98.71 E.0587
G1 X138.938 Y98.642 E.00502
G1 X138.981 Y98.521 E.00403
G1 X138.981 Y96.61 E.05992
G1 X143.161 Y96.61 E.13106
G1 X143.161 Y98.704 E.06566
G1 X143.161 Y104.906 E.19446
G1 X141.302 Y105.607 E.06229
G1 X139.205 Y106.487 E.0713
G1 X137.148 Y107.44 E.07108
G1 X135.115 Y108.475 E.07153
G1 X133.133 Y109.577 E.0711
G1 X131.506 Y110.557 E.05955
G1 X130.225 Y111.373 E.04762
G1 X128.347 Y112.656 E.07131
G1 X126.519 Y114.007 E.07127
G1 X125.328 Y114.948 E.04759
G1 X123.871 Y116.159 E.0594
G1 X122.175 Y117.671 E.07124
G1 X121.075 Y118.718 E.04762
G1 X119.734 Y120.058 E.05944
G1 X118.185 Y121.719 E.07121
G1 X116.823 Y123.29 E.06519
G1 X106.839 Y123.29 E.31304
G1 X106.839 Y113.91 E.2941
G1 X111.019 Y113.91 E.13106
G1 X111.019 Y114.021 E.00348
G1 X111.127 Y114.192 E.00634
G1 X111.207 Y114.21 E.00257
G1 X113.019 Y114.21 E.05681
M204 S1000
;WIPE_START
G1 F8640
G1 X113.079 Y114.21 E-.01385
G1 X113.198 Y114.168 E-.02914
G1 X113.267 Y114.021 E-.0375
G1 X113.267 Y110.905 E-.71951
;WIPE_END
G1 Z.6 F720
G1 X142.615 Y97.92 F10800
G1 Z.2 F720
G1 E.8 F2100
M204 S800
;TYPE:Solid infill
;WIDTH:0.420609
G1 F1200
G1 X142.021 Y97.326 E.02638
G1 X141.487 Y97.326 E.01677
G1 X142.445 Y98.285 E.04257
G1 X142.445 Y98.819 E.01677
G1 X140.953 Y97.326 E.06629
G1 X140.418 Y97.326 E.0168
G1 X142.445 Y99.353 E.09003
G1 X142.445 Y99.887 E.01677
G1 X139.884 Y97.326 E.11374
G1 X139.698 Y97.326 E.00584
G1 X139.698 Y97.674 E.01093
G1 X142.445 Y100.421 E.122
G1 X142.445 Y100.955 E.01677
G1 X139.698 Y98.208 E.122
G1 X139.698 Y98.528 E.01005
G1 X139.673 Y98.718 E.00602
G1 X142.445 Y101.49 E.12311
G1 X142.445 Y102.024 E.01677
G1 X139.502 Y99.081 E.13071
G1 X139.312 Y99.264 E.00828
G1 X139.207 Y99.32 E.00374
G1 X142.445 Y102.558 E.14381
G1 X142.445 Y103.092 E.01677
G1 X138.769 Y99.416 E.16326
G1 X138.236 Y99.417 E.01674
G1 X142.445 Y103.626 E.18694
G1 X142.445 Y104.16 E.01677
G1 X137.703 Y99.418 E.21061
G1 X137.17 Y99.419 E.01674
G1 X142.239 Y104.488 E.22513
G1 X141.851 Y104.635 E.01303
G1 X136.441 Y99.225 E.24028
G1 X135.907 Y99.225 E.01677
G1 X141.463 Y104.781 E.24676
G1 X141.076 Y104.928 E.013
G1 X135.373 Y99.225 E.25329
G1 X134.839 Y99.225 E.01677
G1 X140.698 Y105.084 E.26022
G1 X140.322 Y105.242 E.01281
M73 P2 R30
M73 Q2 S30
G1 X134.305 Y99.225 E.26724
G1 X133.771 Y99.225 E.01677
G1 X139.946 Y105.4 E.27425
G1 X139.569 Y105.558 E.01284
G1 X133.269 Y99.258 E.2798
G1 X133.269 Y99.792 E.01677
G1 X139.193 Y105.716 E.2631
G1 X138.82 Y105.876 E.01275
G1 X133.269 Y100.326 E.24652
G1 X133.266 Y100.856 E.01664
G1 X138.455 Y106.045 E.23046
G1 X138.09 Y106.214 E.01263
G1 X133.148 Y101.273 E.21947
G1 X132.997 Y101.471 E.00782
G1 X132.889 Y101.548 E.00417
G1 X137.725 Y106.383 E.21476
G1 X137.36 Y106.553 E.01265
G1 X132.517 Y101.71 E.21509
G1 X131.999 Y101.726 E.01628
G1 X136.994 Y106.722 E.22187
G1 X136.636 Y106.897 E.01251
G1 X131.465 Y101.726 E.22966
G1 X130.931 Y101.726 E.01677
G1 X136.282 Y107.077 E.23766
G1 X135.928 Y107.257 E.01247
G1 X130.382 Y101.712 E.24629
G1 X130.182 Y101.68 E.00636
G1 X130.098 Y101.565 E.00447
G1 X129.701 Y101.565 E.01247
G1 X135.574 Y107.437 E.26082
G1 X135.22 Y107.618 E.01249
G1 X129.167 Y101.565 E.26883
G1 X128.633 Y101.565 E.01677
G1 X134.866 Y107.798 E.27683
G1 X134.52 Y107.986 E.01237
G1 X128.099 Y101.565 E.28518
G1 X127.565 Y101.565 E.01677
G1 X134.177 Y108.177 E.29366
G1 X133.833 Y108.368 E.01236
G1 X127.031 Y101.565 E.30212
G1 X126.84 Y101.565 E.006
G1 X126.84 Y101.909 E.0108
G1 X133.49 Y108.559 E.29535
G1 X133.147 Y108.749 E.01231
G1 X126.839 Y102.442 E.28014
G1 X126.838 Y102.975 E.01674
G1 X132.803 Y108.94 E.26493
G1 X132.469 Y109.14 E.01223
G1 X126.837 Y103.508 E.25014
G1 X126.837 Y103.918 E.01288
G1 X126.812 Y104.017 E.00321
G1 X132.136 Y109.341 E.23646
G1 X131.803 Y109.542 E.01222
G1 X126.64 Y104.38 E.22928
G1 X126.609 Y104.428 E.00179
G1 X126.422 Y104.586 E.00769
G1 X126.347 Y104.62 E.00259
G1 X131.469 Y109.743 E.22751
G1 X131.136 Y109.944 E.01222
G1 X125.919 Y104.726 E.23173
G1 X125.385 Y104.726 E.01677
G1 X130.81 Y110.151 E.24094
G1 X130.484 Y110.359 E.01214
G1 X124.851 Y104.726 E.25018
G1 X124.316 Y104.726 E.0168
G1 X130.157 Y110.567 E.25942
G1 X129.831 Y110.775 E.01214
G1 X123.63 Y104.574 E.27541
G1 X123.096 Y104.574 E.01677
G1 X129.514 Y110.992 E.28504
G1 X129.196 Y111.209 E.01209
G1 X122.561 Y104.574 E.29468
G1 X122.027 Y104.574 E.01677
G1 X128.879 Y111.425 E.3043
G1 X128.562 Y111.642 E.01206
G1 X121.493 Y104.574 E.31394
G1 X120.959 Y104.574 E.01677
G1 X128.244 Y111.859 E.32355
G1 X127.928 Y112.076 E.01204
G1 X120.412 Y104.574 E.3335
G1 X120.411 Y105.094 E.01633
G1 X127.62 Y112.303 E.32018
G1 X127.313 Y112.53 E.01199
G1 X120.41 Y105.627 E.30659
G1 X120.409 Y106.16 E.01674
G1 X127.006 Y112.757 E.29299
G1 X126.699 Y112.984 E.01199
M73 Q3 S30
G1 X120.408 Y106.693 E.2794
G1 X120.407 Y107.226 E.01674
M73 P3 R30
G1 X126.391 Y113.211 E.26579
G1 X126.084 Y113.438 E.01199
G1 X120.406 Y107.759 E.2522
G1 X120.405 Y108.293 E.01677
G1 X125.786 Y113.674 E.23899
G1 X125.487 Y113.909 E.01194
G1 X120.311 Y108.733 E.22988
G1 X120.238 Y108.857 E.00452
G1 X120.07 Y109.026 E.00748
G1 X125.189 Y114.145 E.22735
G1 X124.89 Y114.381 E.01196
G1 X119.708 Y109.198 E.23017
G1 X119.518 Y109.226 E.00603
G1 X119.202 Y109.226 E.00992
G1 X124.598 Y114.623 E.23968
G1 X124.307 Y114.865 E.01189
G1 X118.668 Y109.226 E.25045
G1 X118.134 Y109.226 E.01677
G1 X124.015 Y115.108 E.26122
G1 X123.723 Y115.35 E.01191
G1 X117.597 Y109.224 E.27208
G1 X117.471 Y109.212 E.00397
G1 X117.286 Y109.157 E.00606
G1 X117.069 Y109.033 E.00785
G1 X116.881 Y108.657 E.0132
G1 X116.496 Y108.657 E.01209
G1 X123.432 Y115.592 E.30803
G1 X123.148 Y115.843 E.0119
G1 X115.962 Y108.657 E.31915
G1 X115.428 Y108.657 E.01677
G1 X122.866 Y116.095 E.33035
G1 X122.583 Y116.347 E.0119
G1 X114.894 Y108.657 E.34152
G1 X114.36 Y108.657 E.01677
G1 X122.301 Y116.599 E.35271
G1 X122.019 Y116.85 E.01186
G1 X113.984 Y108.815 E.35686
G1 X113.984 Y109.349 E.01677
G1 X121.736 Y117.102 E.34431
G1 X121.461 Y117.361 E.01186
M73 P3 R29
G1 X113.984 Y109.883 E.3321
G1 X113.984 Y110.417 E.01677
G1 X121.188 Y117.621 E.31995
G1 X120.914 Y117.882 E.01188
G1 X113.984 Y110.952 E.30778
G1 X113.984 Y111.486 E.01677
G1 X120.64 Y118.142 E.29562
G1 X120.371 Y118.408 E.01188
G1 X113.984 Y112.02 E.28369
G1 X113.984 Y112.554 E.01677
G1 X120.104 Y118.675 E.27183
G1 X119.837 Y118.942 E.01186
G1 X113.984 Y113.088 E.25997
G1 X113.984 Y113.622 E.01677
G1 X119.57 Y119.209 E.24812
G1 X119.303 Y119.476 E.01186
M73 Q3 S29
G1 X113.969 Y114.142 E.2369
G1 X113.954 Y114.254 E.00355
G1 X113.881 Y114.443 E.00636
G1 X113.823 Y114.53 E.00328
G1 X119.042 Y119.749 E.23179
G1 X118.784 Y120.026 E.01189
G1 X113.546 Y114.787 E.23266
G1 X113.378 Y114.878 E.006
G1 X113.143 Y114.918 E.00749
G1 X118.527 Y120.302 E.23912
G1 X118.269 Y120.578 E.01187
G1 X112.617 Y114.926 E.25102
G1 X112.083 Y114.926 E.01677
G1 X118.011 Y120.855 E.2633
G1 X117.753 Y121.131 E.01187
G1 X111.549 Y114.926 E.27556
G1 X111.2 Y114.926 E.01096
G1 X110.983 Y114.895 E.00688
G1 X117.502 Y121.413 E.28951
G1 X117.253 Y121.699 E.01191
G1 X110.181 Y114.626 E.31411
G1 X109.646 Y114.626 E.0168
G1 X117.005 Y121.985 E.32684
G1 X116.757 Y122.272 E.01191
G1 X109.112 Y114.626 E.33956
G1 X108.578 Y114.626 E.01677
G1 X116.509 Y122.558 E.35226
G1 X116.496 Y122.574 E.00065
G1 X115.991 Y122.574 E.01586
G1 X108.044 Y114.626 E.35297
G1 X107.555 Y114.626 E.01536
M73 P4 R29
M73 Q4 S29
G1 X107.555 Y114.672 E.00144
G1 X115.457 Y122.574 E.35095
G1 X114.923 Y122.574 E.01677
G1 X107.555 Y115.206 E.32724
G1 X107.555 Y115.74 E.01677
G1 X114.389 Y122.574 E.30352
G1 X113.855 Y122.574 E.01677
G1 X107.555 Y116.274 E.2798
G1 X107.555 Y116.808 E.01677
G1 X113.32 Y122.574 E.25607
G1 X112.786 Y122.574 E.01677
G1 X107.555 Y117.342 E.23235
G1 X107.555 Y117.876 E.01677
G1 X112.252 Y122.574 E.20863
G1 X111.718 Y122.574 E.01677
G1 X107.555 Y118.411 E.18489
G1 X107.555 Y118.945 E.01677
G1 X111.184 Y122.574 E.16118
G1 X110.65 Y122.574 E.01677
G1 X107.555 Y119.479 E.13746
G1 X107.555 Y120.013 E.01677
G1 X110.116 Y122.574 E.11374
G1 X109.582 Y122.574 E.01677
G1 X107.555 Y120.547 E.09003
G1 X107.555 Y121.081 E.01677
G1 X109.047 Y122.574 E.06629
G1 X108.513 Y122.574 E.01677
G1 X107.555 Y121.615 E.04257
G1 X107.555 Y122.149 E.01677
G1 X108.149 Y122.743 E.02638
M204 S1000
M106 S84.15
;LAYER_CHANGE
;Z:0.4
;HEIGHT:0.2
;BEFORE_LAYER_CHANGE
G92 E0.0
;0.4


;WIPE_START
G1 F8640
G1 X107.555 Y122.149 E-.19397
G1 X107.555 Y121.615 E-.1233
G1 X108.513 Y122.574 E-.31299
G1 X109.047 Y122.574 E-.1233
G1 X108.905 Y122.432 E-.04644
;WIPE_END
G1 Z.4 F720
;AFTER_LAYER_CHANGE
;0.4
; stop printing object overhang_test.stl id:0 copy 0
G1 Z.8
G1 X108.905 Y126.454 F10800
G1 Z.4 F720
G1 E.8 F2100
;TYPE:Skirt/Brim
;WIDTH:0.42
G1 F3000
G1 X106.429 Y126.454 E.07763
G1 X105.011 Y126.061 E.04614
G1 X103.998 Y124.995 E.04611
G1 X103.674 Y123.7 E.04186
G1 X103.674 Y112.401 E.35427
G1 X104.067 Y110.984 E.04611
G1 X104.596 Y110.345 E.02601
G1 X111.025 Y104.617 E.26998
G1 X118.157 Y100.242 E.26234
G1 X124.586 Y97.355 E.22097
G1 X131.235 Y95.022 E.22094
G1 X137.821 Y93.15 E.21468
G1 X138.571 Y93.046 E.02374
G1 X143.571 Y93.046 E.15677
G1 X144.989 Y93.439 E.04614
G1 X146.002 Y94.505 E.04611
G1 X146.326 Y95.8 E.04186
G1 X146.326 Y105.191 E.29445
G1 X145.933 Y106.608 E.04611
G1 X145.146 Y107.45 E.03614
G1 X118.586 Y125.96 E1.01505
G1 X117.011 Y126.454 E.05176
G1 X108.965 Y126.454 E.25228
G1 X108.965 Y126.454 F10800
G1 X108.965 Y126.077
G1 F3000
G1 X106.429 Y126.077 E.07951
G1 X105.122 Y125.685 E.04278
G1 X104.245 Y124.64 E.04277
G1 X104.051 Y123.7 E.03009
G1 X104.051 Y112.401 E.35427
G1 X104.847 Y110.626 E.06099
G1 X111.276 Y104.898 E.26998
G1 X118.312 Y100.586 E.25874
G1 X124.74 Y97.699 E.22094
G1 X131.359 Y95.378 E.21992
G1 X137.923 Y93.513 E.21396
G1 X138.571 Y93.423 E.02051
G1 X143.571 Y93.423 E.15677
G1 X144.878 Y93.815 E.04278
G1 X145.755 Y94.86 E.04277
G1 X145.949 Y95.8 E.03009
G1 X145.949 Y105.191 E.29445
G1 X145.557 Y106.498 E.04278
G1 X144.931 Y107.141 E.02814
G1 X118.37 Y125.65 E1.01506
