; generated by PrusaSlicer 2.7.4 on 2024-05-15 at 10:39:21 UTC

; 

; external perimeters extrusion width = 0.45mm
; perimeters extrusion width = 0.45mm
; infill extrusion width = 0.45mm
; solid infill extrusion width = 0.45mm
; top infill extrusion width = 0.40mm
; first layer extrusion width = 0.42mm

M73 P0 R71
M73 Q0 S71
M201 X1000 Y1000 Z200 E5000 ; sets maximum accelerations, mm/sec^2
M203 X200 Y200 Z12 E120 ; sets maximum feedrates, mm / sec
M204 S1250 T1250 ; sets acceleration (S) and retract acceleration (R), mm/sec^2
M205 X8.00 Y8.00 Z0.40 E4.50 ; sets the jerk limits, mm/sec
M205 S0 T0 ; sets the minimum extruding and travel feed rate, mm/sec

; printing object pen_holder.stl id:0 copy 0
; stop printing object pen_holder.stl id:0 copy 0

;TYPE:Custom
M862.3 P "MK3S" ; printer model check
M862.1 P0.4 ; nozzle diameter check
G90 ; use absolute coordinates
M83 ; extruder relative mode
M104 S215 ; set extruder temp
M140 S60 ; set bed temp
M190 S60 ; wait for bed temp
M109 S215 ; wait for extruder temp
G28 W ; home all without mesh bed level
G80 X92.4403 Y72.4403 W65.1195 H65.1195 ; mesh bed levelling

G1 Z0.2 F720
G1 Y-3 F1000 ; go outside print area
G92 E0
G1 X60 E9 F1000 ; intro line
G1 X100 E12.5 F1000 ; intro line

G92 E0
M221 S95

; Don't change E values below. Excessive value can damage the printer.
M907 E430 ; set extruder motor current
G21 ; set units to millimeters
G90 ; use absolute coordinates
M83 ; use relative distances for extrusion

M900 K0.05 ; Filament gcode LA 1.5
M900 K30 ; Filament gcode LA 1.0




M107
;LAYER_CHANGE
;Z:0.2
;HEIGHT:0.2
G1 E-.8 F2100
G1 Z.6 F720
G1 X97.819 Y87.555 F10800
G1 Z.2 F720
G1 E.8 F2100
M204 S800
;TYPE:Skirt/Brim
;WIDTH:0.42
G1 F1200
G1 X107.555 Y77.819 E.43171
G1 X108.678 Y77.044 E.04278
G1 X110.183 Y76.301 E.05263
G1 X123.483 Y72.738 E.43172
G1 X125.246 Y72.63 E.05538
G1 X126.517 Y72.738 E.03999
G1 X139.817 Y76.301 E.43172
G1 X141.05 Y76.887 E.0428
G1 X142.445 Y77.819 E.0526
G1 X152.181 Y87.555 E.43171
G1 X152.956 Y88.678 E.04278
G1 X153.699 Y90.183 E.05263
G1 X157.262 Y103.483 E.43172
G1 X157.371 Y105.157 E.0526
G1 X157.262 Y106.517 E.04278
G1 X153.699 Y119.817 E.43172
G1 X153.156 Y120.972 E.04002
G1 X152.181 Y122.445 E.05539
G1 X142.445 Y132.181 E.43171
G1 X141.322 Y132.956 E.04278
G1 X139.817 Y133.699 E.05263
G1 X126.517 Y137.262 E.43172
G1 X124.843 Y137.371 E.0526
G1 X123.483 Y137.262 E.04278
G1 X110.183 Y133.699 E.43172
G1 X109.028 Y133.156 E.04002
G1 X107.555 Y132.181 E.05539
G1 X97.819 Y122.445 E.43171
G1 X96.887 Y121.05 E.0526
G1 X96.301 Y119.817 E.0428
G1 X92.738 Y106.517 E.43172
G1 X92.629 Y104.843 E.0526
G1 X92.738 Y103.483 E.04278
G1 X96.301 Y90.183 E.43172
G1 X96.844 Y89.028 E.04002
G1 X97.785 Y87.605 E.05349
M204 S1000
;WIPE_START
G1 F8640
G1 X97.819 Y87.555 E-.01396
G1 X100.226 Y85.148 E-.78604
;WIPE_END
G1 Z.6 F720
; printing object pen_holder.stl id:0 copy 0
G1 X99.859 Y89.694 F10800
G1 Z.2 F720
G1 E.8 F2100
M204 S800
;TYPE:External perimeter
;WIDTH:0.419999
G1 F1200
G1 X105.461 Y84.135 E.24745
G1 X105.938 Y83.636 E.02164
G1 X107.979 Y81.594 E.09052
G1 X108.125 Y81.424 E.00703
G1 X110.014 Y79.535 E.08376
G1 X110.335 Y79.317 E.01217
G1 X112.69 Y78.686 E.07644
G1 X116.243 Y77.769 E.11505
G1 X124.755 Y75.454 E.27658
G1 X125.141 Y75.426 E.01213
G1 X133.754 Y77.768 E.27986
G1 X133.976 Y77.811 E.00709
G1 X139.56 Y79.29 E.18112
G1 X139.909 Y79.459 E.01216
G1 X141.633 Y81.182 E.07642
G1 X144.205 Y83.801 E.11509
G1 X150.465 Y90.015 E.27656
G1 X150.683 Y90.335 E.01214
G1 X151.314 Y92.692 E.0765
G1 X152.232 Y96.244 E.11503
G1 X154.546 Y104.755 E.27654
G1 X154.554 Y104.965 E.00659
G1 X154.574 Y105.141 E.00555
G1 X152.36 Y113.284 E.26459
G1 X151.444 Y116.759 E.11268
G1 X151.402 Y116.98 E.00705
G1 X150.71 Y119.56 E.08375
G1 X150.541 Y119.909 E.01216
G1 X146.364 Y124.062 E.18468
G1 X145.862 Y124.542 E.02178
G1 X139.985 Y130.465 E.26162
G1 X139.665 Y130.683 E.01214
G1 X137.308 Y131.314 E.0765
G1 X133.756 Y132.232 E.11503
G1 X125.245 Y134.546 E.27654
G1 X124.859 Y134.574 E.01213
G1 X116.716 Y132.36 E.26459
G1 X113.241 Y131.444 E.11268
G1 X113.02 Y131.402 E.00705
G1 X110.44 Y130.71 E.08375
G1 X110.091 Y130.541 E.01216
G1 X105.938 Y126.364 E.18468
G1 X105.458 Y125.862 E.02178
G1 X99.535 Y119.985 E.26162
G1 X99.317 Y119.665 E.01214
G1 X98.686 Y117.308 E.0765
G1 X97.768 Y113.756 E.11503
G1 X95.454 Y105.245 E.27654
G1 X95.426 Y104.859 E.01213
G1 X97.768 Y96.244 E.27992
G1 X97.811 Y96.024 E.00703
G1 X99.29 Y90.44 E.18112
G1 X99.458 Y90.091 E.01214
G1 X99.816 Y89.736 E.01581
M204 S1000
;WIPE_START
G1 F8640
G1 X99.859 Y89.694 E-.01388
G1 X102.276 Y87.296 E-.78612
;WIPE_END
G1 Z.6 F720
G1 X150.581 Y90.612 F10800
G1 Z.2 F720
G1 E.8 F2100
M204 S800
;TYPE:Solid infill
;WIDTH:0.42228
G1 F1200
G1 X139.719 Y79.75 E.48455
G1 X139.605 Y79.703 E.00389
G1 X139.506 Y79.626 E.00396
G1 X138.895 Y79.463 E.01995
G1 X150.537 Y91.105 E.51935
G1 X150.734 Y91.838 E.02394
G1 X138.162 Y79.266 E.56083
G1 X137.429 Y79.07 E.02393
G1 X150.93 Y92.571 E.60228
G1 X151.108 Y93.285 E.02321
G1 X136.716 Y78.893 E.64202
G1 X135.987 Y78.7 E.02379
G1 X151.3 Y94.013 E.68311
G1 X151.496 Y94.746 E.02393
G1 X135.254 Y78.504 E.72455
G1 X134.522 Y78.308 E.0239
G1 X151.692 Y95.478 E.76595
G1 X151.878 Y96.201 E.02355
G1 X133.799 Y78.122 E.8065
G1 X133.076 Y77.935 E.02356
G1 X152.065 Y96.924 E.8471
G1 X152.265 Y97.661 E.02409
G1 X132.339 Y77.735 E.8889
G1 X131.602 Y77.535 E.02409
G1 X152.465 Y98.398 E.93069
G1 X152.666 Y99.135 E.0241
G1 X130.865 Y77.334 E.97254
G1 X130.128 Y77.134 E.02409
M73 Q1 S71
G1 X152.866 Y99.872 E1.01434
G1 X153.066 Y100.608 E.02406
M73 P1 R71
G1 X129.392 Y76.934 E1.05609
G1 X128.655 Y76.733 E.0241
G1 X153.267 Y101.345 E1.09794
G1 X153.467 Y102.082 E.02409
G1 X127.918 Y76.533 E1.13974
G1 X127.181 Y76.333 E.02409
G1 X153.667 Y102.819 E1.18154
G1 X153.868 Y103.556 E.0241
G1 X126.444 Y76.132 E1.22338
G1 X125.708 Y75.932 E.02406
G1 X154.068 Y104.292 E1.26513
G1 X154.227 Y104.877 E.01912
M73 P1 R70
M73 Q1 S70
G1 X154.213 Y104.974 E.00309
G1 X125.026 Y75.787 E1.30203
G1 X124.877 Y75.773 E.00472
G1 X124.561 Y75.859 E.01033
G1 X154.141 Y105.439 E1.31956
G1 X154.026 Y105.86 E.01377
G1 X124.14 Y75.974 E1.33321
G1 X123.718 Y76.088 E.01379
G1 X153.912 Y106.282 E1.34695
G1 X153.797 Y106.704 E.0138
G1 X123.296 Y76.203 E1.36064
G1 X122.874 Y76.318 E.0138
G1 X153.682 Y107.126 E1.37434
G1 X153.568 Y107.548 E.01379
G1 X122.452 Y76.432 E1.38808
G1 X122.031 Y76.547 E.01377
G1 X153.453 Y107.969 E1.40173
G1 X153.338 Y108.391 E.0138
G1 X121.609 Y76.662 E1.41543
G1 X121.187 Y76.776 E.01379
G1 X153.224 Y108.813 E1.42917
G1 X153.109 Y109.235 E.0138
G1 X120.765 Y76.891 E1.44286
G1 X120.343 Y77.006 E.0138
G1 X152.994 Y109.657 E1.45656
G1 X152.88 Y110.079 E.01379
G1 X119.921 Y77.12 E1.4703
G1 X119.5 Y77.235 E.01377
G1 X152.765 Y110.5 E1.48395
G1 X152.65 Y110.922 E.0138
M73 P2 R70
M73 Q2 S70
G1 X119.078 Y77.35 E1.49764
G1 X118.656 Y77.464 E.01379
G1 X152.536 Y111.344 E1.51138
G1 X152.421 Y111.766 E.0138
G1 X118.234 Y77.579 E1.52508
G1 X117.812 Y77.694 E.0138
G1 X152.306 Y112.188 E1.53877
G1 X152.192 Y112.609 E.01376
G1 X117.391 Y77.808 E1.55247
G1 X116.969 Y77.923 E.0138
G1 X152.077 Y113.031 E1.56616
G1 X151.962 Y113.453 E.0138
G1 X116.547 Y78.038 E1.57986
G1 X116.112 Y78.139 E.01409
G1 X151.861 Y113.888 E1.59476
G1 X151.748 Y114.312 E.01384
G1 X115.688 Y78.252 E1.60863
G1 X115.265 Y78.365 E.01381
G1 X151.635 Y114.735 E1.62246
G1 X151.522 Y115.158 E.01381
G1 X114.842 Y78.478 E1.63629
G1 X114.418 Y78.592 E.01385
M73 P2 R69
M73 Q2 S69
G1 X151.408 Y115.582 E1.65012
G1 X151.295 Y116.005 E.01381
G1 X113.995 Y78.705 E1.66395
G1 X113.572 Y78.818 E.01381
G1 X151.182 Y116.428 E1.67778
G1 X151.079 Y116.862 E.01407
G1 X113.138 Y78.921 E1.69254
G1 X112.712 Y79.032 E.01389
G1 X150.968 Y117.288 E1.70659
G1 X150.855 Y117.711 E.01381
G1 X112.289 Y79.145 E1.72042
G1 X111.866 Y79.259 E.01382
M73 P3 R69
M73 Q3 S69
G1 X150.741 Y118.134 E1.73421
G1 X150.628 Y118.557 E.01381
G1 X111.443 Y79.372 E1.74804
G1 X111.02 Y79.485 E.01381
G1 X150.515 Y118.98 E1.76187
G1 X150.401 Y119.403 E.01382
G1 X110.597 Y79.599 E1.77565
G1 X110.494 Y79.626 E.00336
G1 X110.246 Y79.784 E.00928
G1 X150.216 Y119.754 E1.78305
G1 X149.948 Y120.023 E.01198
G1 X109.977 Y80.052 E1.7831
G1 X109.709 Y80.32 E.01196
G1 X149.68 Y120.291 E1.7831
G1 X149.411 Y120.559 E.01198
G1 X109.441 Y80.589 E1.78305
G1 X109.173 Y80.857 E.01196
G1 X149.143 Y120.827 E1.78305
G1 X148.875 Y121.096 E.01198
G1 X108.904 Y81.125 E1.7831
G1 X108.636 Y81.393 E.01196
G1 X148.607 Y121.364 E1.7831
G1 X148.338 Y121.632 E.01198
G1 X108.368 Y81.662 E1.78305
G1 X108.111 Y81.941 E.01197
G1 X148.059 Y121.889 E1.78207
G1 X147.79 Y122.157 E.01198
G1 X107.843 Y82.21 E1.78203
G1 X107.575 Y82.478 E.01196
G1 X147.522 Y122.425 E1.78203
G1 X147.254 Y122.693 E.01196
M73 P4 R69
M73 Q4 S69
G1 X107.307 Y82.746 E1.78203
G1 X107.038 Y83.015 E.012
M73 P4 R68
M73 Q4 S68
G1 X146.985 Y122.962 E1.78203
G1 X146.717 Y123.23 E.01196
G1 X106.77 Y83.283 E1.78203
G1 X106.502 Y83.551 E.01196
G1 X146.449 Y123.498 E1.78203
G1 X146.18 Y123.766 E.01198
G1 X106.234 Y83.82 E1.78198
G1 X105.971 Y84.093 E.01196
G1 X145.907 Y124.029 E1.78154
G1 X145.633 Y124.291 E.01196
G1 X105.709 Y84.367 E1.781
G1 X105.44 Y84.635 E.01198
G1 X145.365 Y124.56 E1.78105
G1 X145.098 Y124.83 E.01198
G1 X105.17 Y84.902 E1.78118
G1 X104.901 Y85.169 E.01196
G1 X144.831 Y125.099 E1.78127
G1 X144.564 Y125.368 E.01196
G1 X104.632 Y85.436 E1.78136
G1 X104.362 Y85.704 E.012
G1 X144.296 Y125.638 E1.78145
G1 X144.029 Y125.907 E.01196
G1 X104.093 Y85.971 E1.78154
G1 X103.824 Y86.238 E.01196
G1 X143.762 Y126.176 E1.78163
G1 X143.495 Y126.446 E.01198
G1 X103.554 Y86.505 E1.78176
G1 X103.285 Y86.772 E.01196
M73 P5 R68
M73 Q5 S68
G1 X143.228 Y126.715 E1.78185
G1 X142.96 Y126.984 E.01198
G1 X103.016 Y87.04 E1.7819
G1 X102.747 Y87.307 E.01196
G1 X142.693 Y127.253 E1.78198
G1 X142.426 Y127.523 E.01198
G1 X102.477 Y87.574 E1.78212
G1 X102.208 Y87.841 E.01196
G1 X142.159 Y127.792 E1.78221
G1 X141.892 Y128.061 E.01196
G1 X101.939 Y88.108 E1.7823
G1 X101.669 Y88.376 E.012
G1 X141.624 Y128.331 E1.78239
G1 X141.357 Y128.6 E.01196
M73 P5 R67
M73 Q5 S67
G1 X101.4 Y88.643 E1.78248
G1 X101.131 Y88.91 E.01196
G1 X141.09 Y128.869 E1.78256
G1 X140.823 Y129.138 E.01196
G1 X100.862 Y89.177 E1.78265
G1 X100.592 Y89.444 E.01198
G1 X140.556 Y129.408 E1.78279
G1 X140.288 Y129.677 E.01198
G1 X100.323 Y89.712 E1.78283
G1 X100.054 Y89.979 E.01196
G1 X140.021 Y129.946 E1.78292
G1 X139.754 Y130.216 E.01198
G1 X99.784 Y90.246 E1.78305
G1 X99.626 Y90.494 E.00928
G1 X99.599 Y90.597 E.00336
G1 X139.403 Y130.401 E1.77565
G1 X138.98 Y130.515 E.01382
M73 P6 R67
M73 Q6 S67
G1 X99.485 Y91.02 E1.76187
G1 X99.372 Y91.443 E.01381
G1 X138.557 Y130.628 E1.74804
G1 X138.134 Y130.741 E.01381
G1 X99.259 Y91.866 E1.73421
G1 X99.145 Y92.289 E.01382
G1 X137.711 Y130.855 E1.72042
G1 X137.288 Y130.968 E.01381
G1 X99.032 Y92.712 E1.70659
G1 X98.921 Y93.138 E.01389
G1 X136.862 Y131.079 E1.69254
G1 X136.428 Y131.182 E.01407
G1 X98.818 Y93.572 E1.67778
G1 X98.705 Y93.995 E.01381
G1 X136.005 Y131.295 E1.66395
G1 X135.582 Y131.408 E.01381
G1 X98.592 Y94.418 E1.65012
G1 X98.478 Y94.842 E.01385
G1 X135.158 Y131.522 E1.63629
G1 X134.735 Y131.635 E.01381
G1 X98.365 Y95.265 E1.62246
G1 X98.252 Y95.688 E.01381
G1 X134.312 Y131.748 E1.60863
G1 X133.888 Y131.861 E.01384
G1 X98.139 Y96.112 E1.59476
G1 X98.038 Y96.547 E.01409
M73 P6 R66
G1 X133.453 Y131.962 E1.57986
G1 X133.031 Y132.077 E.0138
M73 Q6 S66
G1 X97.923 Y96.969 E1.56616
G1 X97.808 Y97.391 E.0138
G1 X132.609 Y132.192 E1.55247
G1 X132.188 Y132.306 E.01376
M73 P7 R66
M73 Q7 S66
G1 X97.694 Y97.812 E1.53877
G1 X97.579 Y98.234 E.0138
G1 X131.766 Y132.421 E1.52508
G1 X131.344 Y132.536 E.0138
G1 X97.464 Y98.656 E1.51138
G1 X97.35 Y99.078 E.01379
G1 X130.922 Y132.65 E1.49764
G1 X130.5 Y132.765 E.0138
G1 X97.235 Y99.5 E1.48395
G1 X97.12 Y99.921 E.01377
G1 X130.079 Y132.88 E1.4703
G1 X129.657 Y132.994 E.01379
G1 X97.006 Y100.343 E1.45656
G1 X96.891 Y100.765 E.0138
G1 X129.235 Y133.109 E1.44286
G1 X128.813 Y133.224 E.0138
G1 X96.776 Y101.187 E1.42917
G1 X96.662 Y101.609 E.01379
G1 X128.391 Y133.338 E1.41543
G1 X127.97 Y133.453 E.01377
G1 X96.547 Y102.03 E1.40177
G1 X96.432 Y102.452 E.0138
G1 X127.548 Y133.568 E1.38808
G1 X127.126 Y133.682 E.01379
G1 X96.318 Y102.874 E1.37434
G1 X96.203 Y103.296 E.0138
G1 X126.704 Y133.797 E1.36064
G1 X126.282 Y133.912 E.0138
G1 X96.088 Y103.718 E1.34695
G1 X95.974 Y104.14 E.01379
G1 X125.86 Y134.026 E1.33321
G1 X125.439 Y134.141 E.01377
G1 X95.859 Y104.561 E1.31956
G1 X95.773 Y104.877 E.01033
G1 X95.787 Y105.026 E.00472
G1 X124.974 Y134.213 E1.30203
G1 X124.877 Y134.227 E.00309
G1 X124.293 Y134.068 E.01909
G1 X95.932 Y105.707 E1.26518
G1 X96.132 Y106.444 E.02409
M73 P8 R66
M73 Q8 S66
G1 X123.556 Y133.868 E1.22338
G1 X122.819 Y133.667 E.0241
G1 X96.333 Y107.181 E1.18154
G1 X96.533 Y107.918 E.02409
G1 X122.082 Y133.467 E1.13974
G1 X121.345 Y133.267 E.02409
G1 X96.733 Y108.655 E1.09794
G1 X96.934 Y109.392 E.0241
G1 X120.608 Y133.066 E1.05609
G1 X119.872 Y132.866 E.02406
M73 P8 R65
G1 X97.134 Y110.128 E1.01434
M73 Q8 S65
G1 X97.334 Y110.865 E.02409
G1 X119.135 Y132.666 E.97254
G1 X118.398 Y132.465 E.0241
G1 X97.535 Y111.602 E.93069
G1 X97.735 Y112.339 E.02409
G1 X117.661 Y132.265 E.8889
G1 X116.924 Y132.065 E.02409
G1 X97.935 Y113.076 E.8471
G1 X98.122 Y113.799 E.02356
G1 X116.201 Y131.878 E.8065
G1 X115.479 Y131.692 E.02352
G1 X98.308 Y114.521 E.766
G1 X98.504 Y115.254 E.02393
G1 X114.746 Y131.496 E.72455
G1 X114.013 Y131.3 E.02393
G1 X98.7 Y115.987 E.68311
G1 X98.892 Y116.715 E.02375
G1 X113.284 Y131.107 E.64202
G1 X112.571 Y130.93 E.02317
G1 X99.07 Y117.429 E.60228
G1 X99.266 Y118.162 E.02393
G1 X111.838 Y130.734 E.56083
G1 X111.105 Y130.537 E.02394
G1 X99.463 Y118.895 E.51935
G1 X99.626 Y119.506 E.01995
G1 X99.703 Y119.604 E.00393
G1 X99.75 Y119.718 E.00389
G1 X110.612 Y130.581 E.48457
M204 S1000
M106 S84.15
;LAYER_CHANGE
;Z:0.45
;HEIGHT:0.25
;BEFORE_LAYER_CHANGE
G92 E0.0
;0.45


G1 Z.45 F720
;AFTER_LAYER_CHANGE
;0.45
; stop printing object pen_holder.stl id:0 copy 0
G1 E-.8 F2100
G1 X110.612 Y130.581 Z.85 F10800
G1 X109.334 Y133.3
G1 Z.45 F720
G1 E.8 F2100
;TYPE:Skirt/Brim
;WIDTH:0.42
G1 F3000
G1 X109.028 Y133.156 E.01288
G1 X107.555 Y132.181 E.06726
G1 X97.819 Y122.445 E.52428
G1 X96.887 Y121.05 E.06388
G1 X96.301 Y119.817 E.05198
G1 X92.738 Y106.517 E.52429
G1 X92.629 Y104.843 E.06388
G1 X92.738 Y103.483 E.05195
G1 X96.301 Y90.183 E.52429
G1 X96.844 Y89.028 E.0486
G1 X97.819 Y87.555 E.06726
G1 X107.555 Y77.819 E.52428
G1 X108.678 Y77.044 E.05196
G1 X110.183 Y76.301 E.06391
G1 X123.483 Y72.738 E.52429
G1 X125.246 Y72.63 E.06726
G1 X126.517 Y72.738 E.04857
G1 X139.817 Y76.301 E.52429
G1 X141.05 Y76.887 E.05198
G1 X142.445 Y77.819 E.06388
G1 X152.181 Y87.555 E.52428
G1 X152.956 Y88.678 E.05196
G1 X153.699 Y90.183 E.06391
G1 X157.262 Y103.483 E.52429
G1 X157.371 Y105.157 E.06388
G1 X157.262 Y106.517 E.05195
G1 X153.699 Y119.817 E.52429
G1 X153.156 Y120.972 E.0486
G1 X152.181 Y122.445 E.06726
G1 X142.445 Y132.181 E.52428
G1 X141.322 Y132.956 E.05196
G1 X139.817 Y133.699 E.06391
G1 X126.517 Y137.262 E.52429
G1 X124.843 Y137.371 E.06388
G1 X123.483 Y137.262 E.05195
G1 X110.183 Y133.699 E.52429
G1 X109.388 Y133.325 E.03345
;WIPE_START
G1 F8640
G1 X109.334 Y133.3 E-.01374
G1 X109.028 Y133.156 E-.07809
G1 X107.555 Y132.181 E-.40788
G1 X106.635 Y131.261 E-.30029
;WIPE_END
G1 Z.85 F720
; printing object pen_holder.stl id:0 copy 0
G1 X110.559 Y131.015 F10800
G1 Z.45 F720
G1 E.8 F2100
M204 S800
;TYPE:External perimeter
;WIDTH:0.449999
G1 F1500
G1 X110.17 Y130.686 E.02099
G1 X109.691 Y130.514 E.02097
G1 X108.036 Y128.86 E.09639
G1 X107.573 Y128.321 E.02927
G1 X105.879 Y126.627 E.09869
G1 X105.415 Y126.089 E.02927
G1 X103.914 Y124.587 E.08748
G1 X103.905 Y124.578 E.00052
G1 X103.373 Y124.121 E.02889
G1 X101.681 Y122.429 E.09858
G1 X101.67 Y122.419 E.00061
G1 X101.14 Y121.964 E.02878
G1 X99.486 Y120.309 E.09639
G1 X99.314 Y119.83 E.02097
G1 X98.985 Y119.441 E.02099
G1 X98.379 Y117.181 E.09639
G1 X98.247 Y116.483 E.02926
G1 X97.627 Y114.169 E.09869
