; generated by PrusaSlicer 2.7.4 on 2024-05-12 at 12:25:20 UTC

; 

; external perimeters extrusion width = 0.45mm
; perimeters extrusion width = 0.45mm
; infill extrusion width = 0.45mm
; solid infill extrusion width = 0.45mm
; top infill extrusion width = 0.40mm
; first layer extrusion width = 0.42mm

M73 P0 R15
M73 Q0 S15
M201 X1000 Y1000 Z200 E5000 ; sets maximum accelerations, mm/sec^2
M203 X200 Y200 Z12 E120 ; sets maximum feedrates, mm / sec
M204 S1250 T1250 ; sets acceleration (S) and retract acceleration (R), mm/sec^2
M205 X8.00 Y8.00 Z0.40 E4.50 ; sets the jerk limits, mm/sec
M205 S0 T0 ; sets the minimum extruding and travel feed rate, mm/sec

; printing object perimeter_calibration_cube.stl id:0 copy 0
; stop printing object perimeter_calibration_cube.stl id:0 copy 0

;TYPE:Custom
M862.3 P "MK3S" ; printer model check
M862.1 P0.4 ; nozzle diameter check
G90 ; use absolute coordinates
M83 ; extruder relative mode
M104 S215 ; set extruder temp
M140 S60 ; set bed temp
M190 S60 ; wait for bed temp
M109 S215 ; wait for extruder temp
G28 W ; home all without mesh bed level
G80 X109.557 Y89.5573 W30.8854 H30.8854 ; mesh bed levelling

G1 Z0.2 F720
G1 Y-3 F1000 ; go outside print area
G92 E0
G1 X60 E9 F1000 ; intro line
G1 X100 E12.5 F1000 ; intro line

G92 E0
M221 S95

; Don't change E values below. Excessive value can damage the printer.
M907 E430 ; set extruder motor current
G21 ; set units to millimeters
G90 ; use absolute coordinates
M83 ; use relative distances for extrusion

M900 K0.05 ; Filament gcode LA 1.5
M900 K30 ; Filament gcode LA 1.0




M107
;LAYER_CHANGE
;Z:0.2
;HEIGHT:0.2
G1 E-.8 F2100
G1 Z.6 F720
G1 X110.925 Y91.684 F10800
G1 Z.2 F720
G1 E.8 F2100
M204 S800
;TYPE:Skirt/Brim
;WIDTH:0.42
G1 F1200
G1 X111.684 Y90.925 E.03366
G1 X112.601 Y90.327 E.03433
G1 X113.6 Y89.937 E.03363
G1 X114.68 Y89.757 E.03433
G1 X135.114 Y89.748 E.64069
G1 X135.977 Y89.839 E.02721
G1 X136.813 Y90.07 E.02719
G1 X137.6 Y90.435 E.0272
G1 X138.473 Y91.059 E.03365
G1 X139.075 Y91.684 E.02721
G1 X139.565 Y92.4 E.0272
G1 X139.93 Y93.187 E.0272
G1 X140.199 Y94.248 E.03432
G1 X140.254 Y94.995 E.02349
G1 X140.243 Y115.32 E.63728
G1 X140.119 Y116.179 E.02721
M73 P1 R15
M73 Q1 S15
G1 X139.93 Y116.813 E.02074
G1 X139.565 Y117.6 E.0272
G1 X139.075 Y118.316 E.0272
G1 X138.316 Y119.075 E.03366
G1 X137.399 Y119.673 E.03433
G1 X136.4 Y120.063 E.03363
G1 X135.114 Y120.252 E.04075
G1 X114.68 Y120.243 E.64069
G1 X114.009 Y120.158 E.02121
G1 X113.187 Y119.93 E.02675
G1 X112.4 Y119.565 E.0272
G1 X111.684 Y119.074 E.02722
G1 X110.925 Y118.316 E.03363
G1 X110.327 Y117.399 E.03433
G1 X109.937 Y116.4 E.03363
G1 X109.748 Y115.119 E.0406
G1 X109.757 Y94.68 E.64085
G1 X109.881 Y93.821 E.02721
G1 X110.075 Y93.173 E.02121
G1 X110.435 Y92.4 E.02674
G1 X110.892 Y91.734 E.02533
M204 S1000
G1 X110.892 Y91.734 F10800
G1 X111.201 Y91.945
M204 S800
G1 F1200
G1 X111.213 Y91.928 E.00065
G1 X111.928 Y91.213 E.0317
G1 X112.766 Y90.666 E.03138
G1 X113.708 Y90.298 E.03171
G1 X114.695 Y90.133 E.03138
G1 X135.098 Y90.125 E.63972
G1 X135.899 Y90.208 E.02525
G1 X136.676 Y90.421 E.02526
G1 X137.407 Y90.759 E.02525
G1 X138.23 Y91.347 E.03171
G1 X138.787 Y91.928 E.02524
G1 X139.241 Y92.593 E.02525
G1 X139.579 Y93.324 E.02525
G1 X139.825 Y94.294 E.03138
G1 X139.877 Y94.995 E.02204
G1 X139.867 Y115.305 E.63681
G1 X139.579 Y116.676 E.04392
G1 X139.241 Y117.407 E.02525
G1 X138.787 Y118.072 E.02525
G1 X138.072 Y118.787 E.0317
G1 X137.234 Y119.334 E.03138
G1 X136.292 Y119.702 E.03171
G1 X135.098 Y119.875 E.03783
G1 X114.695 Y119.867 E.63972
G1 X113.324 Y119.579 E.04392
G1 X112.593 Y119.241 E.02525
G1 X111.928 Y118.787 E.02525
G1 X111.213 Y118.072 E.0317
G1 X110.666 Y117.234 E.03138
G1 X110.298 Y116.292 E.03171
G1 X110.125 Y115.103 E.03767
G1 X110.133 Y94.695 E.63988
G1 X110.25 Y93.898 E.02526
G1 X110.426 Y93.31 E.01924
G1 X110.759 Y92.593 E.02479
G1 X111.168 Y91.995 E.02272
M204 S1000
;WIPE_START
G1 F8640
G1 X111.201 Y91.945 E-.01383
G1 X111.213 Y91.928 E-.0048
G1 X111.928 Y91.213 E-.23348
G1 X112.766 Y90.666 E-.23107
G1 X113.708 Y90.298 E-.23352
G1 X114.064 Y90.239 E-.0833
;WIPE_END
G1 Z.6 F720
; printing object perimeter_calibration_cube.stl id:0 copy 0
G1 X113.349 Y93.72 F10800
M73 Q2 S15
G1 Z.2 F720
G1 E.8 F2100
M204 S800
;TYPE:External perimeter
;WIDTH:0.419999
G1 F1200
G1 X113.717 Y93.352 E.01632
G1 X113.939 Y93.22 E.0081
G1 X114.344 Y93.024 E.01411
G1 X114.828 Y92.918 E.01554
G1 X135.169 Y92.918 E.63778
M73 P2 R15
G1 X135.678 Y93.025 E.01631
G1 X135.912 Y93.139 E.00816
G1 X136.295 Y93.37 E.01402
G1 X136.649 Y93.717 E.01554
G1 X136.908 Y94.166 E.01625
G1 X137.061 Y94.656 E.0161
G1 X137.09 Y95.103 E.01404
G1 X137.09 Y114.983 E.62332
G1 X137.025 Y115.512 E.01671
G1 X136.837 Y115.994 E.01622
G1 X136.687 Y116.204 E.00809
G1 X136.395 Y116.546 E.0141
G1 X135.994 Y116.837 E.01553
G1 X135.509 Y117.019 E.01624
G1 X134.987 Y117.09 E.01652
G1 X115.103 Y117.09 E.62345
G1 X114.66 Y117.061 E.01392
G1 X114.161 Y116.912 E.01633
G1 X113.717 Y116.648 E.0162
G1 X113.349 Y116.28 E.01632
G1 X113.163 Y115.994 E.0107
G1 X112.981 Y115.507 E.0163
G1 X112.91 Y114.987 E.01646
G1 X112.91 Y95.017 E.62614
G1 X112.975 Y94.488 E.01671
G1 X113.103 Y94.16 E.01104
G1 X113.32 Y93.773 E.01391
M204 S1000
;WIPE_START
G1 F8640
G1 X113.349 Y93.72 E-.01395
G1 X113.717 Y93.352 E-.12017
G1 X113.939 Y93.22 E-.05964
G1 X114.344 Y93.024 E-.10389
G1 X114.828 Y92.918 E-.11441
G1 X116.508 Y92.918 E-.38794
;WIPE_END
G1 Z.6 F720
G1 X136.789 Y94.319 F10800
G1 Z.2 F720
G1 E.8 F2100
M204 S800
;TYPE:Solid infill
;WIDTH:0.421059
G1 F1200
G1 X136.184 Y93.713 E.02692
G1 X135.965 Y93.543 E.00872
G1 X135.567 Y93.348 E.01394
G1 X135.209 Y93.273 E.0115
G1 X136.732 Y94.796 E.06772
G1 X136.751 Y95.35 E.01743
G1 X134.658 Y93.257 E.09307
G1 X134.123 Y93.257 E.01682
G1 X136.751 Y95.884 E.11684
G1 X136.751 Y96.419 E.01682
G1 X133.588 Y93.257 E.14062
G1 X133.053 Y93.256 E.01682
G1 X136.751 Y96.954 E.16444
G1 X136.751 Y97.489 E.01682
G1 X132.518 Y93.256 E.18823
G1 X131.983 Y93.256 E.01682
G1 X136.751 Y98.023 E.21199
G1 X136.751 Y98.558 E.01682
G1 X131.448 Y93.256 E.23578
G1 X130.913 Y93.256 E.01682
G1 X136.751 Y99.093 E.25957
G1 X136.751 Y99.628 E.01682
G1 X130.378 Y93.255 E.28338
G1 X129.843 Y93.255 E.01682
G1 X136.751 Y100.162 E.30715
G1 X136.751 Y100.697 E.01682
G1 X129.308 Y93.255 E.33094
G1 X128.773 Y93.255 E.01682
M73 P3 R15
M73 Q3 S15
G1 X136.751 Y101.232 E.35473
G1 X136.751 Y101.767 E.01682
G1 X128.238 Y93.254 E.37854
G1 X127.703 Y93.254 E.01682
G1 X136.751 Y102.302 E.40233
G1 X136.751 Y102.836 E.01679
G1 X127.168 Y93.254 E.4261
G1 X126.633 Y93.254 E.01682
G1 X136.751 Y103.371 E.44989
G1 X136.751 Y103.906 E.01682
G1 X126.098 Y93.254 E.47368
G1 X125.563 Y93.253 E.01682
G1 X136.751 Y104.441 E.49749
G1 X136.751 Y104.975 E.01679
G1 X125.028 Y93.253 E.52126
G1 X124.493 Y93.253 E.01682
G1 X136.751 Y105.51 E.54505
G1 X136.751 Y106.045 E.01682
G1 X123.958 Y93.253 E.56883
G1 X123.423 Y93.252 E.01682
G1 X136.751 Y106.58 E.59265
G1 X136.751 Y107.114 E.01679
G1 X122.888 Y93.252 E.61641
G1 X122.353 Y93.252 E.01682
M73 P4 R15
M73 Q4 S15
G1 X136.751 Y107.649 E.6402
G1 X136.751 Y108.184 E.01682
G1 X121.818 Y93.252 E.66399
G1 X121.283 Y93.251 E.01682
G1 X136.751 Y108.719 E.6878
G1 X136.751 Y109.254 E.01682
G1 X120.748 Y93.251 E.71159
G1 X120.213 Y93.251 E.01682
G1 X136.751 Y109.788 E.73536
G1 X136.751 Y110.323 E.01682
M73 P4 R14
M73 Q4 S14
G1 X119.678 Y93.251 E.75915
G1 X119.143 Y93.251 E.01682
G1 X136.751 Y110.858 E.78294
G1 X136.751 Y111.393 E.01682
G1 X118.608 Y93.25 E.80675
G1 X118.073 Y93.25 E.01682
M73 P5 R14
M73 Q5 S14
G1 X136.751 Y111.927 E.83052
G1 X136.751 Y112.462 E.01682
G1 X117.538 Y93.25 E.85431
G1 X117.003 Y93.25 E.01682
G1 X136.751 Y112.997 E.8781
G1 X136.751 Y113.532 E.01682
G1 X116.468 Y93.249 E.90191
G1 X115.936 Y93.252 E.01673
G1 X136.751 Y114.066 E.92554
G1 X136.751 Y114.601 E.01682
G1 X115.404 Y93.255 E.9492
G1 X114.872 Y93.257 E.01673
M73 Q6 S14
G1 X136.732 Y115.117 E.97203
G1 X136.693 Y115.429 E.00989
M73 P6 R14
G1 X136.641 Y115.561 E.00446
G1 X114.432 Y93.352 E.98755
G1 X114.308 Y93.395 E.00413
G1 X114.078 Y93.532 E.00842
G1 X136.469 Y115.924 E.99567
G1 X136.239 Y116.228 E.01199
G1 X113.78 Y93.769 E.99867
G1 X113.614 Y93.935 E.00738
G1 X113.534 Y94.058 E.00461
G1 X135.942 Y116.466 E.9964
G1 X135.832 Y116.538 E.00413
G1 X135.586 Y116.646 E.00845
G1 X113.365 Y94.424 E.98811
G1 X113.307 Y94.571 E.00497
M73 P7 R14
M73 Q7 S14
G1 X113.271 Y94.865 E.00931
G1 X135.143 Y116.737 E.97257
G1 X134.622 Y116.751 E.01639
G1 X113.249 Y95.378 E.95038
G1 X113.249 Y95.913 E.01682
G1 X134.087 Y116.751 E.92659
G1 X133.552 Y116.751 E.01682
G1 X113.249 Y96.448 E.9028
G1 X113.249 Y96.982 E.01679
G1 X133.018 Y116.751 E.87905
G1 X132.483 Y116.751 E.01682
G1 X113.249 Y97.517 E.85526
G1 X113.249 Y98.052 E.01682
G1 X131.948 Y116.751 E.83147
G1 X131.413 Y116.751 E.01682
M73 P8 R14
M73 Q8 S14
G1 X113.249 Y98.587 E.80768
G1 X113.249 Y99.122 E.01682
G1 X130.878 Y116.751 E.7839
G1 X130.344 Y116.751 E.01679
G1 X113.249 Y99.656 E.76015
G1 X113.249 Y100.191 E.01682
G1 X129.809 Y116.751 E.73636
G1 X129.274 Y116.751 E.01682
G1 X113.249 Y100.726 E.71257
G1 X113.249 Y101.261 E.01682
G1 X128.739 Y116.751 E.68878
G1 X128.205 Y116.751 E.01679
G1 X113.249 Y101.795 E.66504
G1 X113.249 Y102.33 E.01682
M73 P9 R14
M73 Q9 S14
G1 X127.67 Y116.751 E.64125
G1 X127.135 Y116.751 E.01682
G1 X113.249 Y102.865 E.61746
G1 X113.249 Y103.4 E.01682
G1 X126.6 Y116.751 E.59367
G1 X126.066 Y116.751 E.01679
G1 X113.249 Y103.934 E.56992
G1 X113.249 Y104.469 E.01682
G1 X125.531 Y116.751 E.54613
G1 X124.996 Y116.751 E.01682
G1 X113.249 Y105.004 E.52235
G1 X113.249 Y105.539 E.01682
G1 X124.461 Y116.751 E.49856
G1 X123.926 Y116.751 E.01682
G1 X113.249 Y106.074 E.47477
G1 X113.249 Y106.608 E.01679
G1 X123.392 Y116.751 E.45102
G1 X122.857 Y116.751 E.01682
G1 X113.249 Y107.143 E.42723
G1 X113.249 Y107.678 E.01682
G1 X122.322 Y116.751 E.40344
G1 X121.787 Y116.751 E.01682
M73 P10 R14
M73 Q10 S14
G1 X113.249 Y108.213 E.37965
G1 X113.249 Y108.747 E.01679
G1 X121.253 Y116.751 E.35591
G1 X120.718 Y116.751 E.01682
G1 X113.249 Y109.282 E.33212
G1 X113.249 Y109.817 E.01682
G1 X120.183 Y116.751 E.30833
G1 X119.648 Y116.751 E.01682
G1 X113.249 Y110.352 E.28454
G1 X113.249 Y110.886 E.01679
G1 X119.114 Y116.751 E.26079
G1 X118.579 Y116.751 E.01682
G1 X113.249 Y111.421 E.23701
G1 X113.249 Y111.956 E.01682
G1 X118.044 Y116.751 E.21322
G1 X117.509 Y116.751 E.01682
G1 X113.249 Y112.491 E.18943
G1 X113.249 Y113.026 E.01682
G1 X116.974 Y116.751 E.16564
G1 X116.44 Y116.751 E.01679
G1 X113.249 Y113.56 E.14189
G1 X113.249 Y114.095 E.01682
G1 X115.905 Y116.751 E.1181
G1 X115.37 Y116.751 E.01682
G1 X113.249 Y114.63 E.09431
G1 X113.267 Y115.182 E.01737
G1 X114.818 Y116.733 E.06897
G1 X114.723 Y116.726 E.003
G1 X114.299 Y116.599 E.01392
G1 X113.929 Y116.379 E.01353
G1 X113.195 Y115.645 E.03264
M204 S1000
M106 S84.15
;LAYER_CHANGE
;Z:0.4
;HEIGHT:0.2
;BEFORE_LAYER_CHANGE
G92 E0.0
;0.4


G1 Z.4 F720
;AFTER_LAYER_CHANGE
;0.4
; stop printing object perimeter_calibration_cube.stl id:0 copy 0
G1 E-.8 F2100
G1 X113.195 Y115.645 Z.8 F10800
G1 X110.112 Y116.848
G1 Z.4 F720
G1 E.8 F2100
;TYPE:Skirt/Brim
;WIDTH:0.42
G1 F3000
G1 X109.937 Y116.4 E.01508
G1 X109.748 Y115.119 E.0406
G1 X109.757 Y94.68 E.64085
G1 X109.881 Y93.821 E.02721
G1 X110.075 Y93.173 E.02121
G1 X110.435 Y92.4 E.02674
G1 X110.925 Y91.684 E.0272
G1 X111.684 Y90.925 E.03366
G1 X112.601 Y90.327 E.03433
G1 X113.6 Y89.937 E.03363
G1 X114.68 Y89.757 E.03433
G1 X135.114 Y89.748 E.64069
G1 X135.977 Y89.839 E.02721
G1 X136.813 Y90.07 E.02719
G1 X137.6 Y90.435 E.0272
G1 X138.473 Y91.059 E.03365
G1 X139.075 Y91.684 E.02721
G1 X139.565 Y92.4 E.0272
G1 X139.93 Y93.187 E.0272
G1 X140.199 Y94.248 E.03432
G1 X140.254 Y94.995 E.02349
G1 X140.243 Y115.32 E.63728
G1 X140.119 Y116.179 E.02721
G1 X139.93 Y116.813 E.02074
G1 X139.565 Y117.6 E.0272
G1 X139.075 Y118.316 E.0272
G1 X138.316 Y119.075 E.03366
G1 X137.399 Y119.673 E.03433
G1 X136.4 Y120.063 E.03363
G1 X135.114 Y120.252 E.04075
G1 X114.68 Y120.243 E.64069
G1 X114.009 Y120.158 E.02121
G1 X113.187 Y119.93 E.02675
G1 X112.4 Y119.565 E.0272
G1 X111.684 Y119.074 E.02722
G1 X110.925 Y118.316 E.03363
G1 X110.327 Y117.399 E.03433
G1 X110.133 Y116.903 E.0167
G1 X110.133 Y116.903 F10800
G1 X110.484 Y116.767
G1 F3000
G1 X110.298 Y116.292 E.01599
G1 X110.125 Y115.103 E.03767
G1 X110.133 Y94.695 E.63988
G1 X110.25 Y93.898 E.02526
M73 P10 R13
M73 Q10 S13
G1 X110.426 Y93.31 E.01924
G1 X110.759 Y92.593 E.02479
G1 X111.213 Y91.928 E.02525
G1 X111.928 Y91.213 E.0317
M73 Q11 S13
G1 X112.766 Y90.666 E.03138
G1 X113.708 Y90.298 E.03171
G1 X114.695 Y90.133 E.03138
G1 X135.098 Y90.125 E.63972
G1 X135.899 Y90.208 E.02525
M73 P11 R13
G1 X136.676 Y90.421 E.02526
G1 X137.407 Y90.759 E.02525
G1 X138.23 Y91.347 E.03171
G1 X138.787 Y91.928 E.02524
G1 X139.241 Y92.593 E.02525
G1 X139.579 Y93.324 E.02525
G1 X139.825 Y94.294 E.03138
G1 X139.877 Y94.995 E.02204
G1 X139.867 Y115.305 E.63681
G1 X139.579 Y116.676 E.04392
G1 X139.241 Y117.407 E.02525
G1 X138.787 Y118.072 E.02525
G1 X138.072 Y118.787 E.0317
G1 X137.234 Y119.334 E.03138
G1 X136.292 Y119.702 E.03171
G1 X135.098 Y119.875 E.03783
G1 X114.695 Y119.867 E.63972
G1 X113.324 Y119.579 E.04392
G1 X112.593 Y119.241 E.02525
G1 X111.928 Y118.787 E.02525
G1 X111.213 Y118.072 E.0317
G1 X110.666 Y117.234 E.03138
G1 X110.505 Y116.823 E.01384
;WIPE_START
G1 F8640
G1 X110.484 Y116.767 E-.01381
G1 X110.298 Y116.292 E-.11779
G1 X110.125 Y115.103 E-.27743
G1 X110.126 Y113.41 E-.39097
;WIPE_END
G1 Z.8 F720
; printing object perimeter_calibration_cube.stl id:0 copy 0
G1 X112.918 Y115.914 F10800
G1 Z.4 F720
G1 E.8 F2100
M204 S800
;TYPE:External perimeter
;WIDTH:0.449999
G1 F1500
G1 X112.755 Y115.356 E.01968
G1 X112.725 Y114.991 E.0124
G1 X112.725 Y95.009 E.67637
G1 X112.8 Y94.457 E.01886
G1 X112.966 Y94.023 E.01573
G1 X113.223 Y93.593 E.01696
G1 X113.612 Y93.2 E.01872
G1 X114.086 Y92.919 E.01865
G1 X114.644 Y92.755 E.01969
G1 X115.009 Y92.725 E.0124
G1 X134.84 Y92.725 E.67125
G1 X135.318 Y92.766 E.01624
G1 X135.757 Y92.864 E.01523
G1 X136.244 Y93.096 E.01826
G1 X136.683 Y93.482 E.01979
G1 X136.998 Y93.914 E.0181
G1 X137.205 Y94.445 E.01929
G1 X137.267 Y94.977 E.01813
G1 X137.267 Y95.645 E.02261
G1 X137.275 Y114.991 E.65484
G1 X137.203 Y115.534 E.01854
G1 X137.036 Y115.971 E.01584
G1 X136.789 Y116.392 E.01652
G1 X136.458 Y116.721 E.0158
G1 X136.059 Y117.004 E.01656
G1 X135.562 Y117.203 E.01812
G1 X134.987 Y117.275 E.01962
G1 X115.009 Y117.275 E.67623
G1 X114.466 Y117.203 E.01854
G1 X114.006 Y117.025 E.0167
G1 X113.59 Y116.775 E.01643
G1 X113.208 Y116.4 E.01812
G1 X112.949 Y115.965 E.01714
M204 S1000
;WIPE_START
G1 F8640
G1 X112.918 Y115.914 E-.01378
G1 X112.755 Y115.356 E-.13423
G1 X112.725 Y114.991 E-.08456
G1 X112.725 Y112.534 E-.56743
;WIPE_END
G1 Z.8 F720
G1 X135.763 Y116.881 F10800
G1 Z.4 F720
G1 E.8 F2100
;TYPE:Top solid infill
;WIDTH:0.402745
G1 F2400
G1 X136.881 Y115.763 E.04731
G1 X136.881 Y115.763 F10800
G1 X137.027 Y115.108
G1 F2400
G1 X135.108 Y117.027 E.0812
G1 X135.108 Y117.027 F10800
G1 X134.595 Y117.032
G1 F2400
G1 X137.032 Y114.595 E.10312
G1 X137.032 Y114.595 F10800
G1 X137.032 Y114.086
G1 F2400
G1 X134.086 Y117.032 E.12465
G1 X134.086 Y117.032 F10800
G1 X133.577 Y117.032
G1 F2400
G1 X137.032 Y113.577 E.14619
G1 X137.032 Y113.577 F10800
G1 X137.032 Y113.068
G1 F2400
G1 X133.068 Y117.032 E.16773
G1 X133.068 Y117.032 F10800
G1 X132.559 Y117.032
G1 F2400
G1 X137.032 Y112.559 E.18926
G1 X137.032 Y112.559 F10800
G1 X137.032 Y112.05
G1 F2400
G1 X132.05 Y117.032 E.2108
G1 X132.05 Y117.032 F10800
G1 X131.542 Y117.032
G1 F2400
G1 X137.032 Y111.542 E.2323
G1 X137.032 Y111.542 F10800
G1 X137.032 Y111.033
G1 F2400
G1 X131.033 Y117.032 E.25383
G1 X131.033 Y117.032 F10800
G1 X130.524 Y117.032
G1 F2400
G1 X137.032 Y110.524 E.27537
G1 X137.032 Y110.524 F10800
G1 X137.032 Y110.015
G1 F2400
G1 X130.015 Y117.032 E.29691
G1 X130.015 Y117.032 F10800
G1 X129.506 Y117.032
G1 F2400
G1 X137.032 Y109.506 E.31845
G1 X137.032 Y109.506 F10800
G1 X137.032 Y108.997
G1 F2400
G1 X128.997 Y117.032 E.33998
