; generated by PrusaSlicer 2.7.4 on 2024-05-16 at 05:48:52 UTC

; 

; external perimeters extrusion width = 0.60mm
; perimeters extrusion width = 0.50mm
; infill extrusion width = 0.50mm
; solid infill extrusion width = 0.50mm
; top infill extrusion width = 0.45mm
; first layer extrusion width = 0.42mm

M73 P0 R30
M73 Q0 S30
M201 X1000 Y1000 Z200 E5000 ; sets maximum accelerations, mm/sec^2
M203 X200 Y200 Z12 E120 ; sets maximum feedrates, mm / sec
M204 S1250 T1250 ; sets acceleration (S) and retract acceleration (R), mm/sec^2
M205 X8.00 Y8.00 Z0.40 E4.50 ; sets the jerk limits, mm/sec
M205 S0 T0 ; sets the minimum extruding and travel feed rate, mm/sec

; printing object resistance_hook.stl id:0 copy 0
; stop printing object resistance_hook.stl id:0 copy 0

;TYPE:Custom
M862.3 P "MK3S" ; printer model check
M862.1 P0.4 ; nozzle diameter check
G90 ; use absolute coordinates
M83 ; extruder relative mode
M104 S215 ; set extruder temp
M140 S60 ; set bed temp
M190 S60 ; wait for bed temp
M109 S215 ; wait for extruder temp
G28 W ; home all without mesh bed level
G80 X88.2105 Y85.6781 W73.5963 H38.641 ; mesh bed levelling

G1 Z0.2 F720
G1 Y-3 F1000 ; go outside print area
G92 E0
G1 X60 E9 F1000 ; intro line
G1 X100 E12.5 F1000 ; intro line

G92 E0
M221 S95

; Don't change E values below. Excessive value can damage the printer.

M907 E538 ; set extruder motor current
G21 ; set units to millimeters
G90 ; use absolute coordinates
M83 ; use relative distances for extrusion

M900 K0.05 ; Filament gcode LA 1.5
M900 K30 ; Filament gcode LA 1.0




M107
;LAYER_CHANGE
;Z:0.2
;HEIGHT:0.2
G1 E-.8 F2100
G1 Z.6 F720
G1 X90.078 Y91.152 F10800
G1 Z.2 F720
G1 E.8 F2100
M204 S800
;TYPE:Skirt/Brim
;WIDTH:0.42
G1 F1200
G1 X91.725 Y89.525 E.07259
G1 X92.925 Y88.55 E.04848
G1 X94.756 Y87.425 E.06738
G1 X96.927 Y86.53 E.07363
G1 X98.795 Y86.075 E.06028
G1 X100.444 Y85.887 E.05204
G1 X148.204 Y85.953 E1.49748
G1 X149.965 Y86.151 E.05556
G1 X151.832 Y86.611 E.06029
G1 X153.415 Y87.228 E.05327
G1 X155.069 Y88.129 E.05906
G1 X156.396 Y89.08 E.05119
G1 X157.462 Y90.038 E.04494
G1 X158.499 Y91.19 E.0486
G1 X159.341 Y92.351 E.04497
G1 X160.06 Y93.591 E.04494
G1 X160.72 Y95.084 E.05118
G1 X161.155 Y96.45 E.04495
G1 X161.463 Y97.949 E.04798
G1 X161.618 Y100.054 E.06618
G1 X161.603 Y110.054 E.31354
G1 X161.522 Y111.543 E.04676
G1 X161.296 Y112.959 E.04496
G1 X160.848 Y114.581 E.05276
G1 X160.138 Y116.289 E.058
G1 X159.41 Y117.582 E.04653
G1 X158.458 Y118.908 E.05118
G1 X157.418 Y120.057 E.04859
G1 X155.857 Y121.39 E.06436
G1 X154.577 Y122.228 E.04797
G1 X153.119 Y122.964 E.05121
G1 X151.707 Y123.489 E.04723
G1 X149.909 Y123.922 E.05799
G1 X148.26 Y124.11 E.05204
G1 X100.5 Y124.045 E1.49748
G1 X98.739 Y123.846 E.05557
G1 X96.872 Y123.386 E.06029
G1 X95.289 Y122.77 E.05326
G1 X93.635 Y121.869 E.05906
G1 X91.763 Y120.451 E.07363
G1 X89.093 Y117.804 E.11788
G1 X88.399 Y116.122 E.05705
G1 X88.432 Y93.768 E.70089
G1 X89.131 Y92.088 E.05705
G1 X90.036 Y91.194 E.03989
M204 S1000
;WIPE_START
G1 F8640
G1 X90.078 Y91.152 E-.01371
G1 X91.725 Y89.525 E-.53457
G1 X92.571 Y88.838 E-.25172
;WIPE_END
G1 Z.6 F720
; printing object resistance_hook.stl id:0 copy 0
G1 X111.761 Y98.71 F10800
G1 Z.2 F720
G1 E.8 F2100
M204 S800
;TYPE:Perimeter
;WIDTH:0.419999
G1 F1200
G1 X109.953 Y98.71 E.05669
G1 X108.206 Y96.958 E.07758
G1 X107.482 Y96.38 E.02905
G1 X106.754 Y96.01 E.0256
G1 X106.127 Y95.816 E.02058
M73 Q1 S30
G1 X105.535 Y95.725 E.01878
G1 X104.033 Y95.707 E.0471
G1 X102.926 Y95.776 E.03478
G1 X102.32 Y95.874 E.01925
G1 X101.617 Y96.055 E.02276
M73 P1 R30
G1 X100.988 Y96.26 E.02074
G1 X100.28 Y96.544 E.02392
G1 X99.737 Y96.824 E.01916
G1 X98.854 Y97.389 E.03287
G1 X98.375 Y97.766 E.01911
G1 X97.596 Y98.507 E.03371
G1 X96.896 Y99.363 E.03467
G1 X96.311 Y100.298 E.03458
G1 X95.858 Y101.273 E.03371
G1 X95.526 Y102.299 E.03381
G1 X95.397 Y102.895 E.01912
G1 X95.269 Y103.958 E.03357
G1 X95.26 Y105.41 E.04553
G1 X95.357 Y106.323 E.02879
G1 X95.516 Y107.024 E.02254
G1 X95.876 Y108.034 E.03362
G1 X96.313 Y108.872 E.02963
G1 X96.963 Y109.777 E.03494
G1 X97.533 Y110.379 E.02599
G1 X98.266 Y110.996 E.03004
G1 X98.726 Y111.325 E.01773
G1 X99.202 Y111.625 E.01764
G1 X99.727 Y111.914 E.01879
G1 X100.412 Y112.227 E.02361
G1 X101.095 Y112.485 E.02289
G1 X101.86 Y112.74 E.02528
G1 X102.461 Y112.907 E.01956
G1 X103.592 Y113.182 E.03649
G1 X104.879 Y113.457 E.04126
G1 X107.047 Y113.872 E.06921
G1 X107.95 Y114.002 E.0286
G1 X108.877 Y114.071 E.02915
G1 X110.22 Y114.056 E.04211
G1 X111.202 Y113.959 E.03094
G1 X111.816 Y113.86 E.0195
G1 X112.634 Y113.682 E.02625
G1 X113.503 Y113.431 E.02836
G1 X114.103 Y113.22 E.01994
G1 X114.916 Y112.881 E.02762
G1 X115.722 Y112.478 E.02825
G1 X116.956 Y111.719 E.04542
G1 X118.148 Y110.786 E.04746
G1 X118.689 Y110.286 E.0231
G1 X119.123 Y109.84 E.01951
G1 X119.766 Y109.085 E.03109
G1 X120.252 Y108.446 E.02517
G1 X130.296 Y94.147 E.54789
G1 X130.611 Y93.721 E.01661
G1 X130.932 Y93.332 E.01581
G1 X131.287 Y92.94 E.01658
G1 X131.652 Y92.577 E.01614
G1 X132.028 Y92.241 E.01581
G1 X132.437 Y91.907 E.01656
G1 X132.854 Y91.602 E.0162
G1 X133.285 Y91.32 E.01615
G1 X134.177 Y90.827 E.03196
G1 X134.657 Y90.606 E.01657
G1 X135.612 Y90.254 E.03191
G1 X136.108 Y90.111 E.01619
G1 X136.61 Y89.994 E.01616
G1 X137.119 Y89.902 E.01622
G1 X137.644 Y89.835 E.01659
G1 X138.183 Y89.794 E.01695
G1 X138.713 Y89.781 E.01662
G1 X146.539 Y89.793 E.24538
G1 X148.119 Y89.813 E.04954
G1 X148.675 Y89.861 E.0175
G1 X149.183 Y89.932 E.01608
G1 X149.711 Y90.033 E.01686
G1 X150.254 Y90.168 E.01754
G1 X150.743 Y90.316 E.01602
G1 X151.249 Y90.499 E.01687
G1 X151.765 Y90.718 E.01758
G1 X152.249 Y90.953 E.01687
G1 X152.714 Y91.211 E.01667
G1 X153.147 Y91.481 E.016
G1 X153.609 Y91.803 E.01766
G1 X154.029 Y92.131 E.01671
G1 X154.412 Y92.464 E.01591
G1 X154.821 Y92.857 E.01778
G1 X155.196 Y93.26 E.01726
G1 X155.525 Y93.652 E.01605
G1 X155.848 Y94.079 E.01679
G1 X156.158 Y94.539 E.01739
G1 X156.421 Y94.975 E.01596
G1 X156.673 Y95.446 E.01675
G1 X156.899 Y95.929 E.01672
G1 X157.108 Y96.445 E.01746
G1 X157.281 Y96.945 E.01659
G1 X157.422 Y97.433 E.01593
G1 X157.549 Y97.976 E.01748
G1 X157.642 Y98.496 E.01656
G1 X157.705 Y98.999 E.01589
G1 X157.747 Y99.557 E.01755
G1 X157.759 Y100.063 E.01587
G1 X157.745 Y110.033 E.3126
G1 X157.729 Y110.583 E.01725
G1 X157.687 Y111.115 E.01673
G1 X157.617 Y111.645 E.01676
G1 X157.519 Y112.171 E.01678
G1 X157.393 Y112.69 E.01675
G1 X157.241 Y113.202 E.01675
G1 X157.063 Y113.706 E.01676
G1 X156.848 Y114.222 E.01753
G1 X156.617 Y114.703 E.01673
G1 X156.361 Y115.172 E.01675
G1 X156.094 Y115.607 E.016
G1 X155.777 Y116.068 E.01754
G1 X155.451 Y116.49 E.01672
G1 X155.104 Y116.895 E.01672
G1 X154.717 Y117.3 E.01756
G1 X154.346 Y117.651 E.01601
G1 X153.94 Y117.997 E.01673
G1 X153.516 Y118.322 E.01675
G1 X153.054 Y118.638 E.01755
G1 X152.619 Y118.903 E.01597
G1 X152.149 Y119.158 E.01677
G1 X151.667 Y119.388 E.01675
G1 X151.15 Y119.601 E.01753
G1 X150.646 Y119.778 E.01675
G1 X150.133 Y119.929 E.01677
G1 X149.637 Y120.047 E.01599
G1 X149.087 Y120.149 E.01754
G1 X148.558 Y120.217 E.01672
G1 X148.025 Y120.258 E.01676
G1 X147.475 Y120.272 E.01725
G1 X101.183 Y120.203 E1.45145
G1 X100.634 Y120.188 E.01722
G1 X100.101 Y120.145 E.01677
G1 X99.571 Y120.075 E.01676
G1 X99.046 Y119.977 E.01675
G1 X98.526 Y119.852 E.01677
G1 X98.014 Y119.7 E.01675
G1 X97.511 Y119.521 E.01674
G1 X96.995 Y119.307 E.01751
G1 X96.514 Y119.076 E.01673
G1 X96.044 Y118.819 E.0168
G1 X95.61 Y118.552 E.01598
G1 X95.149 Y118.235 E.01754
G1 X94.726 Y117.91 E.01673
G1 X94.32 Y117.562 E.01677
G1 X92.259 Y115.514 E.0911
G1 X92.29 Y94.388 E.66239
G1 X94.358 Y92.346 E.09112
G1 X94.764 Y92 E.01673
G1 X95.189 Y91.675 E.01678
G1 X95.63 Y91.373 E.01676
G1 X96.085 Y91.094 E.01673
G1 X96.555 Y90.839 E.01677
G1 X97.037 Y90.61 E.01673
G1 X97.554 Y90.396 E.01754
G1 X98.058 Y90.219 E.01675
G1 X98.547 Y90.075 E.01598
G1 X99.091 Y89.945 E.01754
G1 X99.616 Y89.849 E.01673
G1 X100.146 Y89.78 E.01676
G1 X100.674 Y89.739 E.0166
G1 X101.612 Y89.726 E.02941
G1 X108.99 Y89.737 E.23133
G1 X109.509 Y89.783 E.01634
M73 P1 R29
G1 X109.976 Y89.909 E.01517
G1 X110.405 Y90.111 E.01487
G1 X110.793 Y90.384 E.01488
G1 X111.129 Y90.72 E.0149
G1 X111.401 Y91.109 E.01488
G1 X111.605 Y91.548 E.01518
G1 X111.726 Y92.006 E.01485
G1 X111.771 Y92.526 E.01637
G1 X111.761 Y98.65 E.19201
M204 S1000
G1 X111.761 Y98.65 F10800
G1 X112.084 Y99.048
M204 S800
G1 F1200
G1 X112.039 Y99.086 E.00185
G1 X109.917 Y99.093 E.06653
G1 X109.717 Y99.007 E.00683
G1 X107.939 Y97.224 E.07895
G1 X107.303 Y96.713 E.02558
G1 X106.643 Y96.37 E.02332
G1 X106.016 Y96.177 E.02057
G1 X105.53 Y96.103 E.01541
G1 X104.029 Y96.084 E.04707
G1 X102.983 Y96.149 E.03286
G1 X102.413 Y96.24 E.0181
G1 X101.711 Y96.42 E.02272
G1 X101.126 Y96.611 E.0193
G1 X100.45 Y96.88 E.02281
G1 X99.803 Y97.229 E.02305
G1 X99.085 Y97.687 E.0267
G1 X98.633 Y98.041 E.018
G1 X97.886 Y98.748 E.03225
G1 X97.215 Y99.565 E.03315
G1 X96.652 Y100.459 E.03313
G1 X96.217 Y101.39 E.03222
G1 X95.894 Y102.381 E.03268
G1 X95.771 Y102.942 E.01801
G1 X95.646 Y103.961 E.03219
G1 X95.637 Y105.412 E.0455
G1 X95.726 Y106.244 E.02624
G1 X95.872 Y106.898 E.02101
G1 X96.231 Y107.908 E.03361
G1 X96.621 Y108.654 E.02639
G1 X97.239 Y109.52 E.03336
G1 X97.777 Y110.091 E.0246
G1 X98.486 Y110.69 E.0291
G1 X98.928 Y111.007 E.01705
G1 X99.385 Y111.296 E.01695
G1 X99.889 Y111.574 E.01805
G1 X100.555 Y111.878 E.02295
G1 X101.215 Y112.127 E.02212
G1 X101.961 Y112.376 E.02466
G1 X102.55 Y112.541 E.01918
G1 X103.681 Y112.816 E.03649
G1 X104.95 Y113.086 E.04068
G1 X107.102 Y113.498 E.0687
G1 X107.979 Y113.626 E.02779
G1 X108.873 Y113.693 E.02811
G1 X110.216 Y113.679 E.04211
G1 X111.142 Y113.587 E.02918
G1 X111.736 Y113.491 E.01887
G1 X112.53 Y113.319 E.02547
G1 X113.378 Y113.076 E.02766
G1 X113.959 Y112.871 E.01932
G1 X114.749 Y112.543 E.02682
G1 X115.526 Y112.156 E.02722
G1 X116.726 Y111.42 E.04414
G1 X117.892 Y110.508 E.04641
G1 X118.419 Y110.022 E.02248
G1 X118.839 Y109.591 E.01887
G1 X119.466 Y108.857 E.03027
G1 X119.943 Y108.229 E.02473
G1 X129.99 Y93.926 E.54804
G1 X130.314 Y93.488 E.01708
G1 X130.67 Y93.057 E.01753
G1 X131.014 Y92.679 E.01603
G1 X131.394 Y92.302 E.01678
G1 X131.811 Y91.929 E.01754
G1 X132.207 Y91.608 E.01598
G1 X132.64 Y91.292 E.01681
G1 X133.087 Y90.999 E.01676
G1 X133.57 Y90.717 E.01754
G1 X134.045 Y90.471 E.01677
G1 X134.509 Y90.259 E.01599
G1 X135.029 Y90.053 E.01754
G1 X135.536 Y89.881 E.01679
G1 X136.051 Y89.736 E.01678
G1 X136.572 Y89.616 E.01676
G1 X137.099 Y89.523 E.01678
G1 X137.606 Y89.459 E.01602
G1 X138.164 Y89.417 E.01755
G1 X138.708 Y89.404 E.01706
G1 X146.54 Y89.416 E.24557
G1 X148.15 Y89.437 E.05048
G1 X148.725 Y89.488 E.0181
G1 X149.252 Y89.561 E.01668
G1 X149.8 Y89.667 E.0175
G1 X150.362 Y89.806 E.01815
G1 X150.869 Y89.961 E.01662
G1 X151.394 Y90.151 E.01751
G1 X151.928 Y90.378 E.01819
G1 X152.429 Y90.622 E.01747
G1 X152.911 Y90.89 E.01729
G1 X153.36 Y91.17 E.01659
G1 X153.839 Y91.505 E.01833
G1 X154.274 Y91.845 E.01731
G1 X154.672 Y92.19 E.01651
G1 X155.095 Y92.598 E.01843
G1 X155.483 Y93.016 E.01788
G1 X155.825 Y93.423 E.01667
G1 X156.159 Y93.866 E.0174
G1 X156.48 Y94.343 E.01803
G1 X156.752 Y94.796 E.01657
G1 X157.013 Y95.284 E.01735
G1 X157.247 Y95.785 E.01734
G1 X157.464 Y96.32 E.0181
G1 X157.643 Y96.839 E.01721
G1 X157.788 Y97.345 E.0165
G1 X157.92 Y97.908 E.01813
G1 X158.016 Y98.448 E.0172
G1 X158.081 Y98.969 E.01646
G1 X158.124 Y99.548 E.0182
G1 X158.137 Y100.059 E.01603
G1 X158.122 Y110.038 E.31288
G1 X158.106 Y110.603 E.01772
G1 X158.062 Y111.155 E.01736
G1 X157.989 Y111.705 E.0174
G1 X157.887 Y112.249 E.01735
G1 X157.758 Y112.788 E.01738
G1 X157.6 Y113.319 E.01737
G1 X157.415 Y113.841 E.01736
G1 X157.192 Y114.376 E.01817
G1 X156.953 Y114.875 E.01735
G1 X156.687 Y115.362 E.0174
G1 X156.41 Y115.812 E.01657
G1 X156.082 Y116.29 E.01818
G1 X155.744 Y116.728 E.01735
G1 X155.384 Y117.149 E.01737
G1 X154.983 Y117.568 E.01818
G1 X154.598 Y117.932 E.01661
G1 X154.177 Y118.291 E.01735
G1 X153.737 Y118.627 E.01736
G1 X153.259 Y118.954 E.01816
G1 X152.807 Y119.23 E.01661
G1 X152.32 Y119.494 E.01737
G1 X151.82 Y119.732 E.01736
G1 X151.284 Y119.953 E.01818
G1 X150.762 Y120.137 E.01735
G1 X150.23 Y120.293 E.01738
G1 X149.715 Y120.416 E.0166
G1 X149.146 Y120.521 E.01814
G1 X148.597 Y120.592 E.01736
G1 X148.044 Y120.635 E.01739
G1 X147.48 Y120.649 E.01769
G1 X101.178 Y120.58 E1.45177
M73 Q2 S30
G1 X100.614 Y120.565 E.01769
M73 P2 R29
G1 X100.061 Y120.52 E.0174
G1 X99.512 Y120.448 E.01736
G1 X98.967 Y120.346 E.01738
G1 X98.428 Y120.216 E.01738
G1 X97.897 Y120.058 E.01737
G1 X97.375 Y119.873 E.01736
G1 X96.841 Y119.651 E.01813
G1 X96.342 Y119.411 E.01736
G1 X95.855 Y119.146 E.01738
G1 X95.404 Y118.869 E.01659
G1 X94.927 Y118.54 E.01817
G1 X94.488 Y118.202 E.01737
G1 X94.067 Y117.842 E.01737
G1 X91.881 Y115.67 E.09662
G1 X91.913 Y94.231 E.6722
G1 X94.106 Y92.066 E.09662
M73 Q2 S29
G1 X94.527 Y91.706 E.01737
G1 X94.967 Y91.37 E.01736
G1 X95.424 Y91.056 E.01739
G1 X95.897 Y90.767 E.01738
G1 X96.384 Y90.503 E.01737
G1 X96.884 Y90.265 E.01736
G1 X97.42 Y90.044 E.01818
G1 X97.942 Y89.86 E.01735
G1 X98.45 Y89.711 E.0166
G1 X99.013 Y89.576 E.01815
G1 X99.558 Y89.476 E.01737
G1 X100.107 Y89.405 E.01736
G1 X100.657 Y89.362 E.0173
G1 X101.61 Y89.349 E.02988
G1 X109.007 Y89.36 E.23193
G1 X109.575 Y89.41 E.01788
G1 X110.106 Y89.554 E.01725
G1 X110.595 Y89.783 E.01693
G1 X111.037 Y90.094 E.01695
G1 X111.419 Y90.478 E.01698
G1 X111.729 Y90.92 E.01693
G1 X111.961 Y91.42 E.01728
G1 X112.099 Y91.941 E.0169
G1 X112.148 Y92.51 E.01791
G1 X112.138 Y98.909 E.20064
G1 X112.123 Y99.006 E.00308
M204 S1000
G1 X112.123 Y99.006 F10800
G1 X112.332 Y99.349
M204 S800
;TYPE:External perimeter
G1 F1200
G1 X112.106 Y99.463 E.00794
G1 X110.494 Y99.468 E.05054
G1 X109.707 Y99.444 E.02469
G1 X109.481 Y99.305 E.00832
G1 X107.672 Y97.49 E.08035
G1 X107.125 Y97.045 E.02211
G1 X106.532 Y96.73 E.02105
G1 X105.905 Y96.537 E.02057
G1 X105.526 Y96.48 E.01202
G1 X104.024 Y96.462 E.0471
G1 X103.041 Y96.522 E.03088
G1 X102.507 Y96.605 E.01694
G1 X101.805 Y96.785 E.02272
G1 X101.264 Y96.962 E.01785
G1 X100.621 Y97.216 E.02168
G1 X100.004 Y97.548 E.02197
G1 X99.316 Y97.984 E.02554
G1 X98.891 Y98.316 E.01691
G1 X98.177 Y98.988 E.03074
G1 X97.533 Y99.767 E.03169
G1 X96.993 Y100.62 E.03165
G1 X96.575 Y101.508 E.03077
G1 X96.262 Y102.463 E.03151
G1 X96.146 Y102.99 E.01692
G1 X96.023 Y103.963 E.03075
G1 X96.015 Y105.436 E.04619
G1 X96.095 Y106.164 E.02296
G1 X96.227 Y106.772 E.01951
G1 X96.586 Y107.781 E.03358
G1 X96.929 Y108.436 E.02318
G1 X97.515 Y109.263 E.03178
G1 X98.021 Y109.804 E.02323
G1 X98.707 Y110.384 E.02817
G1 X99.13 Y110.689 E.01635
G1 X99.567 Y110.966 E.01622
G1 X100.052 Y111.233 E.01736
G1 X100.699 Y111.529 E.02231
G1 X101.335 Y111.77 E.02132
G1 X102.063 Y112.013 E.02406
G1 X102.639 Y112.174 E.01875
G1 X103.77 Y112.449 E.03649
G1 X105.021 Y112.716 E.04011
G1 X107.157 Y113.125 E.06819
G1 X108.008 Y113.25 E.02697
G1 X108.867 Y113.316 E.02701
G1 X110.212 Y113.302 E.04217
G1 X111.082 Y113.214 E.02742
G1 X111.657 Y113.122 E.01826
G1 X112.426 Y112.957 E.02466
G1 X113.253 Y112.72 E.02697
G1 X113.815 Y112.523 E.01867
G1 X114.582 Y112.205 E.02603
G1 X115.329 Y111.834 E.02615
G1 X116.495 Y111.122 E.04284
G1 X117.637 Y110.231 E.04542
G1 X118.15 Y109.759 E.02186
G1 X118.556 Y109.343 E.01823
G1 X119.166 Y108.629 E.02944
G1 X119.635 Y108.012 E.0243
G1 X129.684 Y93.705 E.54818
G1 X130.017 Y93.256 E.01753
G1 X130.385 Y92.81 E.01813
G1 X130.742 Y92.418 E.01662
G1 X131.135 Y92.028 E.01736
G1 X131.566 Y91.642 E.01814
G1 X131.977 Y91.309 E.01659
G1 X132.425 Y90.982 E.01739
G1 X132.888 Y90.678 E.01737
G1 X133.388 Y90.386 E.01815
G1 X133.88 Y90.132 E.01736
G1 X134.361 Y89.912 E.01658
G1 X134.899 Y89.699 E.01814
G1 X135.424 Y89.521 E.01738
G1 X135.957 Y89.37 E.01737
G1 X136.497 Y89.246 E.01737
G1 X137.043 Y89.15 E.01738
G1 X137.568 Y89.084 E.01659
G1 X138.145 Y89.04 E.01814
G1 X138.704 Y89.027 E.01753
G1 X146.54 Y89.038 E.24569
G1 X148.18 Y89.062 E.05143
G1 X148.775 Y89.114 E.01873
G1 X149.321 Y89.19 E.01728
G1 X149.889 Y89.3 E.01814
