; generated by PrusaSlicer 2.7.4 on 2024-05-11 at 12:32:53 UTC

; 

; external perimeters extrusion width = 0.45mm
; perimeters extrusion width = 0.45mm
; infill extrusion width = 0.45mm
; solid infill extrusion width = 0.45mm
; top infill extrusion width = 0.40mm
; first layer extrusion width = 0.42mm

M73 P0 R43
M73 Q0 S46
M201 X1000 Y1000 Z200 E5000 ; sets maximum accelerations, mm/sec^2
M203 X200 Y200 Z12 E120 ; sets maximum feedrates, mm / sec
M204 S1250 T1250 ; sets acceleration (S) and retract acceleration (R), mm/sec^2
M205 X8.00 Y8.00 Z0.40 E4.50 ; sets the jerk limits, mm/sec
M205 S0 T0 ; sets the minimum extruding and travel feed rate, mm/sec

; printing object spatula.stl id:0 copy 0
; stop printing object spatula.stl id:0 copy 0

;TYPE:Custom
M862.3 P "MK3S" ; printer model check
M862.1 P0.4 ; nozzle diameter check
G90 ; use absolute coordinates
M83 ; extruder relative mode
M104 S215 ; set extruder temp
M140 S60 ; set bed temp
M190 S60 ; wait for bed temp
M109 S215 ; wait for extruder temp
G28 W ; home all without mesh bed level
G80 X59.6011 Y75.4353 W129.846 H59.1294 ; mesh bed levelling

G1 Z0.2 F720
G1 Y-3 F1000 ; go outside print area
G92 E0
G1 X60 E9 F1000 ; intro line
G1 X100 E12.5 F1000 ; intro line

G92 E0
M221 S95

; Don't change E values below. Excessive value can damage the printer.

M907 E538 ; set extruder motor current
G21 ; set units to millimeters
G90 ; use absolute coordinates
M83 ; use relative distances for extrusion

M900 K0.05 ; Filament gcode LA 1.5
M900 K30 ; Filament gcode LA 1.0




M107
;LAYER_CHANGE
;Z:0.2
;HEIGHT:0.2
G1 E-.8 F2100
G1 Z.6 F720
G1 X60.387 Y76.44 F10800
G1 Z.2 F720
G1 E.8 F2100
M204 S800
;TYPE:Skirt/Brim
;WIDTH:0.42
G1 F1200
G1 X62.18 Y75.624 E.06177
G1 X85.272 Y75.624 E.72403
G1 X87.213 Y75.79 E.06108
G1 X180.735 Y90.391 E2.96784
G1 X182.409 Y90.826 E.05423
G1 X183.424 Y91.248 E.03447
G1 X184.797 Y92.038 E.04967
G1 X186.326 Y93.321 E.06258
G1 X187.342 Y94.534 E.04961
G1 X187.934 Y95.461 E.03449
G1 X188.432 Y96.482 E.03562
G1 X188.88 Y97.748 E.04211
G1 X189.118 Y98.819 E.0344
G1 X189.257 Y100.396 E.04964
G1 X189.259 Y109.501 E.28548
G1 X189.118 Y111.18 E.05283
G1 X188.674 Y112.908 E.05594
G1 X188.253 Y113.926 E.03454
G1 X187.461 Y115.297 E.04964
G1 X186.791 Y116.171 E.03453
G1 X185.669 Y117.292 E.04973
G1 X184.8 Y117.959 E.03435
G1 X183.43 Y118.751 E.04962
G1 X182.413 Y119.172 E.03451
G1 X180.735 Y119.609 E.05437
G1 X86.626 Y134.296 E2.98644
G1 X85.272 Y134.376 E.04253
M73 Q0 S45
G1 X62.18 Y134.376 E.72403
G1 X60.872 Y133.985 E.0428
G1 X59.824 Y132.317 E.06177
G1 X59.79 Y131.901 E.01309
G1 X59.824 Y77.683 E1.69997
G1 X60.362 Y76.494 E.04092
M204 S1000
;WIPE_START
G1 F8640
G1 X60.387 Y76.44 E-.01374
G1 X62.18 Y75.624 E-.45487
G1 X63.615 Y75.624 E-.33139
;WIPE_END
G1 Z.6 F720
; printing object spatula.stl id:0 copy 0
G1 X62.954 Y78.788 F10800
G1 Z.2 F720
G1 E.8 F2100
M204 S800
;TYPE:Perimeter
;WIDTH:0.419999
G1 F1200
G1 X85.41 Y78.795 E.70409
G1 X86.65 Y78.912 E.03905
G1 X98.157 Y90.419 E.51024
G1 X98.981 Y91.178 E.03513
M73 P1 R43
G1 X99.812 Y91.808 E.0327
G1 X100.598 Y92.304 E.02914
G1 X101.515 Y92.774 E.03231
G1 X102.386 Y93.134 E.02955
G1 X103.325 Y93.427 E.03084
G1 X104.29 Y93.639 E.03098
G1 X105.29 Y93.767 E.03161
G1 X106.223 Y93.808 E.02928
G1 X178.46 Y93.808 E2.26494
G1 X179.024 Y93.809 E.01768
M73 Q1 S45
G1 X179.666 Y93.844 E.02016
G1 X180.238 Y93.926 E.01812
G1 X180.811 Y94.06 E.01845
G1 X181.367 Y94.242 E.01834
G1 X181.896 Y94.47 E.01806
G1 X182.456 Y94.774 E.01998
G1 X182.957 Y95.108 E.01888
G1 X183.363 Y95.43 E.01625
G1 X183.812 Y95.853 E.01934
G1 X184.174 Y96.26 E.01708
G1 X184.526 Y96.729 E.01839
G1 X184.834 Y97.227 E.01836
G1 X185.111 Y97.779 E.01936
G1 X185.313 Y98.286 E.01711
G1 X185.494 Y98.903 E.02016
G1 X185.61 Y99.482 E.01851
G1 X185.671 Y99.997 E.01626
G1 X185.695 Y100.559 E.01764
G1 X185.695 Y109.483 E.27981
G1 X185.668 Y110.083 E.01883
G1 X185.591 Y110.66 E.01825
G1 X185.464 Y111.233 E.0184
G1 X185.289 Y111.79 E.01831
G1 X185.067 Y112.328 E.01825
G1 X184.797 Y112.844 E.01826
G1 X184.459 Y113.369 E.01958
G1 X184.127 Y113.802 E.01711
G1 X183.734 Y114.233 E.01829
G1 X183.303 Y114.626 E.01829
G1 X182.839 Y114.982 E.01834
G1 X182.346 Y115.295 E.01831
G1 X181.828 Y115.566 E.01833
G1 X181.29 Y115.788 E.01825
G1 X180.734 Y115.964 E.01829
G1 X180.162 Y116.09 E.01836
G1 X179.584 Y116.167 E.01828
G1 X178.984 Y116.194 E.01883
G1 X106.223 Y116.194 E2.28137
G1 X105.22 Y116.239 E.03148
G1 X104.238 Y116.37 E.03106
G1 X103.222 Y116.603 E.03268
G1 X102.298 Y116.902 E.03045
G1 X101.427 Y117.263 E.02956
G1 X100.555 Y117.72 E.03087
G1 X99.722 Y118.252 E.03099
G1 X98.942 Y118.855 E.03091
G1 X98.236 Y119.502 E.03003
G1 X86.65 Y131.089 E.51376
G1 X86.23 Y131.156 E.01334
G1 X85.253 Y131.212 E.03068
G1 X62.954 Y131.212 E.69917
G1 X62.954 Y78.848 E1.64183
M204 S1000
G1 X62.954 Y78.848 F10800
G1 X62.577 Y78.411
M204 S800
;TYPE:External perimeter
G1 F1200
G1 X85.514 Y78.418 E.71917
G1 X86.27 Y78.469 E.02376
G1 X86.83 Y78.559 E.01778
G1 X98.509 Y90.237 E.51784
G1 X99.21 Y90.878 E.02978
G1 X100.014 Y91.49 E.03168
G1 X100.772 Y91.97 E.02813
G1 X101.66 Y92.426 E.0313
G1 X102.499 Y92.774 E.02848
G1 X103.407 Y93.059 E.02984
G1 X104.339 Y93.266 E.02993
G1 X105.307 Y93.39 E.0306
G1 X106.223 Y93.431 E.02875
G1 X178.993 Y93.431 E2.28165
G1 X179.618 Y93.457 E.01961
G1 X180.228 Y93.538 E.01929
G1 X180.832 Y93.671 E.01939
G1 X181.419 Y93.855 E.01929
G1 X181.988 Y94.093 E.01934
G1 X182.535 Y94.378 E.01934
G1 X183.056 Y94.709 E.01935
G1 X183.545 Y95.085 E.01934
G1 X183.957 Y95.465 E.01757
G1 X184.352 Y95.886 E.0181
G1 X184.67 Y96.286 E.01602
G1 X184.957 Y96.704 E.0159
G1 X185.271 Y97.252 E.0198
G1 X185.489 Y97.706 E.01579
G1 X185.672 Y98.173 E.01573
G1 X185.862 Y98.821 E.02117
G1 X185.984 Y99.432 E.01954
G1 X186.048 Y99.98 E.0173
G1 X186.072 Y100.559 E.01817
G1 X186.072 Y109.492 E.28009
G1 X186.044 Y110.116 E.01958
G1 X185.963 Y110.726 E.01929
G1 X185.828 Y111.33 E.01941
G1 X185.644 Y111.919 E.01935
G1 X185.409 Y112.488 E.0193
G1 X185.124 Y113.033 E.01928
G1 X184.768 Y113.586 E.02062
G1 X184.416 Y114.045 E.01814
G1 X184.001 Y114.5 E.01931
G1 X183.546 Y114.915 E.01931
G1 X183.056 Y115.291 E.01937
G1 X182.535 Y115.622 E.01935
G1 X181.988 Y115.908 E.01935
G1 X181.419 Y116.143 E.0193
G1 X180.831 Y116.329 E.01934
G1 X180.228 Y116.462 E.01936
G1 X179.617 Y116.543 E.01933
G1 X178.993 Y116.571 E.01958
G1 X106.223 Y116.571 E2.28165
G1 X105.269 Y116.613 E.02994
M73 P1 R42
G1 X104.322 Y116.738 E.02995
G1 X103.336 Y116.963 E.03171
G1 X102.442 Y117.25 E.02944
G1 X101.602 Y117.597 E.0285
G1 X100.757 Y118.039 E.0299
G1 X99.952 Y118.551 E.02991
G1 X99.197 Y119.133 E.02989
G1 X98.503 Y119.769 E.02952
G1 X86.83 Y131.443 E.51762
G1 X86.27 Y131.531 E.01777
M73 P2 R42
G1 X85.264 Y131.589 E.03159
G1 X62.577 Y131.589 E.71133
G1 X62.577 Y78.471 E1.66547
M204 S1000
;WIPE_START
G1 F8640
M73 Q2 S45
G1 X62.577 Y78.411 E-.01385
G1 X65.982 Y78.412 E-.78615
;WIPE_END
G1 Z.6 F720
G1 X179.262 Y97.496 F10800
G1 Z.2 F720
G1 E.8 F2100
M204 S800
;TYPE:Perimeter
G1 F1200
G1 X179.859 Y97.611 E.01906
G1 X180.212 Y97.74 E.01178
G1 X180.685 Y97.984 E.01669
G1 X181.102 Y98.324 E.01687
G1 X181.451 Y98.724 E.01664
G1 X181.723 Y99.177 E.01657
G1 X181.937 Y99.805 E.0208
G1 X182.025 Y100.442 E.02016
G1 X182.027 Y109.505 E.28416
G1 X181.983 Y110.024 E.01633
G1 X181.853 Y110.512 E.01583
G1 X181.645 Y110.97 E.01577
G1 X181.348 Y111.408 E.01659
G1 X180.983 Y111.785 E.01645
G1 X180.554 Y112.095 E.0166
G1 X180.082 Y112.325 E.01646
G1 X179.573 Y112.471 E.0166
G1 X179.051 Y112.526 E.01646
G1 X178.525 Y112.488 E.01654
G1 X177.79 Y112.271 E.02403
G1 X177.306 Y112.006 E.0173
G1 X176.898 Y111.675 E.01647
G1 X176.552 Y111.278 E.01651
G1 X176.202 Y110.64 E.02282
G1 X176.031 Y110.08 E.01836
G1 X175.977 Y109.554 E.01658
G1 X175.975 Y100.497 E.28398
G1 X176.03 Y99.927 E.01795
G1 X176.175 Y99.419 E.01656
G1 X176.405 Y98.944 E.01655
G1 X176.716 Y98.518 E.01654
G1 X177.093 Y98.152 E.01647
G1 X177.53 Y97.857 E.01653
G1 X178.014 Y97.64 E.01663
G1 X178.545 Y97.512 E.01713
G1 X179.191 Y97.482 E.02028
G1 X179.203 Y97.484 E.00038
M204 S1000
G1 X179.203 Y97.484 F10800
G1 X179.273 Y97.872
M204 S800
;TYPE:External perimeter
G1 F1200
G1 X179.777 Y97.979 E.01615
G1 X180.041 Y98.076 E.00882
G1 X180.492 Y98.309 E.01592
G1 X180.881 Y98.633 E.01587
G1 X181.182 Y98.994 E.01474
G1 X181.448 Y99.514 E.01831
G1 X181.602 Y99.995 E.01584
G1 X181.65 Y100.495 E.01575
G1 X181.65 Y109.505 E.2825
G1 X181.608 Y109.976 E.01483
G1 X181.485 Y110.422 E.01451
G1 X181.287 Y110.839 E.01447
G1 X181.019 Y111.216 E.0145
G1 X180.691 Y111.54 E.01446
G1 X180.311 Y111.802 E.01447
G1 X179.922 Y111.984 E.01347
G1 X179.443 Y112.113 E.01555
G1 X178.985 Y112.15 E.01441
G1 X178.518 Y112.105 E.01471
G1 X177.903 Y111.911 E.02022
G1 X177.469 Y111.661 E.0157
G1 X177.117 Y111.363 E.01446
G1 X176.817 Y111.001 E.01474
G1 X176.535 Y110.465 E.01899
G1 X176.394 Y109.978 E.0159
G1 X176.352 Y109.506 E.01486
G1 X176.352 Y100.497 E.28247
G1 X176.394 Y100.025 E.01486
G1 X176.517 Y99.578 E.01454
G1 X176.714 Y99.162 E.01443
G1 X176.983 Y98.784 E.01455
G1 X177.309 Y98.461 E.01439
G1 X177.69 Y98.198 E.01452
G1 X178.111 Y98.005 E.01452
G1 X178.563 Y97.889 E.01463
G1 X179.208 Y97.859 E.02025
G1 X179.214 Y97.86 E.00019
M204 S1000
;WIPE_START
G1 F8640
G1 X179.273 Y97.872 E-.0139
G1 X179.777 Y97.979 E-.11897
G1 X180.041 Y98.076 E-.06494
G1 X180.492 Y98.309 E-.11721
G1 X180.881 Y98.633 E-.1169
G1 X181.182 Y98.994 E-.10853
G1 X181.448 Y99.514 E-.13487
G1 X181.602 Y99.995 E-.11662
G1 X181.605 Y100.03 E-.00806
;WIPE_END
G1 Z.6 F720
G1 X184.523 Y97.04 F10800
G1 Z.2 F720
G1 E.8 F2100
M204 S800
;TYPE:Solid infill
;WIDTH:0.421275
G1 F1200
G1 X183.509 Y96.026 E.04511
G1 X183.083 Y95.633 E.01823
G1 X182.645 Y95.296 E.01739
G1 X182.177 Y94.999 E.01744
G1 X181.697 Y94.75 E.01701
G1 X184.748 Y97.8 E.13572
G1 X184.969 Y98.325 E.01792
G1 X185.075 Y98.662 E.01111
G1 X180.836 Y94.423 E.1886
G1 X180.647 Y94.364 E.00623
G1 X180.127 Y94.249 E.01675
G1 X185.252 Y99.374 E.22802
G1 X185.331 Y99.989 E.01951
G1 X179.512 Y94.17 E.2589
G1 X178.955 Y94.147 E.01754
G1 X185.355 Y100.548 E.28477
G1 X185.355 Y101.083 E.01683
G1 X178.42 Y94.147 E.30857
G1 X177.885 Y94.147 E.01683
G1 X185.355 Y101.618 E.33237
G1 X185.355 Y102.153 E.01683
G1 X177.35 Y94.147 E.35618
G1 X176.814 Y94.147 E.01686
G1 X179.962 Y97.295 E.14006
G1 X179.405 Y97.162 E.01802
G1 X179.283 Y97.151 E.00385
G1 X176.279 Y94.147 E.13365
G1 X175.744 Y94.147 E.01683
G1 X178.763 Y97.166 E.13432
G1 X178.418 Y97.184 E.01087
G1 X178.282 Y97.22 E.00443
G1 X175.209 Y94.147 E.13672
G1 X174.674 Y94.147 E.01683
G1 X177.865 Y97.338 E.14197
G1 X177.494 Y97.502 E.01276
G1 X174.139 Y94.147 E.14927
G1 X173.604 Y94.147 E.01683
G1 X177.161 Y97.704 E.15826
G1 X176.846 Y97.925 E.01211
G1 X173.069 Y94.147 E.16807
G1 X172.534 Y94.147 E.01683
G1 X176.574 Y98.188 E.17977
G1 X176.323 Y98.472 E.01192
G1 X171.999 Y94.147 E.1924
G1 X171.464 Y94.147 E.01683
G1 X176.106 Y98.789 E.20653
G1 X175.93 Y99.149 E.01261
G1 X170.929 Y94.147 E.22252
G1 X170.394 Y94.147 E.01683
G1 X175.788 Y99.542 E.24001
G1 X175.699 Y99.849 E.01006
G1 X175.686 Y99.975 E.00399
G1 X169.859 Y94.147 E.25928
G1 X169.323 Y94.147 E.01686
G1 X175.638 Y100.462 E.28096
G1 X175.635 Y100.994 E.01674
G1 X168.788 Y94.147 E.30463
G1 X168.253 Y94.147 E.01683
G1 X175.635 Y101.529 E.32844
G1 X175.635 Y102.064 E.01683
G1 X167.718 Y94.147 E.35224
G1 X167.183 Y94.147 E.01683
G1 X175.635 Y102.599 E.37604
G1 X175.635 Y103.135 E.01686
G1 X166.648 Y94.147 E.39987
G1 X166.113 Y94.147 E.01683
G1 X175.635 Y103.67 E.42367
G1 X175.635 Y104.205 E.01683
G1 X165.578 Y94.147 E.44747
G1 X165.043 Y94.147 E.01683
G1 X175.635 Y104.74 E.47128
G1 X175.635 Y105.275 E.01683
G1 X164.508 Y94.147 E.49508
G1 X163.973 Y94.147 E.01683
M73 Q2 S44
G1 X175.635 Y105.81 E.51888
G1 X175.635 Y106.345 E.01683
G1 X163.438 Y94.147 E.54269
G1 X162.903 Y94.147 E.01683
M73 P3 R42
G1 X175.635 Y106.88 E.56649
G1 X175.635 Y107.415 E.01683
G1 X162.367 Y94.147 E.59032
G1 X161.832 Y94.147 E.01683
G1 X175.635 Y107.95 E.61412
G1 X175.635 Y108.485 E.01683
G1 X161.297 Y94.147 E.63792
G1 X160.762 Y94.147 E.01683
M73 Q3 S44
G1 X175.635 Y109.02 E.66172
G1 X175.64 Y109.56 E.01699
G1 X160.227 Y94.147 E.68575
G1 X159.692 Y94.147 E.01683
G1 X175.957 Y110.412 E.72366
M204 S1000
;WIPE_START
G1 F8640
G1 X173.507 Y107.962 E-.8
;WIPE_END
G1 Z.6 F720
G1 X185.525 Y102.858 F10800
G1 Z.2 F720
G1 E.8 F2100
M204 S800
G1 F1200
G1 X182.207 Y99.54 E.14762
G1 X182.302 Y99.842 E.00996
G1 X182.338 Y100.206 E.01151
G1 X185.355 Y103.223 E.13423
G1 X185.355 Y103.758 E.01683
G1 X182.366 Y100.769 E.13299
G1 X182.366 Y101.304 E.01683
G1 X185.355 Y104.293 E.13299
G1 X185.355 Y104.828 E.01683
G1 X182.366 Y101.84 E.13296
G1 X182.366 Y102.375 E.01683
G1 X185.355 Y105.363 E.13296
G1 X185.355 Y105.899 E.01686
G1 X182.366 Y102.91 E.13299
G1 X182.366 Y103.445 E.01683
G1 X185.355 Y106.434 E.13299
G1 X185.355 Y106.969 E.01683
G1 X182.366 Y103.98 E.13299
G1 X182.366 Y104.515 E.01683
G1 X185.355 Y107.504 E.13299
G1 X185.355 Y108.039 E.01683
G1 X182.366 Y105.05 E.13299
G1 X182.366 Y105.585 E.01683
G1 X185.355 Y108.574 E.13299
G1 X185.355 Y109.109 E.01683
G1 X182.366 Y106.12 E.13299
G1 X182.366 Y106.655 E.01683
G1 X185.348 Y109.637 E.13267
G1 X185.318 Y110.142 E.01592
G1 X182.366 Y107.19 E.13134
G1 X182.366 Y107.725 E.01683
G1 X185.254 Y110.613 E.12849
G1 X185.157 Y111.051 E.01411
G1 X182.366 Y108.26 E.12418
G1 X182.366 Y108.795 E.01683
G1 X185.035 Y111.464 E.11875
G1 X184.894 Y111.858 E.01317
G1 X182.366 Y109.331 E.11245
G1 X182.339 Y109.838 E.01597
G1 X184.734 Y112.233 E.10656
G1 X184.55 Y112.584 E.01247
G1 X182.258 Y110.293 E.10195
G1 X182.14 Y110.71 E.01363
G1 X184.347 Y112.916 E.09817
G1 X184.182 Y113.173 E.00961
G1 X184.133 Y113.237 E.00254
G1 X181.965 Y111.069 E.09646
G1 X181.88 Y111.242 E.00606
G1 X181.765 Y111.404 E.00625
G1 X183.9 Y113.54 E.09501
G1 X183.866 Y113.584 E.00175
G1 X183.648 Y113.823 E.01018
G1 X181.535 Y111.709 E.09403
G1 X181.269 Y111.979 E.01192
G1 X183.383 Y114.093 E.09406
G1 X183.104 Y114.348 E.01189
G1 X180.967 Y112.212 E.09506
G1 X180.651 Y112.431 E.0121
G1 X182.803 Y114.582 E.09572
G1 X182.488 Y114.803 E.01211
G1 X180.286 Y112.601 E.09797
G1 X180.153 Y112.664 E.00463
G1 X179.886 Y112.736 E.0087
G1 X182.16 Y115.01 E.10117
G1 X181.809 Y115.194 E.01247
G1 X179.444 Y112.829 E.10522
G1 X178.944 Y112.864 E.01577
G1 X181.44 Y115.36 E.11105
G1 X181.052 Y115.508 E.01306
G1 X178.087 Y112.542 E.13194
M204 S1000
;WIPE_START
G1 F8640
G1 X180.537 Y114.992 E-.8
;WIPE_END
G1 Z.6 F720
G1 X180.781 Y115.771 F10800
G1 Z.2 F720
G1 E.8 F2100
M204 S800
G1 F1200
G1 X177.54 Y112.53 E.1442
G1 X177.016 Y112.217 E.0192
G1 X176.577 Y111.834 E.01833
G1 X176.287 Y111.49 E.01415
G1 X176.187 Y111.342 E.00562
G1 X176.005 Y110.995 E.01233
G1 X159.157 Y94.147 E.7496
G1 X158.622 Y94.147 E.01683
G1 X180.207 Y115.733 E.96037
G1 X179.743 Y115.804 E.01477
G1 X158.087 Y94.147 E.96353
G1 X157.552 Y94.147 E.01683
G1 X179.247 Y115.842 E.96525
G1 X178.724 Y115.855 E.01646
G1 X157.017 Y94.147 E.9658
G1 X156.482 Y94.147 E.01683
G1 X178.189 Y115.855 E.9658
G1 X177.654 Y115.855 E.01683
G1 X155.947 Y94.147 E.9658
G1 X155.411 Y94.147 E.01686
M73 P4 R42
G1 X177.119 Y115.855 E.96582
G1 X176.584 Y115.855 E.01683
G1 X154.876 Y94.147 E.96582
G1 X154.341 Y94.147 E.01683
G1 X176.049 Y115.855 E.96582
G1 X175.514 Y115.855 E.01683
M73 P4 R41
G1 X153.806 Y94.147 E.96582
M73 Q4 S44
G1 X153.271 Y94.147 E.01683
G1 X174.979 Y115.855 E.96582
G1 X174.443 Y115.855 E.01686
G1 X152.736 Y94.147 E.9658
G1 X152.201 Y94.147 E.01683
G1 X173.908 Y115.855 E.9658
G1 X173.373 Y115.855 E.01683
G1 X151.666 Y94.147 E.9658
G1 X151.131 Y94.147 E.01683
G1 X172.838 Y115.855 E.9658
G1 X172.303 Y115.855 E.01683
G1 X150.596 Y94.147 E.9658
G1 X150.061 Y94.147 E.01683
G1 X171.768 Y115.855 E.9658
G1 X171.233 Y115.855 E.01683
G1 X149.526 Y94.147 E.9658
G1 X148.991 Y94.147 E.01683
G1 X170.698 Y115.855 E.9658
G1 X170.163 Y115.855 E.01683
G1 X148.456 Y94.147 E.9658
G1 X147.92 Y94.147 E.01686
G1 X169.628 Y115.855 E.96582
G1 X169.093 Y115.855 E.01683
G1 X147.385 Y94.147 E.96582
