; generated by PrusaSlicer 2.7.4 on 2024-05-16 at 05:45:47 UTC

; 

; external perimeters extrusion width = 0.60mm
; perimeters extrusion width = 0.50mm
; infill extrusion width = 0.50mm
; solid infill extrusion width = 0.50mm
; top infill extrusion width = 0.45mm
; first layer extrusion width = 0.42mm

M73 P0 R9
M73 Q0 S10
M201 X1000 Y1000 Z200 E5000 ; sets maximum accelerations, mm/sec^2
M203 X200 Y200 Z12 E120 ; sets maximum feedrates, mm / sec
M204 S1250 T1250 ; sets acceleration (S) and retract acceleration (R), mm/sec^2
M205 X8.00 Y8.00 Z0.40 E4.50 ; sets the jerk limits, mm/sec
M205 S0 T0 ; sets the minimum extruding and travel feed rate, mm/sec

; printing object stringing_test.stl id:0 copy 0
; stop printing object stringing_test.stl id:0 copy 0

;TYPE:Custom
M862.3 P "MK3S" ; printer model check
M862.1 P0.4 ; nozzle diameter check
G90 ; use absolute coordinates
M83 ; extruder relative mode
M104 S215 ; set extruder temp
M140 S60 ; set bed temp
M190 S60 ; wait for bed temp
M109 S215 ; wait for extruder temp
G28 W ; home all without mesh bed level
G80 X102.057 Y94.5573 W45.8854 H20.8854 ; mesh bed levelling

G1 Z0.2 F720
G1 Y-3 F1000 ; go outside print area
G92 E0
G1 X60 E9 F1000 ; intro line
G1 X100 E12.5 F1000 ; intro line

G92 E0
M221 S95

; Don't change E values below. Excessive value can damage the printer.

M907 E538 ; set extruder motor current
G21 ; set units to millimeters
G90 ; use absolute coordinates
M83 ; use relative distances for extrusion

M900 K0.05 ; Filament gcode LA 1.5
M900 K30 ; Filament gcode LA 1.0




M107
;LAYER_CHANGE
;Z:0.2
;HEIGHT:0.2
G1 E-.8 F2100
M73 P1 R9
M73 Q1 S9
G1 Z.6 F720
G1 X102.639 Y96.083 F10800
G1 Z.2 F720
G1 E.8 F2100
M204 S800
;TYPE:Skirt/Brim
;WIDTH:0.42
G1 F1200
G1 X103.705 Y95.069 E.04613
G1 X105 Y94.746 E.04185
G1 X145 Y94.746 E1.25417
G1 X146.417 Y95.139 E.04611
G1 X147.431 Y96.205 E.04613
G1 X147.754 Y97.5 E.04185
G1 X147.754 Y112.5 E.47031
G1 X147.361 Y113.917 E.04611
G1 X146.295 Y114.931 E.04613
G1 X145 Y115.254 E.04185
G1 X105 Y115.254 E1.25417
G1 X103.583 Y114.861 E.04611
M73 P2 R9
M73 Q2 S9
G1 X102.569 Y113.795 E.04613
G1 X102.246 Y112.5 E.04185
G1 X102.246 Y97.5 E.47031
G1 X102.623 Y96.14 E.04425
M204 S1000
G1 X102.623 Y96.14 F10800
G1 X102.997 Y96.252
M204 S800
G1 F1200
G1 X103.015 Y96.193 E.00193
G1 X104.06 Y95.317 E.04275
G1 X105 Y95.123 E.03009
G1 X145 Y95.123 E1.25417
G1 X146.307 Y95.515 E.04278
G1 X147.183 Y96.56 E.04275
G1 X147.377 Y97.5 E.03009
G1 X147.377 Y112.5 E.47031
G1 X146.985 Y113.807 E.04278
G1 X145.94 Y114.683 E.04275
G1 X145 Y114.877 E.03009
G1 X105 Y114.877 E1.25417
G1 X103.693 Y114.485 E.04278
M73 P3 R9
M73 Q3 S9
G1 X102.817 Y113.44 E.04275
G1 X102.623 Y112.5 E.03009
G1 X102.623 Y97.5 E.47031
G1 X102.979 Y96.31 E.03895
M204 S1000
;WIPE_START
G1 F8640
G1 X102.997 Y96.252 E-.01402
G1 X103.015 Y96.193 E-.01424
G1 X104.06 Y95.317 E-.31486
G1 X105 Y95.123 E-.22162
G1 X106.019 Y95.123 E-.23526
;WIPE_END
G1 Z.6 F720
; printing object stringing_test.stl id:0 copy 0
G1 X144.213 Y111.713 F10800
G1 Z.2 F720
G1 E.8 F2100
M204 S800
;TYPE:Perimeter
;WIDTH:0.419999
G1 F1200
G1 X105.787 Y111.713 E1.20482
G1 X105.787 Y98.287 E.42096
G1 X144.213 Y98.287 E1.20482
G1 X144.213 Y105 E.21048
M73 P4 R9
M73 Q4 S9
G1 X144.213 Y111.653 E.2086
M204 S1000
G1 X144.59 Y112.09 F10800
M204 S800
;TYPE:External perimeter
G1 F1200
G1 X105.41 Y112.09 E1.22846
G1 X105.41 Y97.91 E.4446
G1 X144.59 Y97.91 E1.22846
G1 X144.59 Y105 E.2223
M73 P5 R9
M73 Q5 S9
G1 X144.59 Y112.03 E.22042
M204 S1000
;WIPE_START
G1 F8640
G1 X144.59 Y112.09 E-.01385
G1 X141.185 Y112.09 E-.78615
;WIPE_END
G1 Z.6 F720
G1 X143.28 Y98.457 F10800
G1 Z.2 F720
G1 E.8 F2100
M204 S800
;TYPE:Solid infill
;WIDTH:0.420399
G1 F1200
G1 X143.874 Y99.05 E.02634
G1 X143.874 Y99.584 E.01676
G1 X142.916 Y98.626 E.04252
G1 X142.382 Y98.626 E.01676
G1 X143.874 Y100.118 E.06623
G1 X143.874 Y100.652 E.01676
G1 X141.848 Y98.626 E.08993
G1 X141.314 Y98.626 E.01676
G1 X143.874 Y101.186 E.11363
G1 X143.874 Y101.719 E.01673
G1 X140.781 Y98.626 E.13729
G1 X140.247 Y98.626 E.01676
G1 X143.874 Y102.253 E.161
G1 X143.874 Y102.787 E.01676
G1 X139.713 Y98.626 E.1847
G1 X139.179 Y98.626 E.01676
G1 X143.874 Y103.321 E.2084
G1 X143.874 Y103.855 E.01676
G1 X138.645 Y98.626 E.23211
G1 X138.111 Y98.626 E.01676
G1 X143.874 Y104.389 E.25581
G1 X143.874 Y104.922 E.01673
G1 X137.578 Y98.626 E.27947
G1 X137.044 Y98.626 E.01676
G1 X143.874 Y105.456 E.30317
G1 X143.874 Y105.99 E.01676
G1 X136.51 Y98.626 E.32688
G1 X135.976 Y98.626 E.01676
M73 P6 R9
M73 Q6 S9
G1 X143.874 Y106.524 E.35058
G1 X143.874 Y107.058 E.01676
G1 X135.442 Y98.626 E.37428
G1 X134.908 Y98.626 E.01676
G1 X143.874 Y107.592 E.39799
G1 X143.874 Y108.125 E.01673
G1 X134.375 Y98.626 E.42165
G1 X133.841 Y98.626 E.01676
G1 X143.874 Y108.659 E.44535
G1 X143.874 Y109.193 E.01676
G1 X133.307 Y98.626 E.46905
G1 X132.773 Y98.626 E.01676
G1 X143.874 Y109.727 E.49276
G1 X143.874 Y110.261 E.01676
G1 X132.239 Y98.626 E.51646
G1 X131.705 Y98.626 E.01676
M73 P7 R9
M73 Q7 S9
G1 X143.874 Y110.795 E.54017
G1 X143.874 Y111.328 E.01673
G1 X131.172 Y98.626 E.56382
G1 X130.638 Y98.626 E.01676
G1 X143.385 Y111.374 E.56584
G1 X142.851 Y111.374 E.01676
G1 X130.104 Y98.626 E.56584
G1 X129.57 Y98.626 E.01676
G1 X142.317 Y111.374 E.56584
G1 X141.783 Y111.374 E.01676
G1 X129.036 Y98.626 E.56584
G1 X128.502 Y98.626 E.01676
G1 X141.25 Y111.374 E.56587
G1 X140.716 Y111.374 E.01676
M73 P8 R9
M73 Q8 S9
G1 X127.969 Y98.626 E.56584
G1 X127.435 Y98.626 E.01676
G1 X140.182 Y111.374 E.56584
G1 X139.648 Y111.374 E.01676
G1 X126.901 Y98.626 E.56584
G1 X126.367 Y98.626 E.01676
G1 X139.114 Y111.374 E.56584
G1 X138.58 Y111.374 E.01676
G1 X125.833 Y98.626 E.56584
G1 X125.299 Y98.626 E.01676
G1 X138.046 Y111.374 E.56584
G1 X137.513 Y111.374 E.01673
M73 P9 R9
M73 Q9 S9
G1 X124.766 Y98.626 E.56584
G1 X124.232 Y98.626 E.01676
G1 X136.979 Y111.374 E.56584
G1 X136.445 Y111.374 E.01676
G1 X123.698 Y98.626 E.56584
G1 X123.164 Y98.626 E.01676
G1 X135.911 Y111.374 E.56584
G1 X135.377 Y111.374 E.01676
M73 P9 R8
G1 X122.63 Y98.626 E.56584
G1 X122.096 Y98.626 E.01676
G1 X134.843 Y111.374 E.56584
G1 X134.31 Y111.374 E.01673
M73 P10 R8
G1 X121.563 Y98.626 E.56584
G1 X121.029 Y98.626 E.01676
M73 Q10 S9
G1 X133.776 Y111.374 E.56584
G1 X133.242 Y111.374 E.01676
G1 X120.495 Y98.626 E.56584
G1 X119.961 Y98.626 E.01676
G1 X132.708 Y111.374 E.56584
G1 X132.174 Y111.374 E.01676
G1 X119.427 Y98.626 E.56584
G1 X118.893 Y98.626 E.01676
G1 X131.64 Y111.374 E.56584
G1 X131.107 Y111.374 E.01673
M73 Q10 S8
G1 X118.36 Y98.626 E.56584
G1 X117.826 Y98.626 E.01676
M73 P11 R8
M73 Q11 S8
G1 X130.573 Y111.374 E.56584
G1 X130.039 Y111.374 E.01676
G1 X117.292 Y98.626 E.56584
G1 X116.758 Y98.626 E.01676
G1 X129.505 Y111.374 E.56584
G1 X128.971 Y111.374 E.01676
G1 X116.224 Y98.626 E.56584
G1 X115.69 Y98.626 E.01676
G1 X128.437 Y111.374 E.56584
G1 X127.904 Y111.374 E.01673
G1 X115.157 Y98.626 E.56584
G1 X114.623 Y98.626 E.01676
M73 P12 R8
G1 X127.37 Y111.374 E.56584
G1 X126.836 Y111.374 E.01676
M73 Q12 S8
G1 X114.089 Y98.626 E.56584
G1 X113.555 Y98.626 E.01676
G1 X126.302 Y111.374 E.56584
G1 X125.768 Y111.374 E.01676
G1 X113.021 Y98.626 E.56584
G1 X112.487 Y98.626 E.01676
G1 X125.234 Y111.374 E.56584
G1 X124.701 Y111.374 E.01673
G1 X111.953 Y98.626 E.56587
G1 X111.42 Y98.626 E.01673
M73 P13 R8
G1 X124.167 Y111.374 E.56584
G1 X123.633 Y111.374 E.01676
M73 Q13 S8
G1 X110.886 Y98.626 E.56584
G1 X110.352 Y98.626 E.01676
G1 X123.099 Y111.374 E.56584
G1 X122.565 Y111.374 E.01676
G1 X109.818 Y98.626 E.56584
G1 X109.284 Y98.626 E.01676
G1 X122.031 Y111.374 E.56584
G1 X121.498 Y111.374 E.01673
G1 X108.75 Y98.626 E.56587
G1 X108.217 Y98.626 E.01673
G1 X120.964 Y111.374 E.56584
G1 X120.43 Y111.374 E.01676
M73 P14 R8
M73 Q14 S8
G1 X107.683 Y98.626 E.56584
G1 X107.149 Y98.626 E.01676
G1 X119.896 Y111.374 E.56584
G1 X119.362 Y111.374 E.01676
G1 X106.615 Y98.626 E.56584
G1 X106.126 Y98.626 E.01535
G1 X106.126 Y98.672 E.00144
G1 X118.828 Y111.374 E.56382
G1 X118.295 Y111.374 E.01673
G1 X106.126 Y99.205 E.54017
G1 X106.126 Y99.739 E.01676
G1 X117.761 Y111.374 E.51646
G1 X117.227 Y111.374 E.01676
M73 P15 R8
G1 X106.126 Y100.273 E.49276
G1 X106.126 Y100.807 E.01676
M73 Q15 S8
G1 X116.693 Y111.374 E.46905
G1 X116.159 Y111.374 E.01676
G1 X106.126 Y101.341 E.44535
G1 X106.126 Y101.875 E.01676
G1 X115.625 Y111.374 E.42165
G1 X115.092 Y111.374 E.01673
G1 X106.126 Y102.408 E.39799
G1 X106.126 Y102.942 E.01676
G1 X114.558 Y111.374 E.37428
G1 X114.024 Y111.374 E.01676
G1 X106.126 Y103.476 E.35058
G1 X106.126 Y104.01 E.01676
G1 X113.49 Y111.374 E.32688
G1 X112.956 Y111.374 E.01676
G1 X106.126 Y104.544 E.30317
G1 X106.126 Y105.078 E.01676
M73 P16 R8
G1 X112.422 Y111.374 E.27947
G1 X111.889 Y111.374 E.01673
M73 Q16 S8
G1 X106.126 Y105.611 E.25581
G1 X106.126 Y106.145 E.01676
G1 X111.355 Y111.374 E.23211
G1 X110.821 Y111.374 E.01676
G1 X106.126 Y106.679 E.2084
G1 X106.126 Y107.213 E.01676
G1 X110.287 Y111.374 E.1847
G1 X109.753 Y111.374 E.01676
G1 X106.126 Y107.747 E.161
G1 X106.126 Y108.281 E.01676
G1 X109.219 Y111.374 E.13729
G1 X108.686 Y111.374 E.01673
G1 X106.126 Y108.814 E.11363
G1 X106.126 Y109.348 E.01676
G1 X108.152 Y111.374 E.08993
G1 X107.618 Y111.374 E.01676
G1 X106.126 Y109.882 E.06623
G1 X106.126 Y110.416 E.01676
G1 X107.084 Y111.374 E.04252
G1 X106.55 Y111.374 E.01676
G1 X105.957 Y110.78 E.02634
M204 S1000
M106 S84.15
;LAYER_CHANGE
;Z:0.5
;HEIGHT:0.3
;BEFORE_LAYER_CHANGE
G92 E0.0
;0.5


;WIPE_START
G1 F8640
G1 X106.55 Y111.374 E-.19381
G1 X107.084 Y111.374 E-.1233
G1 X106.126 Y110.416 E-.31283
G1 X106.126 Y109.882 E-.1233
G1 X106.269 Y110.025 E-.04676
;WIPE_END
G1 Z.5 F720
;AFTER_LAYER_CHANGE
;0.5
; stop printing object stringing_test.stl id:0 copy 0
G1 Z.9
G1 X102.246 Y110.025 F10800
G1 Z.5 F720
G1 E.8 F2100
;TYPE:Skirt/Brim
;WIDTH:0.42
G1 F2700
G1 X102.246 Y97.5 E.55554
G1 X102.639 Y96.083 E.06522
G1 X103.705 Y95.069 E.06526
G1 X105 Y94.746 E.0592
G1 X145 Y94.746 E1.77419
G1 X146.417 Y95.139 E.06522
G1 X147.431 Y96.205 E.06526
G1 X147.754 Y97.5 E.0592
G1 X147.754 Y112.5 E.66532
G1 X147.361 Y113.917 E.06522
M73 P17 R8
G1 X146.295 Y114.931 E.06526
G1 X145 Y115.254 E.0592
G1 X105 Y115.254 E1.77419
G1 X103.583 Y114.861 E.06522
M73 Q17 S8
G1 X102.569 Y113.795 E.06526
G1 X102.246 Y112.5 E.0592
G1 X102.246 Y110.085 E.10712
G1 X102.246 Y110.085 F10800
G1 X102.623 Y110.085
G1 F2700
G1 X102.623 Y97.5 E.55821
G1 X103.015 Y96.193 E.06052
G1 X104.06 Y95.317 E.06048
G1 X105 Y95.123 E.04257
G1 X145 Y95.123 E1.77419
G1 X146.307 Y95.515 E.06052
G1 X147.183 Y96.56 E.06048
G1 X147.377 Y97.5 E.04257
G1 X147.377 Y112.5 E.66532
G1 X146.985 Y113.807 E.06052
G1 X145.94 Y114.683 E.06048
G1 X145 Y114.877 E.04257
G1 X105 Y114.877 E1.77419
G1 X103.693 Y114.485 E.06052
G1 X102.817 Y113.44 E.06048
G1 X102.623 Y112.5 E.04257
G1 X102.623 Y110.145 E.10446
;WIPE_START
G1 F8640
G1 X102.623 Y110.085 E-.01385
G1 X102.623 Y106.68 E-.78615
;WIPE_END
G1 Z.9 F720
; printing object stringing_test.stl id:0 copy 0
G1 X144.214 Y111.714 F10800
G1 Z.5 F720
G1 E.8 F2100
M204 S800
;TYPE:Perimeter
;WIDTH:0.5
G1 F3000
G1 X105.786 Y111.714 E2.0879
G1 X105.786 Y98.286 E.72958
G1 X144.214 Y98.286 E2.0879
M73 P18 R8
G1 X144.214 Y105 E.36479
M73 Q18 S8
G1 X144.214 Y111.654 E.36153
M204 S1000
G1 X144.214 Y111.654 F10800
G1 X144.7 Y112.2
M204 S800
;TYPE:External perimeter
;WIDTH:0.6
G1 F2099.997
G1 X105.3 Y112.2 E2.63213
G1 X105.3 Y97.8 E.962
G1 X144.7 Y97.8 E2.63213
G1 X144.7 Y105 E.481
G1 X144.7 Y112.14 E.47699
M204 S1000
;WIPE_START
G1 F8640
G1 X144.7 Y112.2 E-.01385
G1 X141.295 Y112.2 E-.78615
;WIPE_END
G1 Z.9 F720
G1 X106.296 Y98.713 F10800
G1 Z.5 F720
G1 E.8 F2100
;TYPE:Solid infill
;WIDTH:0.605691
G1 F4800
G1 X106.248 Y98.665 E.00458
G1 X106.183 Y98.683 E.00455
G1 X106.165 Y98.748 E.00455
G1 X106.213 Y98.796 E.00458
G1 X106.278 Y98.778 E.00455
;WIDTH:0.5
G1 X106.178 Y99.474 E.0382
G1 X106.974 Y98.678 E.06116
G1 X107.59 Y98.678 E.03347
G1 X106.178 Y100.09 E.1085
G1 X106.178 Y100.706 E.03347
G1 X108.206 Y98.678 E.15583
G1 X108.822 Y98.678 E.03347
G1 X106.178 Y101.322 E.20316
G1 X106.178 Y101.938 E.03347
G1 X109.438 Y98.678 E.25049
G1 X110.054 Y98.678 E.03347
G1 X106.178 Y102.554 E.29782
G1 X106.178 Y103.171 E.03352
G1 X110.671 Y98.678 E.34523
G1 X111.287 Y98.678 E.03347
M73 P19 R8
G1 X106.178 Y103.787 E.39257
G1 X106.178 Y104.403 E.03347
G1 X111.903 Y98.678 E.4399
G1 X112.519 Y98.678 E.03347
G1 X106.178 Y105.019 E.48723
G1 X106.178 Y105.635 E.03347
G1 X113.135 Y98.678 E.53456
G1 X113.751 Y98.678 E.03347
M73 Q19 S8
G1 X106.178 Y106.251 E.5819
G1 X106.178 Y106.867 E.03347
G1 X114.367 Y98.678 E.62923
G1 X114.983 Y98.678 E.03347
G1 X106.178 Y107.483 E.67656
G1 X106.178 Y108.099 E.03347
G1 X115.599 Y98.678 E.72389
G1 X116.215 Y98.678 E.03347
G1 X106.178 Y108.715 E.77122
G1 X106.178 Y109.331 E.03347
G1 X116.831 Y98.678 E.81856
G1 X117.447 Y98.678 E.03347
G1 X106.178 Y109.947 E.86589
G1 X106.178 Y110.563 E.03347
G1 X118.063 Y98.678 E.91322
G1 X118.679 Y98.678 E.03347
G1 X106.178 Y111.179 E.96055
G1 X106.137 Y111.306 E.00725
;WIDTH:0.45219
G1 X106.097 Y111.433 E.00644
;WIDTH:0.404381
G1 X106.026 Y111.414 E.00312
G1 X106.045 Y111.485 E.00312
G1 X106.086 Y111.474 E.0018
;WIDTH:0.5
G1 X106.651 Y111.322 E.03179
G1 X119.295 Y98.678 E.97154
G1 X119.911 Y98.678 E.03347
G1 X107.267 Y111.322 E.97154
G1 X107.883 Y111.322 E.03347
G1 X120.527 Y98.678 E.97154
G1 X121.144 Y98.678 E.03352
M73 P19 R7
G1 X108.499 Y111.322 E.97158
G1 X109.115 Y111.322 E.03347
G1 X121.76 Y98.678 E.97158
G1 X122.376 Y98.678 E.03347
G1 X109.731 Y111.322 E.97158
G1 X110.347 Y111.322 E.03347
G1 X122.992 Y98.678 E.97158
G1 X123.608 Y98.678 E.03347
G1 X110.963 Y111.322 E.97158
G1 X111.579 Y111.322 E.03347
G1 X124.224 Y98.678 E.97158
G1 X124.84 Y98.678 E.03347
M73 P20 R7
G1 X112.195 Y111.322 E.97158
G1 X112.811 Y111.322 E.03347
G1 X125.456 Y98.678 E.97158
G1 X126.072 Y98.678 E.03347
M73 Q20 S8
G1 X113.427 Y111.322 E.97158
G1 X114.043 Y111.322 E.03347
G1 X126.688 Y98.678 E.97158
G1 X127.304 Y98.678 E.03347
G1 X114.659 Y111.322 E.97158
G1 X115.276 Y111.322 E.03352
G1 X127.92 Y98.678 E.97154
G1 X128.536 Y98.678 E.03347
G1 X115.892 Y111.322 E.97154
G1 X116.508 Y111.322 E.03347
G1 X129.152 Y98.678 E.97154
G1 X129.768 Y98.678 E.03347
G1 X117.124 Y111.322 E.97154
G1 X117.74 Y111.322 E.03347
G1 X130.384 Y98.678 E.97154
G1 X131 Y98.678 E.03347
G1 X118.356 Y111.322 E.97154
G1 X118.972 Y111.322 E.03347
G1 X131.617 Y98.678 E.97158
G1 X132.233 Y98.678 E.03347
G1 X119.588 Y111.322 E.97158
G1 X120.204 Y111.322 E.03347
G1 X132.849 Y98.678 E.97158
G1 X133.465 Y98.678 E.03347
G1 X120.82 Y111.322 E.97158
G1 X121.436 Y111.322 E.03347
M73 Q20 S7
G1 X134.081 Y98.678 E.97158
G1 X134.697 Y98.678 E.03347
G1 X122.052 Y111.322 E.97158
G1 X122.668 Y111.322 E.03347
G1 X135.313 Y98.678 E.97158
G1 X135.929 Y98.678 E.03347
M73 P21 R7
G1 X123.284 Y111.322 E.97158
G1 X123.9 Y111.322 E.03347
G1 X136.545 Y98.678 E.97158
G1 X137.161 Y98.678 E.03347
G1 X124.516 Y111.322 E.97158
G1 X125.132 Y111.322 E.03347
M73 Q21 S7
G1 X137.777 Y98.678 E.97158
G1 X138.393 Y98.678 E.03347
G1 X125.749 Y111.322 E.97154
G1 X126.365 Y111.322 E.03347
G1 X139.009 Y98.678 E.97154
G1 X139.625 Y98.678 E.03347
G1 X126.981 Y111.322 E.97154
G1 X127.597 Y111.322 E.03347
G1 X140.241 Y98.678 E.97154
G1 X140.857 Y98.678 E.03347
G1 X128.213 Y111.322 E.97154
G1 X128.829 Y111.322 E.03347
G1 X141.473 Y98.678 E.97154
G1 X142.09 Y98.678 E.03352
G1 X129.445 Y111.322 E.97158
G1 X130.061 Y111.322 E.03347
G1 X142.706 Y98.678 E.97158
G1 X143.322 Y98.678 E.03347
G1 X130.677 Y111.322 E.97158
G1 X131.293 Y111.322 E.03347
G1 X143.822 Y98.793 E.96271
G1 X143.903 Y98.684 E.00738
;WIDTH:0.45219
G1 X143.984 Y98.576 E.00653
;WIDTH:0.404381
G1 X143.943 Y98.587 E.0018
G1 X143.924 Y98.516 E.00312
G1 X143.995 Y98.535 E.00312
G1 X143.995 Y98.535 F10800
G1 X143.822 Y99.409
;WIDTH:0.5
G1 F4800
G1 X131.909 Y111.322 E.91537
G1 X132.525 Y111.322 E.03347
G1 X143.822 Y100.025 E.86804
G1 X143.822 Y100.641 E.03347
G1 X133.141 Y111.322 E.82071
G1 X133.757 Y111.322 E.03347
G1 X143.822 Y101.257 E.77338
G1 X143.822 Y101.873 E.03347
G1 X134.373 Y111.322 E.72604
